;machine_type: Adventurer 3 Series
;right_extruder_material: PLA
;right_extruder_material_density: 1.24
;filament_diameter0: 1.75
;right_extruder_temperature: 210
;layer_height: 0.18
;perimeter_shells: 2
;top_solid_layers: 4
;bottom_solid_layers: 3
;fill_density: 100%
;fill_pattern: hexagon
;base_print_speed: 60
;travel_speed: 80
;platform_temperature: 75
;right_extruder_temperature_raft0: 215
;right_extruder_temperature_reset: 
;left_extruder_temperature_reset: 
;start gcode
M118 X16.59 Y16.59 Z30.85 T0
M140 S75 T0
M104 S215 T0
M104 S0 T1
M107
G90
G28
M132 X Y Z A B
G1 Z50.000 F420
G161 X Y F3300
M7 T0
M6 T0
M651 S255
;layer_count: 167
M108 T0
G1 X.32 Y-16.59 F4800
;preExtrude:0.20
M106
G1 Z.200 F420
;structure:pre-extrude
G1 X.32 Y-16.59 F4800
G1 X1.45 Y-16.53 E.1641 F1200
G1 X2.02 Y-16.47 E.2472
G1 X3.07 Y-16.31 E.4012
G1 X3.62 Y-16.19 E.4829
G1 X4.64 Y-15.93 E.6355
G1 X5.16 Y-15.77 E.7144
G1 X6.09 Y-15.44 E.8575
G1 X6.64 Y-15.21 E.9440
G1 X7.07 Y-15.00 E1.0134
G1 X15.00 Y-15.00 E2.1633
G1 X15.00 Y-7.08 E3.3118
G1 X15.22 Y-6.61 E3.3871
G1 X15.44 Y-6.09 E3.4690
G1 X15.80 Y-5.09 E3.6231
G1 X15.97 Y-4.51 E3.7107
G1 X16.24 Y-3.41 E3.8750
G1 X16.34 Y-2.89 E3.9518
G1 X16.49 Y-1.91 E4.0955
G1 X16.54 Y-1.34 E4.1785
G1 X16.59 Y-.28 E4.3324
G1 X16.59 Y.32 E4.4194
G1 X16.53 Y1.44 E4.5821
G1 X16.48 Y1.98 E4.6607
G1 X16.33 Y2.97 E4.8059
G1 X16.21 Y3.56 E4.8932
G1 X15.93 Y4.65 E5.0564
G1 X15.76 Y5.19 E5.1385
G1 X15.40 Y6.19 E5.2926
G1 X15.19 Y6.67 E5.3686
G1 X15.00 Y7.08 E5.4341
G1 X15.00 Y15.00 E6.5827
G1 X7.07 Y15.00 E7.7326
G1 X6.51 Y15.26 E7.8222
G1 X6.03 Y15.46 E7.8976
G1 X5.09 Y15.80 E8.0425
G1 X4.55 Y15.96 E8.1242
G1 X3.52 Y16.22 E8.2782
G1 X2.92 Y16.34 E8.3670
G1 X1.81 Y16.49 E8.5294
G1 X1.28 Y16.55 E8.6067
G1 X.28 Y16.59 E8.7519
G1 X-.32 Y16.59 E8.8389
G1 X-1.44 Y16.53 E9.0015
G1 X-1.98 Y16.48 E9.0802
G1 X-2.96 Y16.33 E9.2239
G1 X-3.55 Y16.21 E9.3113
G1 X-4.64 Y15.93 E9.4745
G1 X-5.16 Y15.77 E9.5534
G1 X-6.09 Y15.44 E9.6965
G1 X-6.65 Y15.21 E9.7842
G1 X-7.07 Y15.00 E9.8523
G1 X-15.00 Y15.00 E11.0023
G1 X-15.00 Y7.07 E12.1523
G1 X-15.26 Y6.51 E12.2418
G1 X-15.48 Y5.99 E12.3237
G1 X-15.83 Y4.99 E12.4773
G1 X-15.99 Y4.43 E12.5618
G1 X-16.24 Y3.40 E12.7155
G1 X-16.34 Y2.85 E12.7965
G1 X-16.49 Y1.81 E12.9489
G1 X-16.54 Y1.28 E13.0261
G1 X-16.59 Y.28 E13.1713
G1 X-16.59 Y-.32 E13.2583
G1 X-16.53 Y-1.45 E13.4224
G1 X-16.47 Y-2.02 E13.5055
G1 X-16.31 Y-3.07 E13.6596
G1 X-16.19 Y-3.62 E13.7412
G1 X-15.93 Y-4.64 E13.8938
G1 X-15.77 Y-5.16 E13.9727
G1 X-15.44 Y-6.09 E14.1158
G1 X-15.21 Y-6.65 E14.2036
G1 X-15.00 Y-7.07 E14.2717
G1 X-15.00 Y-15.00 E15.4217
G1 X-7.08 Y-15.00 E16.5702
G1 X-6.61 Y-15.22 E16.6454
G1 X-6.09 Y-15.44 E16.7273
G1 X-5.09 Y-15.80 E16.8814
G1 X-4.50 Y-15.97 E16.9705
G1 X-3.40 Y-16.24 E17.1347
G1 X-2.85 Y-16.34 E17.2158
G1 X-1.81 Y-16.49 E17.3682
G1 X-1.28 Y-16.54 E17.4454
G1 X-.28 Y-16.59 E17.5906
G1 X.32 Y-16.59 E17.6776
;raft
;layer:0.40
;support-start
G1 E12.6776 F1500
G1 Z.400 F420
G1 X.27 Y-14.99 F4800
G1 E17.6776 F1500
;structure:raft
G1 X.27 Y-14.99 F4200
G1 X1.32 Y-14.94 E17.9825 F480
G1 X1.82 Y-14.88 E18.1285
G1 X2.78 Y-14.73 E18.4103
G1 X3.26 Y-14.63 E18.5525
G1 X4.21 Y-14.39 E18.8367
G1 X4.65 Y-14.25 E18.9706
G1 X5.51 Y-13.95 E19.2348
G1 X5.99 Y-13.75 E19.3856
G1 X6.93 Y-13.29 E19.6891
G1 X7.34 Y-13.07 E19.8241
G1 X8.13 Y-12.60 E20.0907
G1 X8.56 Y-12.31 E20.2411
G1 X9.40 Y-11.68 E20.5456
G1 X9.75 Y-11.39 E20.6774
G1 X10.43 Y-10.78 E20.9424
G1 X10.80 Y-10.40 E21.0962
G1 X11.50 Y-9.62 E21.4002
G1 X11.80 Y-9.24 E21.5406
G1 X12.38 Y-8.45 E21.8248
G1 X12.65 Y-8.04 E21.9672
G1 X13.15 Y-7.20 E22.2507
G1 X13.37 Y-6.79 E22.3857
G1 X13.76 Y-5.96 E22.6517
G1 X13.95 Y-5.51 E22.7933
G1 X14.28 Y-4.59 E23.0768
G1 X14.43 Y-4.09 E23.2282
G1 X14.68 Y-3.07 E23.5328
G1 X14.76 Y-2.62 E23.6653
G1 X14.90 Y-1.72 E23.9295
G1 X14.95 Y-1.22 E24.0752
G1 X14.99 Y-.25 E24.3568
G1 X14.99 Y.27 E24.5076
G1 X14.94 Y1.32 E24.8125
G1 X14.89 Y1.78 E24.9467
G1 X14.75 Y2.69 E25.2137
G1 X14.65 Y3.20 E25.3645
G1 X14.39 Y4.21 E25.6669
G1 X14.24 Y4.68 E25.8100
G1 X13.91 Y5.60 E26.0935
G1 X13.73 Y6.02 E26.2260
G1 X13.34 Y6.85 E26.4920
G1 X13.09 Y7.31 E26.6438
G1 X12.55 Y8.21 E26.9483
G1 X12.29 Y8.58 E27.0794
G1 X11.75 Y9.32 E27.3451
G1 X11.44 Y9.70 E27.4873
G1 X10.78 Y10.43 E27.7728
G1 X10.41 Y10.80 E27.9245
G1 X9.63 Y11.50 E28.2285
G1 X9.24 Y11.81 E28.3730
G1 X8.45 Y12.38 E28.6555
G1 X8.07 Y12.64 E28.7890
G1 X7.29 Y13.11 E29.0532
G1 X6.82 Y13.35 E29.2062
G1 X5.87 Y13.80 E29.5111
G1 X5.45 Y13.97 E29.6425
G1 X4.59 Y14.28 E29.9076
G1 X4.12 Y14.42 E30.0499
G1 X3.17 Y14.66 E30.3341
G1 X2.65 Y14.76 E30.4876
G1 X1.62 Y14.91 E30.7895
G1 X1.16 Y14.95 E30.9234
G1 X.25 Y14.99 E31.1876
G1 X-.27 Y14.99 E31.3384
G1 X-1.32 Y14.94 E31.6433
G1 X-1.78 Y14.89 E31.7775
G1 X-2.69 Y14.75 E32.0445
G1 X-3.20 Y14.65 E32.1953
G1 X-4.21 Y14.39 E32.4977
G1 X-4.65 Y14.25 E32.6317
G1 X-5.51 Y13.95 E32.8958
G1 X-5.99 Y13.75 E33.0466
G1 X-6.93 Y13.29 E33.3502
G1 X-7.37 Y13.06 E33.4942
G1 X-8.21 Y12.55 E33.7792
G1 X-8.59 Y12.29 E33.9127
G1 X-9.32 Y11.75 E34.1761
G1 X-9.70 Y11.44 E34.3183
G1 X-10.43 Y10.78 E34.6037
G1 X-10.80 Y10.40 E34.7575
G1 X-11.50 Y9.62 E35.0615
G1 X-11.80 Y9.25 E35.1997
G1 X-12.38 Y8.45 E35.4862
G1 X-12.64 Y8.07 E35.6198
G1 X-13.11 Y7.29 E35.8839
G1 X-13.35 Y6.82 E36.0370
G1 X-13.80 Y5.87 E36.3418
G1 X-13.98 Y5.42 E36.4824
G1 X-14.30 Y4.49 E36.7676
G1 X-14.44 Y4.02 E36.9099
G1 X-14.68 Y3.06 E37.1969
G1 X-14.77 Y2.59 E37.3357
G1 X-14.90 Y1.62 E37.6195
G1 X-14.95 Y1.16 E37.7537
G1 X-14.99 Y.25 E38.0179
G1 X-14.99 Y-.27 E38.1687
G1 X-14.94 Y-1.32 E38.4736
G1 X-14.88 Y-1.81 E38.6167
G1 X-14.73 Y-2.78 E38.9014
G1 X-14.63 Y-3.26 E39.0436
G1 X-14.39 Y-4.21 E39.3278
G1 X-14.25 Y-4.65 E39.4617
G1 X-13.95 Y-5.51 E39.7259
G1 X-13.75 Y-5.99 E39.8767
G1 X-13.29 Y-6.93 E40.1802
G1 X-13.06 Y-7.37 E40.3242
G1 X-12.55 Y-8.21 E40.6092
G1 X-12.27 Y-8.62 E40.7532
G1 X-11.68 Y-9.40 E41.0369
G1 X-11.39 Y-9.75 E41.1687
G1 X-10.78 Y-10.43 E41.4336
G1 X-10.42 Y-10.78 E41.5793
G1 X-9.70 Y-11.44 E41.8625
G1 X-9.32 Y-11.74 E42.0030
G1 X-8.54 Y-12.33 E42.2866
G1 X-8.13 Y-12.60 E42.4290
G1 X-7.29 Y-13.11 E42.7140
G1 X-6.85 Y-13.34 E42.8580
G1 X-5.96 Y-13.76 E43.1434
G1 X-5.51 Y-13.95 E43.2851
G1 X-4.59 Y-14.28 E43.5686
G1 X-4.08 Y-14.43 E43.7227
G1 X-3.07 Y-14.68 E44.0245
G1 X-2.59 Y-14.77 E44.1662
G1 X-1.62 Y-14.90 E44.4500
G1 X-1.16 Y-14.95 E44.5842
G1 X-.25 Y-14.99 E44.8484
G1 X.27 Y-14.99 E44.9992
G1 E39.9992 F1500
G1 X-4.84 Y-13.34 F4800
G1 E44.9992 F1500
G1 X-4.84 Y-13.34 F4200
G1 X-13.34 Y-4.84 E48.4856 F480
G1 X-13.62 Y-3.99 E48.7451
G1 X-13.85 Y-3.08 E49.0174
G1 X-13.95 Y-2.62 E49.1539
G1 X-14.09 Y-1.72 E49.4180
G1 X-14.14 Y-1.27 E49.5494
G1 X-14.19 Y-.25 E49.8455
G1 X-14.19 Y.23 E49.9848
G1 X-14.15 Y1.11 E50.2403
G1 X-14.05 Y1.93 E50.4798
G1 X1.94 Y-14.05 E57.0363
G1 X2.63 Y-13.95 E57.2385
G1 X3.08 Y-13.85 E57.3722
G1 X3.99 Y-13.62 E57.6444
G1 X4.41 Y-13.49 E57.7719
G1 X5.22 Y-13.20 E58.0215
G1 X5.67 Y-13.01 E58.1631
G1 X6.54 Y-12.59 E58.4433
G1 X-12.60 Y6.54 E66.2918
G1 X-12.41 Y6.89 E66.4073
G1 X-11.96 Y7.65 E66.6634
G1 X-11.72 Y8.00 E66.7865
G1 X-11.17 Y8.76 E67.0586
G1 X-10.89 Y9.10 E67.1863
G1 X-10.21 Y9.86 E67.4821
G1 X-10.04 Y10.04 E67.5539
G1 X10.04 Y-10.04 E75.7900
G1 X10.22 Y-9.85 E75.8659
G1 X10.88 Y-9.12 E76.1513
G1 X11.17 Y-8.76 E76.2854
G1 X11.73 Y-7.99 E76.5615
G1 X11.97 Y-7.62 E76.6894
G1 X12.45 Y-6.81 E76.9625
G1 X12.59 Y-6.54 E77.0507
G1 X-6.54 Y12.59 E84.8971
G1 X-5.67 Y13.01 E85.1773
G1 X-5.22 Y13.20 E85.3190
G1 X-4.40 Y13.49 E85.5712
G1 X-4.00 Y13.62 E85.6932
G1 X-3.01 Y13.87 E85.9893
G1 X-2.55 Y13.97 E86.1259
G1 X-1.94 Y14.06 E86.3047
G1 X14.05 Y-1.94 E92.8653
G1 X14.15 Y-1.17 E93.0904
G1 X14.19 Y-.23 E93.3633
G1 X14.19 Y.25 E93.5025
G1 X14.14 Y1.25 E93.7929
G1 X14.09 Y1.69 E93.9214
G1 X13.97 Y2.55 E94.1732
G1 X13.87 Y3.01 E94.3097
G1 X13.62 Y4.00 E94.6059
G1 X13.49 Y4.42 E94.7334
G1 X13.33 Y4.84 E94.8637
G1 X4.84 Y13.34 E98.3481
;support-end
;layer:0.40
;support-start
M104 S210 T0
G1 E93.3481 F1500
G1 Z.800 F420
G1 X.27 Y-14.99 F4800
G1 E98.3481 F1500
G1 X.27 Y-14.99 F4800
G1 X1.32 Y-14.94 E98.4243 F1800
G1 X1.82 Y-14.88 E98.4608
G1 X2.78 Y-14.73 E98.5313
G1 X3.26 Y-14.63 E98.5668
G1 X4.21 Y-14.39 E98.6379
G1 X4.65 Y-14.25 E98.6713
G1 X5.51 Y-13.95 E98.7374
G1 X5.99 Y-13.75 E98.7751
G1 X6.93 Y-13.29 E98.8510
G1 X7.34 Y-13.07 E98.8847
G1 X8.13 Y-12.60 E98.9513
G1 X8.56 Y-12.31 E98.9889
G1 X9.40 Y-11.68 E99.0651
G1 X9.75 Y-11.39 E99.0980
G1 X10.43 Y-10.78 E99.1643
G1 X10.80 Y-10.40 E99.2027
G1 X11.50 Y-9.62 E99.2787
G1 X11.80 Y-9.24 E99.3138
G1 X12.38 Y-8.45 E99.3849
G1 X12.65 Y-8.04 E99.4205
G1 X13.15 Y-7.20 E99.4914
G1 X13.37 Y-6.79 E99.5251
G1 X13.76 Y-5.96 E99.5916
G1 X13.95 Y-5.51 E99.6270
G1 X14.28 Y-4.59 E99.6979
G1 X14.43 Y-4.09 E99.7357
G1 X14.68 Y-3.07 E99.8119
G1 X14.76 Y-2.62 E99.8450
G1 X14.90 Y-1.72 E99.9110
G1 X14.95 Y-1.22 E99.9475
G1 X14.99 Y-.25 E100.0179
G1 X14.99 Y.27 E100.0556
G1 X14.94 Y1.32 E100.1318
G1 X14.89 Y1.78 E100.1653
G1 X14.75 Y2.69 E100.2321
G1 X14.65 Y3.20 E100.2698
G1 X14.39 Y4.21 E100.3454
G1 X14.24 Y4.68 E100.3812
G1 X13.91 Y5.60 E100.4520
G1 X13.73 Y6.02 E100.4852
G1 X13.34 Y6.85 E100.5517
G1 X13.09 Y7.31 E100.5896
G1 X12.55 Y8.21 E100.6657
G1 X12.29 Y8.58 E100.6985
G1 X11.75 Y9.32 E100.7649
G1 X11.44 Y9.70 E100.8005
G1 X10.78 Y10.43 E100.8718
G1 X10.41 Y10.80 E100.9098
G1 X9.63 Y11.50 E100.9858
G1 X9.24 Y11.81 E101.0219
G1 X8.45 Y12.38 E101.0925
G1 X8.07 Y12.64 E101.1259
G1 X7.29 Y13.11 E101.1920
G1 X6.82 Y13.35 E101.2302
G1 X5.87 Y13.80 E101.3064
G1 X5.45 Y13.97 E101.3393
G1 X4.59 Y14.28 E101.4056
G1 X4.12 Y14.42 E101.4411
G1 X3.17 Y14.66 E101.5122
G1 X2.65 Y14.76 E101.5506
G1 X1.62 Y14.91 E101.6260
G1 X1.16 Y14.95 E101.6595
G1 X.25 Y14.99 E101.7256
G1 X-.27 Y14.99 E101.7633
G1 X-1.32 Y14.94 E101.8395
G1 X-1.78 Y14.89 E101.8730
G1 X-2.69 Y14.75 E101.9398
G1 X-3.20 Y14.65 E101.9775
G1 X-4.21 Y14.39 E102.0531
G1 X-4.65 Y14.25 E102.0866
G1 X-5.51 Y13.95 E102.1526
G1 X-5.99 Y13.75 E102.1903
G1 X-6.93 Y13.29 E102.2662
G1 X-7.37 Y13.06 E102.3022
G1 X-8.21 Y12.55 E102.3734
G1 X-8.59 Y12.29 E102.4068
G1 X-9.32 Y11.75 E102.4727
G1 X-9.70 Y11.44 E102.5082
G1 X-10.43 Y10.78 E102.5796
G1 X-10.80 Y10.40 E102.6180
G1 X-11.50 Y9.62 E102.6940
G1 X-11.80 Y9.25 E102.7285
G1 X-12.38 Y8.45 E102.8002
G1 X-12.64 Y8.07 E102.8336
G1 X-13.11 Y7.29 E102.8996
G1 X-13.35 Y6.82 E102.9379
G1 X-13.80 Y5.87 E103.0141
G1 X-13.98 Y5.42 E103.0492
G1 X-14.30 Y4.49 E103.1205
G1 X-14.44 Y4.02 E103.1561
G1 X-14.68 Y3.06 E103.2279
G1 X-14.77 Y2.59 E103.2626
G1 X-14.90 Y1.62 E103.3335
G1 X-14.95 Y1.16 E103.3671
G1 X-14.99 Y.25 E103.4331
G1 X-14.99 Y-.27 E103.4708
G1 X-14.94 Y-1.32 E103.5470
G1 X-14.88 Y-1.81 E103.5828
G1 X-14.73 Y-2.78 E103.6540
G1 X-14.63 Y-3.26 E103.6895
G1 X-14.39 Y-4.21 E103.7606
G1 X-14.25 Y-4.65 E103.7941
G1 X-13.95 Y-5.51 E103.8601
G1 X-13.75 Y-5.99 E103.8978
G1 X-13.29 Y-6.93 E103.9737
G1 X-13.06 Y-7.37 E104.0097
G1 X-12.55 Y-8.21 E104.0809
G1 X-12.27 Y-8.62 E104.1169
G1 X-11.68 Y-9.40 E104.1878
G1 X-11.39 Y-9.75 E104.2208
G1 X-10.78 Y-10.43 E104.2870
G1 X-10.42 Y-10.78 E104.3234
G1 X-9.70 Y-11.44 E104.3943
G1 X-9.32 Y-11.74 E104.4294
G1 X-8.54 Y-12.33 E104.5003
G1 X-8.13 Y-12.60 E104.5359
G1 X-7.29 Y-13.11 E104.6071
G1 X-6.85 Y-13.34 E104.6431
G1 X-5.96 Y-13.76 E104.7145
G1 X-5.51 Y-13.95 E104.7499
G1 X-4.59 Y-14.28 E104.8208
G1 X-4.08 Y-14.43 E104.8593
G1 X-3.07 Y-14.68 E104.9348
G1 X-2.59 Y-14.77 E104.9702
G1 X-1.62 Y-14.90 E105.0411
G1 X-1.16 Y-14.95 E105.0747
G1 X-.25 Y-14.99 E105.1407
G1 X.27 Y-14.99 E105.1784
G1 E100.1784 F1500
G1 X7.49 Y-12.75 F4800
G1 E105.1784 F1500
G1 X7.49 Y-12.75 F4800
G1 X12.74 Y-7.50 E105.7168 F1800
G1 X12.98 Y-7.10 E105.7506
G1 X13.19 Y-6.70 E105.7833
G1 X13.57 Y-5.88 E105.8489
G1 X13.76 Y-5.44 E105.8836
G1 X14.09 Y-4.53 E105.9538
G1 X14.21 Y-4.10 E105.9862
G1 X4.10 Y-14.21 E107.0229
G1 X3.21 Y-14.44 E107.0895
G1 X2.75 Y-14.53 E107.1235
G1 X1.69 Y-14.69 E107.2012
G1 X14.70 Y-1.69 E108.5348
G1 X14.75 Y-1.21 E108.5697
G1 X14.79 Y-.25 E108.6394
G1 X14.79 Y.33 E108.6815
G1 X-.33 Y-14.79 E110.2319
G1 X-1.15 Y-14.75 E110.2914
G1 X-1.59 Y-14.71 E110.3234
G1 X-2.10 Y-14.63 E110.3609
G1 X14.64 Y2.11 E112.0774
G1 X14.56 Y2.66 E112.1177
G1 X14.46 Y3.15 E112.1540
G1 X14.31 Y3.71 E112.1960
G1 X-3.71 Y-14.31 E114.0438
G1 X-4.02 Y-14.24 E114.0668
G1 X-4.53 Y-14.08 E114.1056
G1 X-5.18 Y-13.85 E114.1556
G1 X13.85 Y5.18 E116.1069
G1 X13.55 Y5.93 E116.1655
G1 X13.27 Y6.53 E116.2135
G1 X-6.52 Y-13.27 E118.2433
G1 X-7.18 Y-12.94 E118.2968
G1 X-7.77 Y-12.58 E118.3469
G1 X12.58 Y7.76 E120.4331
G1 X12.13 Y8.46 E120.4934
G1 X11.80 Y8.91 E120.5339
G1 X-8.91 Y-11.80 E122.6575
G1 X-9.57 Y-11.28 E122.7184
G1 X-9.96 Y-10.93 E122.7564
G1 X10.93 Y9.96 E124.8985
G1 X10.64 Y10.29 E124.9303
G1 X10.26 Y10.66 E124.9688
G1 X9.96 Y10.92 E124.9976
G1 X-10.93 Y-9.96 E127.1391
G1 X-11.25 Y-9.61 E127.1735
G1 X-11.80 Y-8.91 E127.2381
G1 X8.91 Y11.80 E129.3617
G1 X8.34 Y12.22 E129.4130
G1 X7.76 Y12.58 E129.4625
G1 X-12.58 Y-7.76 E131.5482
G1 X-12.89 Y-7.26 E131.5909
G1 X-13.27 Y-6.52 E131.6512
G1 X6.52 Y13.27 E133.6804
G1 X5.79 Y13.61 E133.7388
G1 X5.18 Y13.85 E133.7864
G1 X-13.85 Y-5.18 E135.7377
G1 X-14.06 Y-4.59 E135.7831
G1 X-14.20 Y-4.16 E135.8159
G1 X-14.31 Y-3.71 E135.8495
G1 X3.71 Y14.31 E137.6973
G1 X3.12 Y14.46 E137.7414
G1 X2.62 Y14.56 E137.7784
G1 X2.10 Y14.63 E137.8164
G1 X-14.63 Y-2.10 E139.5319
G1 X-14.74 Y-1.30 E139.5905
G1 X-14.79 Y-.33 E139.6609
G1 X.33 Y14.79 E141.2113
G1 X-.26 Y14.79 E141.2541
G1 X-1.31 Y14.74 E141.3303
G1 X-1.69 Y14.70 E141.3580
G1 X-14.69 Y1.69 E142.6915
G1 X-14.57 Y2.56 E142.7552
G1 X-14.48 Y3.02 E142.7892
G1 X-14.21 Y4.10 E142.8699
G1 X-4.10 Y14.21 E143.9066
G1 X-4.59 Y14.06 E143.9438
G1 X-5.44 Y13.76 E144.0091
G1 X-5.91 Y13.56 E144.0462
G1 X-6.84 Y13.12 E144.1207
G1 X-7.50 Y12.74 E144.1760
G1 X-12.75 Y7.49 E144.7143
;support-end
;layer:0.25
;support-start
G1 E139.7143 F1500
G1 Z1.050 F420
G1 X.27 Y-14.99 F4800
G1 E144.7143 F1500
G1 X.27 Y-14.99 F4800
G1 X1.32 Y-14.94 E144.7620 F3600
G1 X1.82 Y-14.88 E144.7848
G1 X2.78 Y-14.73 E144.8288
G1 X3.26 Y-14.63 E144.8510
G1 X4.21 Y-14.39 E144.8954
G1 X4.65 Y-14.25 E144.9164
G1 X5.51 Y-13.95 E144.9576
G1 X5.99 Y-13.75 E144.9812
G1 X6.93 Y-13.29 E145.0286
G1 X7.34 Y-13.07 E145.0497
G1 X8.13 Y-12.60 E145.0914
G1 X8.56 Y-12.31 E145.1149
G1 X9.40 Y-11.68 E145.1625
G1 X9.75 Y-11.39 E145.1830
G1 X10.43 Y-10.78 E145.2244
G1 X10.80 Y-10.40 E145.2485
G1 X11.50 Y-9.62 E145.2960
G1 X11.80 Y-9.24 E145.3179
G1 X12.38 Y-8.45 E145.3623
G1 X12.65 Y-8.04 E145.3846
G1 X13.15 Y-7.20 E145.4289
G1 X13.37 Y-6.79 E145.4499
G1 X13.76 Y-5.96 E145.4915
G1 X13.95 Y-5.51 E145.5136
G1 X14.28 Y-4.59 E145.5579
G1 X14.43 Y-4.09 E145.5816
G1 X14.68 Y-3.07 E145.6292
G1 X14.76 Y-2.62 E145.6499
G1 X14.90 Y-1.72 E145.6912
G1 X14.95 Y-1.22 E145.7139
G1 X14.99 Y-.25 E145.7579
G1 X14.99 Y.27 E145.7815
G1 X14.94 Y1.32 E145.8292
G1 X14.89 Y1.78 E145.8501
G1 X14.75 Y2.69 E145.8918
G1 X14.65 Y3.20 E145.9154
G1 X14.39 Y4.21 E145.9627
G1 X14.24 Y4.68 E145.9850
G1 X13.91 Y5.60 E146.0293
G1 X13.73 Y6.02 E146.0500
G1 X13.34 Y6.85 E146.0916
G1 X13.09 Y7.31 E146.1153
G1 X12.55 Y8.21 E146.1628
G1 X12.29 Y8.58 E146.1834
G1 X11.75 Y9.32 E146.2249
G1 X11.44 Y9.70 E146.2471
G1 X10.78 Y10.43 E146.2917
G1 X10.41 Y10.80 E146.3154
G1 X9.63 Y11.50 E146.3629
G1 X9.24 Y11.81 E146.3855
G1 X8.45 Y12.38 E146.4296
G1 X8.07 Y12.64 E146.4505
G1 X7.29 Y13.11 E146.4917
G1 X6.82 Y13.35 E146.5157
G1 X5.87 Y13.80 E146.5633
G1 X5.45 Y13.97 E146.5838
G1 X4.59 Y14.28 E146.6253
G1 X4.12 Y14.42 E146.6475
G1 X3.17 Y14.66 E146.6919
G1 X2.65 Y14.76 E146.7159
G1 X1.62 Y14.91 E146.7631
G1 X1.16 Y14.95 E146.7840
G1 X.25 Y14.99 E146.8253
G1 X-.27 Y14.99 E146.8488
G1 X-1.32 Y14.94 E146.8965
G1 X-1.78 Y14.89 E146.9174
G1 X-2.69 Y14.75 E146.9591
G1 X-3.20 Y14.65 E146.9827
G1 X-4.21 Y14.39 E147.0300
G1 X-4.65 Y14.25 E147.0509
G1 X-5.51 Y13.95 E147.0922
G1 X-5.99 Y13.75 E147.1157
G1 X-6.93 Y13.29 E147.1632
G1 X-7.37 Y13.06 E147.1856
G1 X-8.21 Y12.55 E147.2302
G1 X-8.59 Y12.29 E147.2510
G1 X-9.32 Y11.75 E147.2922
G1 X-9.70 Y11.44 E147.3144
G1 X-10.43 Y10.78 E147.3590
G1 X-10.80 Y10.40 E147.3830
G1 X-11.50 Y9.62 E147.4305
G1 X-11.80 Y9.25 E147.4521
G1 X-12.38 Y8.45 E147.4969
G1 X-12.64 Y8.07 E147.5178
G1 X-13.11 Y7.29 E147.5590
G1 X-13.35 Y6.82 E147.5830
G1 X-13.80 Y5.87 E147.6306
G1 X-13.98 Y5.42 E147.6526
G1 X-14.30 Y4.49 E147.6971
G1 X-14.44 Y4.02 E147.7194
G1 X-14.68 Y3.06 E147.7642
G1 X-14.77 Y2.59 E147.7859
G1 X-14.90 Y1.62 E147.8302
G1 X-14.95 Y1.16 E147.8512
G1 X-14.99 Y.25 E147.8925
G1 X-14.99 Y-.27 E147.9160
G1 X-14.94 Y-1.32 E147.9637
G1 X-14.88 Y-1.81 E147.9861
G1 X-14.73 Y-2.78 E148.0305
G1 X-14.63 Y-3.26 E148.0528
G1 X-14.39 Y-4.21 E148.0972
G1 X-14.25 Y-4.65 E148.1181
G1 X-13.95 Y-5.51 E148.1594
G1 X-13.75 Y-5.99 E148.1829
G1 X-13.29 Y-6.93 E148.2304
G1 X-13.06 Y-7.37 E148.2528
G1 X-12.55 Y-8.21 E148.2974
G1 X-12.27 Y-8.62 E148.3199
G1 X-11.68 Y-9.40 E148.3642
G1 X-11.39 Y-9.75 E148.3848
G1 X-10.78 Y-10.43 E148.4262
G1 X-10.42 Y-10.78 E148.4490
G1 X-9.70 Y-11.44 E148.4932
G1 X-9.32 Y-11.74 E148.5151
G1 X-8.54 Y-12.33 E148.5595
G1 X-8.13 Y-12.60 E148.5817
G1 X-7.29 Y-13.11 E148.6263
G1 X-6.85 Y-13.34 E148.6487
G1 X-5.96 Y-13.76 E148.6934
G1 X-5.51 Y-13.95 E148.7155
G1 X-4.59 Y-14.28 E148.7598
G1 X-4.08 Y-14.43 E148.7839
G1 X-3.07 Y-14.68 E148.8310
G1 X-2.59 Y-14.77 E148.8532
G1 X-1.62 Y-14.90 E148.8975
G1 X-1.16 Y-14.95 E148.9185
G1 X-.25 Y-14.99 E148.9598
G1 X.27 Y-14.99 E148.9833
G1 E143.9833 F1500
G1 X-9.76 Y-11.11 F4800
G1 E148.9833 F1500
G1 X-9.76 Y-11.11 F4800
G1 X-11.13 Y-9.74 E149.0711 F3600
G1 X-11.52 Y-9.28 E149.0984
G1 X-12.10 Y-8.50 E149.1425
G1 X-12.38 Y-8.09 E149.1650
G1 X-12.69 Y-7.58 E149.1920
G1 X-7.57 Y-12.70 E149.5202
G1 X-7.18 Y-12.94 E149.5409
G1 X-6.76 Y-13.16 E149.5624
G1 X-6.30 Y-13.38 E149.5855
G1 X-13.37 Y-6.30 E150.0389
G1 X-13.56 Y-5.91 E150.0586
G1 X-13.82 Y-5.26 E150.0903
G1 X-5.26 Y-13.82 E150.6389
G1 X-4.34 Y-14.14 E150.6830
G1 X-14.14 Y-4.34 E151.3111
G1 X-14.36 Y-3.53 E151.3491
G1 X-3.53 Y-14.36 E152.0432
G1 X-2.76 Y-14.53 E152.0789
G1 X-14.53 Y-2.76 E152.8333
G1 X-14.64 Y-2.05 E152.8658
G1 X-2.05 Y-14.64 E153.6727
G1 X-1.37 Y-14.73 E153.7038
G1 X-14.73 Y-1.37 E154.5600
G1 X-14.77 Y-.73 E154.5890
G1 X-.73 Y-14.77 E155.4888
G1 X-.11 Y-14.79 E155.5169
G1 X-14.79 Y-.11 E156.4578
G1 X-14.78 Y.48 E156.4845
G1 X.47 Y-14.78 E157.4621
G1 X1.04 Y-14.75 E157.4880
G1 X-14.75 Y1.04 E158.5000
G1 X-14.70 Y1.59 E158.5250
G1 X1.59 Y-14.70 E159.5690
G1 X2.12 Y-14.63 E159.5932
G1 X-14.63 Y2.12 E160.6667
G1 X-14.55 Y2.64 E160.6905
G1 X2.63 Y-14.55 E161.7918
G1 X3.13 Y-14.45 E161.8150
G1 X-14.45 Y3.13 E162.9416
G1 X-14.34 Y3.61 E162.9639
G1 X3.61 Y-14.34 E164.1143
G1 X4.09 Y-14.21 E164.1368
G1 X-14.21 Y4.09 E165.3097
G1 X-14.07 Y4.54 E165.3310
G1 X4.55 Y-14.08 E166.5243
G1 X4.99 Y-13.92 E166.5455
G1 X-13.92 Y4.98 E167.7571
G1 X-13.76 Y5.42 E167.7783
G1 X5.43 Y-13.76 E169.0079
G1 X5.85 Y-13.59 E169.0284
G1 X-13.58 Y5.84 E170.2736
G1 X-13.40 Y6.25 E170.2939
G1 X6.25 Y-13.40 E171.5532
G1 X6.66 Y-13.20 E171.5739
G1 X-13.21 Y6.66 E172.8470
G1 X-13.00 Y7.05 E172.8671
G1 X7.05 Y-13.00 E174.1521
G1 X7.43 Y-12.78 E174.1720
G1 X-12.78 Y7.43 E175.4672
G1 X-12.56 Y7.80 E175.4867
G1 X7.81 Y-12.56 E176.7918
G1 X8.17 Y-12.33 E176.8112
G1 X-12.33 Y8.17 E178.1250
G1 X-12.08 Y8.52 E178.1445
G1 X8.52 Y-12.09 E179.4650
G1 X8.86 Y-11.83 E179.4844
G1 X-11.83 Y8.87 E180.8107
G1 X-11.57 Y9.21 E180.8301
G1 X9.21 Y-11.57 E182.1618
G1 X9.53 Y-11.31 E182.1805
G1 X-11.31 Y9.53 E183.5161
G1 X-11.02 Y9.85 E183.5357
G1 X9.85 Y-11.03 E184.8735
G1 X10.16 Y-10.74 E184.8928
G1 X-10.74 Y10.16 E186.2322
G1 X-10.45 Y10.47 E186.2514
G1 X10.47 Y-10.45 E187.5922
G1 X10.76 Y-10.14 E187.6114
G1 X-10.15 Y10.76 E188.9511
G1 X-9.83 Y11.04 E188.9704
G1 X11.04 Y-9.83 E190.3079
G1 X11.32 Y-9.51 E190.3272
G1 X-9.52 Y11.33 E191.6628
G1 X-9.19 Y11.59 E191.6818
G1 X11.59 Y-9.19 E193.0136
G1 X11.85 Y-8.84 E193.0333
G1 X-8.85 Y11.85 E194.3596
G1 X-8.50 Y12.10 E194.3791
G1 X12.10 Y-8.50 E195.6993
G1 X12.34 Y-8.15 E195.7185
G1 X-8.15 Y12.34 E197.0317
G1 X-7.78 Y12.57 E197.0514
G1 X12.57 Y-7.78 E198.3556
G1 X12.80 Y-7.41 E198.3754
G1 X-7.41 Y12.80 E199.6706
G1 X-7.03 Y13.01 E199.6903
G1 X13.01 Y-7.03 E200.9746
G1 X13.22 Y-6.63 E200.9950
G1 X-6.63 Y13.21 E202.2669
G1 X-6.23 Y13.41 E202.2871
G1 X13.41 Y-6.23 E203.5458
G1 X13.60 Y-5.82 E203.5663
G1 X-5.82 Y13.60 E204.8109
G1 X-5.40 Y13.77 E204.8314
G1 X13.77 Y-5.40 E206.0600
G1 X13.93 Y-4.96 E206.0812
G1 X-4.96 Y13.93 E207.2918
G1 X-4.52 Y14.08 E207.3129
G1 X14.09 Y-4.52 E208.5053
G1 X14.22 Y-4.06 E208.5269
G1 X-4.05 Y14.22 E209.6981
G1 X-3.58 Y14.34 E209.7201
G1 X14.34 Y-3.58 E210.8686
G1 X14.46 Y-3.10 E210.8910
G1 X-3.11 Y14.46 E212.0167
G1 X-2.61 Y14.56 E212.0398
G1 X14.56 Y-2.61 E213.1402
G1 X14.64 Y-2.09 E213.1640
G1 X-2.09 Y14.64 E214.2362
G1 X-1.56 Y14.71 E214.2604
G1 X14.71 Y-1.56 E215.3031
G1 X14.76 Y-1.01 E215.3282
G1 X-1.01 Y14.75 E216.3385
G1 X-.44 Y14.78 E216.3644
G1 X14.78 Y-.44 E217.3398
G1 X14.79 Y.15 E217.3665
G1 X.15 Y14.79 E218.3048
G1 X.77 Y14.77 E218.3329
G1 X14.76 Y.77 E219.2298
G1 X14.72 Y1.41 E219.2589
G1 X1.41 Y14.72 E220.1119
G1 X2.09 Y14.63 E220.1430
G1 X14.64 Y2.09 E220.9469
G1 X14.52 Y2.80 E220.9796
G1 X2.80 Y14.52 E221.7307
G1 X3.57 Y14.35 E221.7664
G1 X14.34 Y3.58 E222.4566
G1 X14.12 Y4.40 E222.4951
G1 X4.39 Y14.13 E223.1187
G1 X5.31 Y13.80 E223.1630
G1 X13.80 Y5.32 E223.7068
G1 X13.72 Y5.53 E223.7169
G1 X13.35 Y6.37 E223.7585
G1 X6.37 Y13.34 E224.2055
G1 X6.73 Y13.18 E224.2234
G1 X7.19 Y12.93 E224.2471
G1 X7.67 Y12.64 E224.2725
G1 X12.64 Y7.67 E224.5910
G1 X12.38 Y8.10 E224.6138
G1 X12.13 Y8.46 E224.6337
G1 X11.59 Y9.19 E224.6748
G1 X11.28 Y9.58 E224.6974
G1 X10.78 Y10.12 E224.7307
G1 X10.15 Y10.75 E224.7711
;support-end
;layer:0.25
;support-start
G1 E219.7711 F1500
G1 X.27 Y-14.99 F4800
G1 Z1.300 F420
G1 E224.7711 F1500
G1 X.27 Y-14.99 F4800
G1 X1.32 Y-14.94 E224.8188 F3600
G1 X1.82 Y-14.88 E224.8416
G1 X2.78 Y-14.73 E224.8856
G1 X3.26 Y-14.63 E224.9078
G1 X4.21 Y-14.39 E224.9523
G1 X4.65 Y-14.25 E224.9732
G1 X5.51 Y-13.95 E225.0144
G1 X5.99 Y-13.75 E225.0380
G1 X6.93 Y-13.29 E225.0854
G1 X7.34 Y-13.07 E225.1065
G1 X8.13 Y-12.60 E225.1482
G1 X8.56 Y-12.31 E225.1717
G1 X9.40 Y-11.68 E225.2193
G1 X9.75 Y-11.39 E225.2398
G1 X10.43 Y-10.78 E225.2812
G1 X10.80 Y-10.40 E225.3053
G1 X11.50 Y-9.62 E225.3528
G1 X11.80 Y-9.24 E225.3747
G1 X12.38 Y-8.45 E225.4191
G1 X12.65 Y-8.04 E225.4414
G1 X13.15 Y-7.20 E225.4857
G1 X13.37 Y-6.79 E225.5067
G1 X13.76 Y-5.96 E225.5483
G1 X13.95 Y-5.51 E225.5704
G1 X14.28 Y-4.59 E225.6147
G1 X14.43 Y-4.09 E225.6384
G1 X14.68 Y-3.07 E225.6860
G1 X14.76 Y-2.62 E225.7067
G1 X14.90 Y-1.72 E225.7480
G1 X14.95 Y-1.22 E225.7707
G1 X14.99 Y-.25 E225.8147
G1 X14.99 Y.27 E225.8383
G1 X14.94 Y1.32 E225.8860
G1 X14.89 Y1.78 E225.9069
G1 X14.75 Y2.69 E225.9486
G1 X14.65 Y3.20 E225.9722
G1 X14.39 Y4.21 E226.0195
G1 X14.24 Y4.68 E226.0418
G1 X13.91 Y5.60 E226.0861
G1 X13.73 Y6.02 E226.1068
G1 X13.34 Y6.85 E226.1484
G1 X13.09 Y7.31 E226.1721
G1 X12.55 Y8.21 E226.2196
G1 X12.29 Y8.58 E226.2402
G1 X11.75 Y9.32 E226.2817
G1 X11.44 Y9.70 E226.3039
G1 X10.78 Y10.43 E226.3485
G1 X10.41 Y10.80 E226.3722
G1 X9.63 Y11.50 E226.4197
G1 X9.24 Y11.81 E226.4423
G1 X8.45 Y12.38 E226.4864
G1 X8.07 Y12.64 E226.5073
G1 X7.29 Y13.11 E226.5486
G1 X6.82 Y13.35 E226.5725
G1 X5.87 Y13.80 E226.6201
G1 X5.45 Y13.97 E226.6406
G1 X4.59 Y14.28 E226.6821
G1 X4.12 Y14.42 E226.7043
G1 X3.17 Y14.66 E226.7487
G1 X2.65 Y14.76 E226.7727
G1 X1.62 Y14.91 E226.8199
G1 X1.16 Y14.95 E226.8408
G1 X.25 Y14.99 E226.8821
G1 X-.27 Y14.99 E226.9056
G1 X-1.32 Y14.94 E226.9533
G1 X-1.78 Y14.89 E226.9742
G1 X-2.69 Y14.75 E227.0159
G1 X-3.20 Y14.65 E227.0395
G1 X-4.21 Y14.39 E227.0868
G1 X-4.65 Y14.25 E227.1077
G1 X-5.51 Y13.95 E227.1490
G1 X-5.99 Y13.75 E227.1725
G1 X-6.93 Y13.29 E227.2200
G1 X-7.37 Y13.06 E227.2424
G1 X-8.21 Y12.55 E227.2870
G1 X-8.59 Y12.29 E227.3078
G1 X-9.32 Y11.75 E227.3490
G1 X-9.70 Y11.44 E227.3712
G1 X-10.43 Y10.78 E227.4158
G1 X-10.80 Y10.40 E227.4398
G1 X-11.50 Y9.62 E227.4873
G1 X-11.80 Y9.25 E227.5089
G1 X-12.38 Y8.45 E227.5537
G1 X-12.64 Y8.07 E227.5746
G1 X-13.11 Y7.29 E227.6158
G1 X-13.35 Y6.82 E227.6398
G1 X-13.80 Y5.87 E227.6874
G1 X-13.98 Y5.42 E227.7094
G1 X-14.30 Y4.49 E227.7539
G1 X-14.44 Y4.02 E227.7762
G1 X-14.68 Y3.06 E227.8210
G1 X-14.77 Y2.59 E227.8427
G1 X-14.90 Y1.62 E227.8870
G1 X-14.95 Y1.16 E227.9080
G1 X-14.99 Y.25 E227.9493
G1 X-14.99 Y-.27 E227.9728
G1 X-14.94 Y-1.32 E228.0205
G1 X-14.88 Y-1.81 E228.0429
G1 X-14.73 Y-2.78 E228.0873
G1 X-14.63 Y-3.26 E228.1096
G1 X-14.39 Y-4.21 E228.1540
G1 X-14.25 Y-4.65 E228.1749
G1 X-13.95 Y-5.51 E228.2162
G1 X-13.75 Y-5.99 E228.2397
G1 X-13.29 Y-6.93 E228.2872
G1 X-13.06 Y-7.37 E228.3097
G1 X-12.55 Y-8.21 E228.3542
G1 X-12.27 Y-8.62 E228.3767
G1 X-11.68 Y-9.40 E228.4210
G1 X-11.39 Y-9.75 E228.4416
G1 X-10.78 Y-10.43 E228.4830
G1 X-10.42 Y-10.78 E228.5057
G1 X-9.70 Y-11.44 E228.5500
G1 X-9.32 Y-11.74 E228.5719
G1 X-8.54 Y-12.33 E228.6163
G1 X-8.13 Y-12.60 E228.6385
G1 X-7.29 Y-13.11 E228.6831
G1 X-6.85 Y-13.34 E228.7056
G1 X-5.96 Y-13.76 E228.7501
G1 X-5.51 Y-13.95 E228.7723
G1 X-4.59 Y-14.28 E228.8166
G1 X-4.08 Y-14.43 E228.8407
G1 X-3.07 Y-14.68 E228.8878
G1 X-2.59 Y-14.77 E228.9100
G1 X-1.62 Y-14.90 E228.9543
G1 X-1.16 Y-14.95 E228.9753
G1 X-.25 Y-14.99 E229.0166
G1 X.27 Y-14.99 E229.0401
G1 E224.0401 F1500
G1 X11.05 Y-9.82 F4800
G1 E229.0401 F1500
G1 X11.05 Y-9.82 F4800
G1 X9.77 Y-11.10 E229.1222 F3600
G1 X9.27 Y-11.53 E229.1521
G1 X8.44 Y-12.15 E229.1990
G1 X8.02 Y-12.44 E229.2221
G1 X7.58 Y-12.70 E229.2453
G1 X12.69 Y-7.59 E229.5728
G1 X12.98 Y-7.10 E229.5986
G1 X13.19 Y-6.70 E229.6190
G1 X13.38 Y-6.30 E229.6391
G1 X6.31 Y-13.37 E230.0922
G1 X5.91 Y-13.56 E230.1122
G1 X5.26 Y-13.82 E230.1440
G1 X13.82 Y-5.26 E230.6926
G1 X14.14 Y-4.34 E230.7367
G1 X4.34 Y-14.14 E231.3648
G1 X3.53 Y-14.36 E231.4028
G1 X14.36 Y-3.53 E232.0969
G1 X14.53 Y-2.76 E232.1326
G1 X2.76 Y-14.53 E232.8869
G1 X2.05 Y-14.64 E232.9195
G1 X14.64 Y-2.05 E233.7263
G1 X14.73 Y-1.37 E233.7574
G1 X1.37 Y-14.73 E234.6136
G1 X.73 Y-14.77 E234.6427
G1 X14.77 Y-.73 E235.5425
G1 X14.79 Y-.11 E235.5706
G1 X.11 Y-14.79 E236.5114
G1 X-.47 Y-14.78 E236.5377
G1 X14.78 Y.47 E237.5150
G1 X14.75 Y1.04 E237.5409
G1 X-1.04 Y-14.75 E238.5529
G1 X-1.59 Y-14.70 E238.5779
G1 X14.70 Y1.59 E239.6219
G1 X14.63 Y2.12 E239.6461
G1 X-2.11 Y-14.63 E240.7193
G1 X-2.63 Y-14.55 E240.7431
G1 X14.56 Y2.64 E241.8448
G1 X14.46 Y3.14 E241.8679
G1 X-3.13 Y-14.45 E242.9952
G1 X-3.61 Y-14.34 E243.0175
G1 X14.34 Y3.61 E244.1679
G1 X14.21 Y4.08 E244.1900
G1 X-4.09 Y-14.22 E245.3628
G1 X-4.55 Y-14.08 E245.3846
G1 X14.08 Y4.54 E246.5782
G1 X13.92 Y4.98 E246.5994
G1 X-4.99 Y-13.92 E247.8110
G1 X-5.42 Y-13.76 E247.8318
G1 X13.76 Y5.42 E249.0610
G1 X13.59 Y5.85 E249.0820
G1 X-5.85 Y-13.59 E250.3278
G1 X-6.25 Y-13.40 E250.3479
G1 X13.40 Y6.25 E251.6072
G1 X13.21 Y6.66 E251.6277
G1 X-6.66 Y-13.21 E252.9011
G1 X-7.05 Y-13.00 E252.9212
G1 X13.00 Y7.05 E254.2062
G1 X12.78 Y7.43 E254.2261
G1 X-7.43 Y-12.79 E255.5216
G1 X-7.80 Y-12.56 E255.5414
G1 X12.56 Y7.80 E256.8462
G1 X12.33 Y8.17 E256.8659
G1 X-8.17 Y-12.33 E258.1797
G1 X-8.52 Y-12.09 E258.1990
G1 X12.09 Y8.52 E259.5198
G1 X11.83 Y8.87 E259.5396
G1 X-8.87 Y-11.83 E260.8662
G1 X-9.21 Y-11.58 E260.8853
G1 X11.58 Y9.21 E262.2177
G1 X11.31 Y9.54 E262.2370
G1 X-9.54 Y-11.31 E263.5732
G1 X-9.85 Y-11.03 E263.5922
G1 X11.03 Y9.85 E264.9303
G1 X10.74 Y10.16 E264.9496
G1 X-10.16 Y-10.74 E266.2890
G1 X-10.47 Y-10.45 E266.3083
G1 X10.45 Y10.47 E267.6490
G1 X10.15 Y10.76 E267.6679
G1 X-10.76 Y-10.15 E269.0079
G1 X-11.04 Y-9.83 E269.0272
G1 X9.83 Y11.04 E270.3647
G1 X9.52 Y11.32 E270.3837
G1 X-11.32 Y-9.52 E271.7193
G1 X-11.59 Y-9.19 E271.7386
G1 X9.19 Y11.59 E273.0703
G1 X8.85 Y11.85 E273.0897
G1 X-11.85 Y-8.84 E274.4161
G1 X-12.10 Y-8.50 E274.4352
G1 X8.50 Y12.10 E275.7554
G1 X8.15 Y12.34 E275.7746
G1 X-12.34 Y-8.15 E277.0878
G1 X-12.57 Y-7.78 E277.1075
G1 X7.78 Y12.57 E278.4117
G1 X7.41 Y12.80 E278.4314
G1 X-12.80 Y-7.41 E279.7267
G1 X-13.01 Y-7.03 E279.7464
G1 X7.03 Y13.01 E281.0307
G1 X6.64 Y13.22 E281.0507
G1 X-13.21 Y-6.63 E282.3229
G1 X-13.41 Y-6.23 E282.3432
G1 X6.23 Y13.41 E283.6018
G1 X5.82 Y13.60 E283.6223
G1 X-13.60 Y-5.82 E284.8669
G1 X-13.77 Y-5.40 E284.8875
G1 X5.40 Y13.77 E286.1160
G1 X4.96 Y13.93 E286.1372
G1 X-13.93 Y-4.96 E287.3479
G1 X-14.08 Y-4.52 E287.3689
G1 X4.52 Y14.09 E288.5613
G1 X4.06 Y14.23 E288.5831
G1 X-14.22 Y-4.06 E289.7549
G1 X-14.34 Y-3.58 E289.7773
G1 X3.59 Y14.35 E290.9264
G1 X3.11 Y14.46 E290.9487
G1 X-14.46 Y-3.10 E292.0744
G1 X-14.56 Y-2.60 E292.0975
G1 X2.61 Y14.56 E293.1976
G1 X2.09 Y14.64 E293.2214
G1 X-14.64 Y-2.09 E294.2936
G1 X-14.71 Y-1.56 E294.3178
G1 X1.56 Y14.71 E295.3605
G1 X1.01 Y14.75 E295.3855
G1 X-14.75 Y-1.01 E296.3956
G1 X-14.78 Y-.44 E296.4214
G1 X.44 Y14.78 E297.3968
G1 X-.14 Y14.79 E297.4231
G1 X-14.79 Y.14 E298.3620
G1 X-14.77 Y.77 E298.3905
G1 X-.77 Y14.76 E299.2875
G1 X-1.41 Y14.72 E299.3165
G1 X-14.72 Y1.41 E300.1695
G1 X-14.63 Y2.09 E300.2006
G1 X-2.09 Y14.64 E301.0046
G1 X-2.80 Y14.53 E301.0372
G1 X-14.52 Y2.80 E301.7886
G1 X-14.34 Y3.58 E301.8248
G1 X-3.58 Y14.34 E302.5144
G1 X-4.40 Y14.12 E302.5529
G1 X-14.12 Y4.39 E303.1762
G1 X-13.80 Y5.31 E303.2203
G1 X-5.31 Y13.80 E303.7644
G1 X-5.91 Y13.56 E303.7937
G1 X-6.37 Y13.34 E303.8168
G1 X-13.34 Y6.37 E304.2635
G1 X-13.18 Y6.73 E304.2813
G1 X-12.93 Y7.19 E304.3050
G1 X-12.65 Y7.66 E304.3298
G1 X-7.67 Y12.64 E304.6490
G1 X-8.10 Y12.38 E304.6718
G1 X-8.47 Y12.13 E304.6920
G1 X-9.20 Y11.59 E304.7332
G1 X-9.57 Y11.28 E304.7550
G1 X-10.12 Y10.78 E304.7887
G1 X-10.76 Y10.14 E304.8298
;support-end
;layer:0.25
;support-start
G1 E299.8298 F1500
G1 X.27 Y-14.99 F4800
G1 Z1.550 F420
G1 E304.8298 F1500
G1 X.27 Y-14.99 F4800
G1 X1.32 Y-14.94 E304.8774 F3600
G1 X1.82 Y-14.88 E304.9002
G1 X2.78 Y-14.73 E304.9442
G1 X3.26 Y-14.63 E304.9664
G1 X4.21 Y-14.39 E305.0108
G1 X4.65 Y-14.25 E305.0318
G1 X5.51 Y-13.95 E305.0731
G1 X5.99 Y-13.75 E305.0966
G1 X6.93 Y-13.29 E305.1441
G1 X7.34 Y-13.07 E305.1652
G1 X8.13 Y-12.60 E305.2068
G1 X8.56 Y-12.31 E305.2303
G1 X9.40 Y-11.68 E305.2779
G1 X9.75 Y-11.39 E305.2985
G1 X10.43 Y-10.78 E305.3399
G1 X10.80 Y-10.40 E305.3640
G1 X11.50 Y-9.62 E305.4115
G1 X11.80 Y-9.24 E305.4334
G1 X12.38 Y-8.45 E305.4778
G1 X12.65 Y-8.04 E305.5000
G1 X13.15 Y-7.20 E305.5444
G1 X13.37 Y-6.79 E305.5654
G1 X13.76 Y-5.96 E305.6070
G1 X13.95 Y-5.51 E305.6291
G1 X14.28 Y-4.59 E305.6734
G1 X14.43 Y-4.09 E305.6971
G1 X14.68 Y-3.07 E305.7447
G1 X14.76 Y-2.62 E305.7654
G1 X14.90 Y-1.72 E305.8067
G1 X14.95 Y-1.22 E305.8294
G1 X14.99 Y-.25 E305.8735
G1 X14.99 Y.27 E305.8970
G1 X14.94 Y1.32 E305.9446
G1 X14.89 Y1.78 E305.9656
G1 X14.75 Y2.69 E306.0073
G1 X14.65 Y3.20 E306.0309
G1 X14.39 Y4.21 E306.0781
G1 X14.24 Y4.68 E306.1005
G1 X13.91 Y5.60 E306.1448
G1 X13.73 Y6.02 E306.1655
G1 X13.34 Y6.85 E306.2070
G1 X13.09 Y7.31 E306.2308
G1 X12.55 Y8.21 E306.2783
G1 X12.29 Y8.58 E306.2988
G1 X11.75 Y9.32 E306.3403
G1 X11.44 Y9.70 E306.3625
G1 X10.78 Y10.43 E306.4071
G1 X10.41 Y10.80 E306.4309
G1 X9.63 Y11.50 E306.4783
G1 X9.24 Y11.81 E306.5009
G1 X8.45 Y12.38 E306.5451
G1 X8.07 Y12.64 E306.5660
G1 X7.29 Y13.11 E306.6072
G1 X6.82 Y13.35 E306.6311
G1 X5.87 Y13.80 E306.6788
G1 X5.45 Y13.97 E306.6993
G1 X4.59 Y14.28 E306.7407
G1 X4.12 Y14.42 E306.7630
G1 X3.17 Y14.66 E306.8074
G1 X2.65 Y14.76 E306.8313
G1 X1.62 Y14.91 E306.8785
G1 X1.16 Y14.95 E306.8995
G1 X.25 Y14.99 E306.9407
G1 X-.27 Y14.99 E306.9643
G1 X-1.32 Y14.94 E307.0119
G1 X-1.78 Y14.89 E307.0329
G1 X-2.69 Y14.75 E307.0746
G1 X-3.20 Y14.65 E307.0982
G1 X-4.21 Y14.39 E307.1454
G1 X-4.65 Y14.25 E307.1664
G1 X-5.51 Y13.95 E307.2076
G1 X-5.99 Y13.75 E307.2312
G1 X-6.93 Y13.29 E307.2786
G1 X-7.37 Y13.06 E307.3011
G1 X-8.21 Y12.55 E307.3457
G1 X-8.59 Y12.29 E307.3665
G1 X-9.32 Y11.75 E307.4077
G1 X-9.70 Y11.44 E307.4299
G1 X-10.43 Y10.78 E307.4745
G1 X-10.80 Y10.40 E307.4985
G1 X-11.50 Y9.62 E307.5460
G1 X-11.80 Y9.25 E307.5676
G1 X-12.38 Y8.45 E307.6124
G1 X-12.64 Y8.07 E307.6333
G1 X-13.11 Y7.29 E307.6746
G1 X-13.35 Y6.82 E307.6985
G1 X-13.80 Y5.87 E307.7461
G1 X-13.98 Y5.42 E307.7681
G1 X-14.30 Y4.49 E307.8126
G1 X-14.44 Y4.02 E307.8349
G1 X-14.68 Y3.06 E307.8797
G1 X-14.77 Y2.59 E307.9014
G1 X-14.90 Y1.62 E307.9457
G1 X-14.95 Y1.16 E307.9667
G1 X-14.99 Y.25 E308.0080
G1 X-14.99 Y-.27 E308.0315
G1 X-14.94 Y-1.32 E308.0792
G1 X-14.88 Y-1.81 E308.1015
G1 X-14.73 Y-2.78 E308.1460
G1 X-14.63 Y-3.26 E308.1682
G1 X-14.39 Y-4.21 E308.2126
G1 X-14.25 Y-4.65 E308.2336
G1 X-13.95 Y-5.51 E308.2749
G1 X-13.75 Y-5.99 E308.2984
G1 X-13.29 Y-6.93 E308.3459
G1 X-13.06 Y-7.37 E308.3684
G1 X-12.55 Y-8.21 E308.4129
G1 X-12.27 Y-8.62 E308.4354
G1 X-11.68 Y-9.40 E308.4797
G1 X-11.39 Y-9.75 E308.5003
G1 X-10.78 Y-10.43 E308.5417
G1 X-10.42 Y-10.78 E308.5644
G1 X-9.70 Y-11.44 E308.6087
G1 X-9.32 Y-11.74 E308.6306
G1 X-8.54 Y-12.33 E308.6749
G1 X-8.13 Y-12.60 E308.6972
G1 X-7.29 Y-13.11 E308.7417
G1 X-6.85 Y-13.34 E308.7642
G1 X-5.96 Y-13.76 E308.8088
G1 X-5.51 Y-13.95 E308.8309
G1 X-4.59 Y-14.28 E308.8752
G1 X-4.08 Y-14.43 E308.8993
G1 X-3.07 Y-14.68 E308.9465
G1 X-2.59 Y-14.77 E308.9686
G1 X-1.62 Y-14.90 E309.0130
G1 X-1.16 Y-14.95 E309.0339
G1 X-.25 Y-14.99 E309.0752
G1 X.27 Y-14.99 E309.0988
G1 E304.0988 F1500
G1 X-9.76 Y-11.11 F4800
G1 E309.0988 F1500
G1 X-9.76 Y-11.11 F4800
G1 X-11.13 Y-9.74 E309.1866 F3600
G1 X-11.52 Y-9.28 E309.2139
G1 X-12.10 Y-8.50 E309.2580
G1 X-12.38 Y-8.09 E309.2805
G1 X-12.69 Y-7.58 E309.3075
G1 X-7.57 Y-12.70 E309.6356
G1 X-7.18 Y-12.94 E309.6564
G1 X-6.76 Y-13.16 E309.6779
G1 X-6.30 Y-13.38 E309.7010
G1 X-13.37 Y-6.30 E310.1544
G1 X-13.56 Y-5.91 E310.1741
G1 X-13.82 Y-5.26 E310.2058
G1 X-5.26 Y-13.82 E310.7543
G1 X-4.34 Y-14.14 E310.7985
G1 X-14.14 Y-4.34 E311.4266
G1 X-14.36 Y-3.53 E311.4646
G1 X-3.53 Y-14.36 E312.1587
G1 X-2.76 Y-14.53 E312.1944
G1 X-14.53 Y-2.76 E312.9487
G1 X-14.64 Y-2.05 E312.9813
G1 X-2.05 Y-14.64 E313.7881
G1 X-1.37 Y-14.73 E313.8192
G1 X-14.73 Y-1.37 E314.6755
G1 X-14.77 Y-.73 E314.7045
G1 X-.73 Y-14.77 E315.6043
G1 X-.11 Y-14.79 E315.6324
G1 X-14.79 Y-.11 E316.5732
G1 X-14.78 Y.48 E316.6000
G1 X.47 Y-14.78 E317.5776
G1 X1.04 Y-14.75 E317.6035
G1 X-14.75 Y1.04 E318.6155
G1 X-14.70 Y1.59 E318.6405
G1 X1.59 Y-14.70 E319.6845
G1 X2.12 Y-14.63 E319.7087
G1 X-14.63 Y2.12 E320.7822
G1 X-14.55 Y2.64 E320.8060
G1 X2.63 Y-14.55 E321.9074
G1 X3.13 Y-14.45 E321.9305
G1 X-14.45 Y3.13 E323.0571
G1 X-14.34 Y3.61 E323.0794
G1 X3.61 Y-14.34 E324.2298
G1 X4.09 Y-14.21 E324.2523
G1 X-14.21 Y4.09 E325.4251
G1 X-14.07 Y4.54 E325.4465
G1 X4.55 Y-14.08 E326.6398
G1 X4.99 Y-13.92 E326.6610
G1 X-13.92 Y4.98 E327.8726
G1 X-13.76 Y5.42 E327.8938
G1 X5.43 Y-13.76 E329.1234
G1 X5.85 Y-13.59 E329.1439
G1 X-13.58 Y5.84 E330.3891
G1 X-13.40 Y6.25 E330.4094
G1 X6.25 Y-13.40 E331.6687
G1 X6.66 Y-13.20 E331.6894
G1 X-13.21 Y6.66 E332.9625
G1 X-13.00 Y7.05 E332.9826
G1 X7.05 Y-13.00 E334.2675
G1 X7.43 Y-12.78 E334.2874
G1 X-12.78 Y7.43 E335.5826
G1 X-12.56 Y7.80 E335.6021
G1 X7.81 Y-12.56 E336.9073
G1 X8.17 Y-12.33 E336.9267
G1 X-12.33 Y8.17 E338.2405
G1 X-12.08 Y8.52 E338.2600
G1 X8.52 Y-12.09 E339.5805
G1 X8.86 Y-11.83 E339.5999
G1 X-11.83 Y8.87 E340.9262
G1 X-11.57 Y9.21 E340.9456
G1 X9.21 Y-11.57 E342.2774
G1 X9.53 Y-11.31 E342.2961
G1 X-11.31 Y9.53 E343.6317
G1 X-11.02 Y9.85 E343.6512
G1 X9.85 Y-11.03 E344.9891
G1 X10.16 Y-10.74 E345.0083
G1 X-10.74 Y10.16 E346.3478
G1 X-10.45 Y10.47 E346.3670
G1 X10.47 Y-10.45 E347.7077
G1 X10.76 Y-10.14 E347.7270
G1 X-10.15 Y10.76 E349.0667
G1 X-9.83 Y11.04 E349.0860
G1 X11.04 Y-9.83 E350.4235
G1 X11.32 Y-9.51 E350.4428
G1 X-9.52 Y11.33 E351.7784
G1 X-9.19 Y11.59 E351.7974
G1 X11.59 Y-9.19 E353.1292
G1 X11.85 Y-8.84 E353.1489
G1 X-8.85 Y11.85 E354.4752
G1 X-8.50 Y12.10 E354.4947
G1 X12.10 Y-8.50 E355.8150
G1 X12.34 Y-8.15 E355.8342
G1 X-8.15 Y12.34 E357.1473
G1 X-7.78 Y12.57 E357.1671
G1 X12.57 Y-7.78 E358.4713
G1 X12.80 Y-7.41 E358.4910
G1 X-7.41 Y12.80 E359.7862
G1 X-7.03 Y13.01 E359.8059
G1 X13.01 Y-7.03 E361.0902
G1 X13.22 Y-6.63 E361.1107
G1 X-6.63 Y13.21 E362.3825
G1 X-6.23 Y13.41 E362.4028
G1 X13.41 Y-6.23 E363.6615
G1 X13.60 Y-5.82 E363.6820
G1 X-5.82 Y13.60 E364.9266
G1 X-5.40 Y13.77 E364.9471
G1 X13.77 Y-5.40 E366.1756
G1 X13.93 Y-4.96 E366.1969
G1 X-4.96 Y13.93 E367.4075
G1 X-4.52 Y14.08 E367.4285
G1 X14.09 Y-4.52 E368.6209
G1 X14.22 Y-4.06 E368.6425
G1 X-4.05 Y14.22 E369.8138
G1 X-3.58 Y14.34 E369.8357
G1 X14.34 Y-3.58 E370.9842
G1 X14.46 Y-3.10 E371.0066
G1 X-3.11 Y14.46 E372.1323
G1 X-2.61 Y14.56 E372.1554
G1 X14.56 Y-2.61 E373.2557
G1 X14.64 Y-2.09 E373.2796
G1 X-2.09 Y14.64 E374.3518
G1 X-1.56 Y14.71 E374.3760
G1 X14.71 Y-1.56 E375.4187
G1 X14.76 Y-1.01 E375.4438
G1 X-1.01 Y14.75 E376.4541
G1 X-.44 Y14.78 E376.4800
G1 X14.78 Y-.44 E377.4554
G1 X14.79 Y.15 E377.4821
G1 X.15 Y14.79 E378.4204
G1 X.77 Y14.77 E378.4485
G1 X14.76 Y.77 E379.3454
G1 X14.72 Y1.41 E379.3745
G1 X1.41 Y14.72 E380.2275
G1 X2.09 Y14.63 E380.2586
G1 X14.64 Y2.09 E381.0625
G1 X14.52 Y2.80 E381.0952
G1 X2.80 Y14.52 E381.8463
G1 X3.57 Y14.35 E381.8820
G1 X14.34 Y3.58 E382.5722
G1 X14.12 Y4.40 E382.6107
G1 X4.39 Y14.13 E383.2342
G1 X5.31 Y13.80 E383.2785
G1 X13.80 Y5.32 E383.8223
G1 X13.72 Y5.53 E383.8325
G1 X13.35 Y6.37 E383.8741
G1 X6.37 Y13.34 E384.3211
G1 X6.73 Y13.18 E384.3389
G1 X7.19 Y12.93 E384.3626
G1 X7.67 Y12.64 E384.3880
G1 X12.64 Y7.67 E384.7066
G1 X12.38 Y8.10 E384.7294
G1 X12.13 Y8.46 E384.7492
G1 X11.59 Y9.19 E384.7904
G1 X11.28 Y9.58 E384.8129
G1 X10.78 Y10.12 E384.8463
G1 X10.15 Y10.75 E384.8867
;support-end
;layer:0.27
G1 Z1.700 F420
G1 E379.8867 F1500
G1 Z1.970 F420
G1 X9.40 Y-.00 F4200
G1 E384.8867 F1500
;structure:shell-inner
G1 X9.40 Y-.00 F4200
G1 X9.34 Y.98 E384.9347 F900
G1 X9.22 Y1.83 E384.9767
G1 X8.97 Y2.79 E385.0253
G1 X8.66 Y3.66 E385.0705
G1 X8.29 Y4.43 E385.1123
G1 X7.78 Y5.27 E385.1604
G1 X7.26 Y5.97 E385.2031
G1 X6.66 Y6.64 E385.2471
G1 X5.91 Y7.30 E385.2960
G1 X5.17 Y7.85 E385.3411
G1 X4.43 Y8.29 E385.3833
G1 X3.53 Y8.71 E385.4319
G1 X2.74 Y8.99 E385.4729
G1 X1.83 Y9.22 E385.5188
G1 X.85 Y9.36 E385.5673
G1 X.00 Y9.40 E385.6089
G1 X-.99 Y9.34 E385.6575
G1 X-1.83 Y9.22 E385.6990
G1 X-2.80 Y8.97 E385.7480
G1 X-3.59 Y8.69 E385.7890
G1 X-4.49 Y8.26 E385.8378
G1 X-5.27 Y7.78 E385.8827
G1 X-5.97 Y7.26 E385.9254
G1 X-6.65 Y6.65 E385.9701
G1 X-7.30 Y5.92 E386.0179
G1 X-7.85 Y5.17 E386.0635
G1 X-8.29 Y4.43 E386.1056
G1 X-8.70 Y3.55 E386.1531
G1 X-9.01 Y2.66 E386.1992
G1 X-9.23 Y1.78 E386.2436
G1 X-9.36 Y.85 E386.2896
G1 X-9.40 Y.00 E386.3312
G1 X-9.35 Y-.97 E386.3788
G1 X-9.20 Y-1.90 E386.4248
G1 X-8.97 Y-2.80 E386.4703
G1 X-8.69 Y-3.59 E386.5114
G1 X-8.26 Y-4.49 E386.5602
G1 X-7.78 Y-5.28 E386.6054
G1 X-7.22 Y-6.01 E386.6505
G1 X-6.65 Y-6.65 E386.6924
G1 X-5.97 Y-7.26 E386.7371
G1 X-5.22 Y-7.81 E386.7826
G1 X-4.42 Y-8.29 E386.8283
G1 X-3.60 Y-8.68 E386.8727
G1 X-2.73 Y-8.99 E386.9179
G1 X-1.78 Y-9.23 E386.9659
G1 X-.85 Y-9.36 E387.0119
G1 X-.00 Y-9.40 E387.0535
G1 X.98 Y-9.34 E387.1016
G1 X1.89 Y-9.20 E387.1466
G1 X2.80 Y-8.97 E387.1926
G1 X3.59 Y-8.69 E387.2336
G1 X4.46 Y-8.27 E387.2809
G1 X4.49 Y-8.25 E387.2826
G1 X5.22 Y-7.82 E387.3241
G1 X6.02 Y-7.22 E387.3730
G1 X6.11 Y-7.14 E387.3789
G1 X6.64 Y-6.65 E387.4143
G1 X7.30 Y-5.92 E387.4624
G1 X7.47 Y-5.68 E387.4768
G1 X7.85 Y-5.17 E387.5079
G1 X8.32 Y-4.38 E387.5530
G1 X8.50 Y-3.98 E387.5744
G1 X8.68 Y-3.60 E387.5950
G1 X8.99 Y-2.73 E387.6402
G1 X9.15 Y-2.09 E387.6725
G1 X9.23 Y-1.77 E387.6886 F540
G1 X9.35 Y-.92 E387.7306
G1 X9.39 Y-.11 E387.7703
;structure:shell-outer
G1 X9.80 Y-.00 E387.7703 F300
G1 X9.74 Y1.03 E387.8208 F900
G1 X9.61 Y1.91 E387.8644
G1 X9.35 Y2.91 E387.9149
G1 X9.02 Y3.81 E387.9618
G1 X8.64 Y4.62 E388.0056
G1 X8.11 Y5.50 E388.0559
G1 X7.57 Y6.22 E388.1000
G1 X6.93 Y6.93 E388.1467
G1 X6.16 Y7.61 E388.1970
G1 X5.39 Y8.18 E388.2439
G1 X4.62 Y8.64 E388.2878
G1 X3.69 Y9.08 E388.3381
G1 X2.85 Y9.38 E388.3818
G1 X1.91 Y9.61 E388.4292
G1 X.90 Y9.76 E388.4791
G1 X.00 Y9.80 E388.5232
G1 X-1.03 Y9.74 E388.5737
G1 X-1.91 Y9.61 E388.6173
G1 X-2.91 Y9.35 E388.6678
G1 X-3.75 Y9.06 E388.7113
G1 X-4.67 Y8.61 E388.7615
G1 X-5.50 Y8.11 E388.8089
G1 X-6.22 Y7.57 E388.8529
G1 X-6.93 Y6.93 E388.8997
G1 X-7.61 Y6.16 E388.9500
G1 X-8.18 Y5.39 E388.9969
G1 X-8.64 Y4.62 E389.0408
G1 X-9.07 Y3.70 E389.0905
G1 X-9.40 Y2.77 E389.1388
G1 X-9.62 Y1.85 E389.1851
G1 X-9.75 Y.90 E389.2320
G1 X-9.80 Y.00 E389.2761
G1 X-9.74 Y-1.02 E389.3261
G1 X-9.59 Y-1.97 E389.3732
G1 X-9.35 Y-2.91 E389.4207
G1 X-9.06 Y-3.75 E389.4642
G1 X-8.61 Y-4.67 E389.5143
G1 X-8.11 Y-5.50 E389.5617
G1 X-7.53 Y-6.27 E389.6089
G1 X-6.93 Y-6.93 E389.6526
G1 X-6.22 Y-7.57 E389.6994
G1 X-5.45 Y-8.15 E389.7465
G1 X-4.61 Y-8.65 E389.7944
G1 X-3.75 Y-9.06 E389.8410
G1 X-2.85 Y-9.38 E389.8878
G1 X-1.85 Y-9.62 E389.9381
G1 X-.90 Y-9.75 E389.9851
G1 X-.00 Y-9.80 E390.0292
G1 X1.02 Y-9.74 E390.0792
G1 X1.97 Y-9.59 E390.1262
G1 X2.91 Y-9.35 E390.1737
G1 X3.75 Y-9.06 E390.2172
G1 X4.68 Y-8.61 E390.2678
G1 X5.44 Y-8.15 E390.3112
G1 X6.27 Y-7.53 E390.3620
G1 X6.93 Y-6.93 E390.4056
G1 X7.61 Y-6.16 E390.4559
G1 X8.18 Y-5.39 E390.5028
G1 X8.67 Y-4.56 E390.5499
G1 X9.06 Y-3.75 E390.5939
G1 X9.38 Y-2.85 E390.6407
G1 X9.62 Y-1.86 E390.6905
G1 X9.75 Y-.96 E390.7351
G1 X9.79 Y-.10 E390.7772
G1 X9.39 Y-.10 E390.7837 F300
G1 X6.04 Y-6.74 F4200
;structure:infill-solid
;extrude_ratio:0.917431
G1 X6.04 Y-6.74
G1 X6.69 Y-6.09 E390.8250 F900
;extrude_ratio:1
G1 X7.03 Y-5.71 E390.8499
G1 X7.57 Y-4.97 E390.8948
G1 X8.03 Y-4.18 E390.9395
;extrude_ratio:0.917431
G1 X4.19 Y-8.02 E391.1834
;extrude_ratio:1
G1 X3.45 Y-8.38 E391.2236
G1 X3.16 Y-8.48 E391.2386
;extrude_ratio:0.917431
G1 X8.48 Y-3.16 E391.5765
;extrude_ratio:1
G1 X8.67 Y-2.63 E391.6040
G1 X8.74 Y-2.33 E391.6191
;extrude_ratio:0.917431
G1 X2.34 Y-8.73 E392.0255
;extrude_ratio:1
G1 X1.81 Y-8.87 E392.0523
G1 X1.60 Y-8.90 E392.0627
;extrude_ratio:0.917431
G1 X8.91 Y-1.59 E392.5269
;extrude_ratio:1
G1 X9.01 Y-.93 E392.5596
;extrude_ratio:0.917431
G1 X.93 Y-9.01 E393.0726
;extrude_ratio:1
G1 X.33 Y-9.04 E393.1020
;extrude_ratio:0.917431
G1 X9.04 Y-.33 E393.6551
;extrude_ratio:1
G1 X9.04 Y.25 E393.6835
;extrude_ratio:0.917431
G1 X-.25 Y-9.04 E394.2734
;extrude_ratio:1
G1 X-.79 Y-9.02 E394.2998
;extrude_ratio:0.917431
G1 X9.01 Y.78 E394.9222
;extrude_ratio:1
G1 X8.95 Y1.29 E394.9473
;extrude_ratio:0.917431
G1 X-1.29 Y-8.95 E395.5975
;extrude_ratio:1
G1 X-1.78 Y-8.87 E395.6219
;extrude_ratio:0.917431
G1 X8.88 Y1.79 E396.2987
;extrude_ratio:1
G1 X8.76 Y2.24 E396.3215
;extrude_ratio:0.917431
G1 X-2.24 Y-8.76 E397.0200
;extrude_ratio:1
G1 X-2.69 Y-8.64 E397.0428
;extrude_ratio:0.917431
G1 X8.64 Y2.69 E397.7623
;extrude_ratio:1
G1 X8.49 Y3.11 E397.7841
;extrude_ratio:0.917431
G1 X-3.11 Y-8.50 E398.5210
;extrude_ratio:1
G1 X-3.52 Y-8.34 E398.5426
;extrude_ratio:0.917431
G1 X8.34 Y3.52 E399.2956
;extrude_ratio:1
G1 X8.16 Y3.91 E399.3167
;extrude_ratio:0.917431
G1 X-3.91 Y-8.16 E400.0831
;extrude_ratio:1
G1 X-4.29 Y-7.97 E400.1039
;extrude_ratio:0.917431
G1 X7.97 Y4.29 E400.8824
;extrude_ratio:1
G1 X7.76 Y4.64 E400.9024
;extrude_ratio:0.917431
G1 X-4.65 Y-7.76 E401.6901
;extrude_ratio:1
G1 X-5.00 Y-7.55 E401.7100
;extrude_ratio:0.917431
G1 X7.54 Y5.00 E402.5066
;extrude_ratio:1
G1 X7.31 Y5.33 E402.5263
;extrude_ratio:0.917431
G1 X-5.33 Y-7.31 E403.3290
;extrude_ratio:1
G1 X-5.66 Y-7.06 E403.3492
;extrude_ratio:0.917431
G1 X7.07 Y5.66 E404.1572
;extrude_ratio:1
G1 X6.80 Y5.97 E404.1774
;extrude_ratio:0.917431
G1 X-5.96 Y-6.80 E404.9879
;extrude_ratio:1
G1 X-6.26 Y-6.53 E405.0077
;extrude_ratio:0.917431
G1 X6.53 Y6.26 E405.8198
;extrude_ratio:1
G1 X6.25 Y6.55 E405.8396
;extrude_ratio:0.917431
G1 X-6.55 Y-6.25 E406.6524
;extrude_ratio:1
G1 X-6.82 Y-5.95 E406.6721
;extrude_ratio:0.917431
G1 X5.95 Y6.81 E407.4827
;extrude_ratio:1
G1 X5.64 Y7.08 E407.5028
;extrude_ratio:0.917431
G1 X-7.07 Y-5.64 E408.3102
;extrude_ratio:1
G1 X-7.32 Y-5.31 E408.3305
;extrude_ratio:0.917431
G1 X5.31 Y7.32 E409.1325
;extrude_ratio:1
G1 X4.99 Y7.56 E409.1520
;extrude_ratio:0.917431
G1 X-7.55 Y-4.98 E409.9483
;extrude_ratio:1
G1 X-7.77 Y-4.63 E409.9685
;extrude_ratio:0.917431
G1 X4.63 Y7.77 E410.7559
;extrude_ratio:1
G1 X4.28 Y7.99 E410.7761
;extrude_ratio:0.917431
G1 X-7.98 Y-4.27 E411.5546
;extrude_ratio:1
G1 X-8.16 Y-3.89 E411.5752
;extrude_ratio:0.917431
G1 X3.89 Y8.17 E412.3407
;extrude_ratio:1
G1 X3.50 Y8.35 E412.3618
;extrude_ratio:0.917431
G1 X-8.35 Y-3.50 E413.1142
;extrude_ratio:1
G1 X-8.50 Y-3.09 E413.1356
;extrude_ratio:0.917431
G1 X3.09 Y8.50 E413.8716
;extrude_ratio:1
G1 X2.67 Y8.65 E413.8934
;extrude_ratio:0.917431
G1 X-8.65 Y-2.67 E414.6122
;extrude_ratio:1
G1 X-8.77 Y-2.21 E414.6355
;extrude_ratio:0.917431
G1 X2.22 Y8.77 E415.3330
;extrude_ratio:1
G1 X1.76 Y8.88 E415.3562
;extrude_ratio:0.917431
G1 X-8.88 Y-1.76 E416.0318
;extrude_ratio:1
G1 X-8.95 Y-1.27 E416.0560
;extrude_ratio:0.917431
G1 X1.26 Y8.95 E416.7047
;extrude_ratio:1
G1 X.76 Y9.02 E416.7294
;extrude_ratio:0.917431
G1 X-9.02 Y-.76 E417.3504
;extrude_ratio:1
G1 X-9.04 Y-.22 E417.3768
;extrude_ratio:0.917431
G1 X.22 Y9.05 E417.9652
;extrude_ratio:1
G1 X-.36 Y9.04 E417.9936
;extrude_ratio:0.917431
G1 X-9.04 Y.36 E418.5448
;extrude_ratio:1
G1 X-9.00 Y.97 E418.5747
;extrude_ratio:0.917431
G1 X-.96 Y9.00 E419.0849
;extrude_ratio:1
G1 X-1.63 Y8.90 E419.1181
;extrude_ratio:0.917431
G1 X-8.90 Y1.63 E419.5797
;extrude_ratio:1
G1 X-8.73 Y2.37 E419.6169
;extrude_ratio:0.917431
G1 X-2.37 Y8.73 E420.0207
;extrude_ratio:1
G1 X-2.71 Y8.64 E420.0379
G1 X-3.21 Y8.45 E420.0641
;extrude_ratio:0.917431
G1 X-8.45 Y3.22 E420.3966
;extrude_ratio:1
G1 X-8.39 Y3.41 E420.4063
G1 X-8.01 Y4.23 E420.4505
;extrude_ratio:0.917431
G1 X-4.24 Y7.99 E420.6896
;extrude_ratio:1
G1 X-5.08 Y7.49 E420.7374
G1 X-5.75 Y7.00 E420.7781
G1 X-6.47 Y6.34 E420.8259
G1 Z2.000 F420
;layer:0.18
G1 X9.40 Y.00 F4800
;structure:shell-inner
G1 X9.40 Y.00
G1 X9.35 Y.92 E420.8559 F2880
G1 X9.22 Y1.83 E420.8859
G1 X8.99 Y2.74 E420.9166
G1 X8.69 Y3.59 E420.9459
G1 X8.29 Y4.43 E420.9763
G1 X7.82 Y5.22 E421.0063
G1 X7.26 Y5.97 E421.0368
G1 X6.65 Y6.65 E421.0666
G1 X5.97 Y7.26 E421.0965
G1 X5.22 Y7.82 E421.1270
G1 X4.43 Y8.29 E421.1570
G1 X3.59 Y8.69 E421.1873 F3024
G1 X2.74 Y8.99 E421.2167
G1 X1.83 Y9.22 E421.2474
G1 X.92 Y9.35 E421.2774
G1 X.00 Y9.40 E421.3074
G1 X-.92 Y9.35 E421.3375
G1 X-1.83 Y9.22 E421.3675
G1 X-2.74 Y8.99 E421.3981
G1 X-3.59 Y8.69 E421.4275
G1 X-4.42 Y8.29 E421.4576
G1 X-5.22 Y7.82 E421.4879
G1 X-5.97 Y7.26 E421.5184 F3168
G1 X-6.65 Y6.65 E421.5482
G1 X-7.26 Y5.97 E421.5780
G1 X-7.82 Y5.21 E421.6089
G1 X-8.29 Y4.43 E421.6385
G1 X-8.69 Y3.59 E421.6689
G1 X-8.99 Y2.74 E421.6983
G1 X-9.22 Y1.83 E421.7289
G1 X-9.35 Y.92 E421.7589
G1 X-9.40 Y.00 E421.7890
G1 X-9.35 Y-.92 E421.8191
G1 X-9.22 Y-1.83 E421.8491 F3312
G1 X-8.99 Y-2.74 E421.8797
G1 X-8.69 Y-3.59 E421.9091
G1 X-8.30 Y-4.42 E421.9390
G1 X-7.82 Y-5.22 E421.9695
G1 X-7.26 Y-5.97 E422.0000
G1 X-6.65 Y-6.65 E422.0298
G1 X-5.97 Y-7.26 E422.0596
G1 X-5.22 Y-7.81 E422.0900
G1 X-4.42 Y-8.29 E422.1204
G1 X-3.59 Y-8.69 E422.1505
G1 X-2.74 Y-8.99 E422.1799 F3456
G1 X-1.83 Y-9.22 E422.2105
G1 X-.92 Y-9.35 E422.2405
G1 X.00 Y-9.40 E422.2706
G1 X.92 Y-9.35 E422.3006
G1 X1.83 Y-9.22 E422.3306
G1 X2.74 Y-8.99 E422.3612
G1 X3.59 Y-8.69 E422.3906
G1 X4.43 Y-8.29 E422.4210
G1 X4.47 Y-8.27 E422.4224
G1 X5.21 Y-7.82 E422.4507
G1 X5.97 Y-7.26 E422.4815
G1 X6.11 Y-7.13 E422.4878 F2988
G1 X6.65 Y-6.65 E422.5113 F2376
G1 X7.26 Y-5.97 E422.5411
G1 X7.48 Y-5.68 E422.5530
G1 X7.82 Y-5.22 E422.5716 F1764
G1 X8.30 Y-4.42 E422.6021
G1 X8.51 Y-3.97 E422.6183
G1 X8.69 Y-3.59 E422.6320 F1152
G1 X8.99 Y-2.74 E422.6614
G1 X9.15 Y-2.08 E422.6836
G1 X9.22 Y-1.83 E422.6920 F540
G1 X9.35 Y-.92 E422.7220
G1 X9.39 Y-.10 E422.7488
;structure:shell-outer
G1 X9.80 Y.00 E422.7488 F300
G1 X9.75 Y.96 E422.7802 F1800
G1 X9.61 Y1.91 E422.8115
G1 X9.38 Y2.85 E422.8431
G1 X9.06 Y3.75 E422.8742
G1 X8.64 Y4.62 E422.9058
G1 X8.15 Y5.44 E422.9369
G1 X7.57 Y6.22 E422.9687
G1 X6.93 Y6.93 E422.9998
G1 X6.22 Y7.57 E423.0310
G1 X5.44 Y8.15 E423.0627
G1 X4.62 Y8.64 E423.0939
G1 X3.75 Y9.06 E423.1254
G1 X2.85 Y9.38 E423.1566
G1 X1.91 Y9.61 E423.1881
G1 X.96 Y9.75 E423.2195
G1 X.00 Y9.80 E423.2509
G1 X-.96 Y9.75 E423.2823
G1 X-1.91 Y9.61 E423.3136
G1 X-2.85 Y9.38 E423.3451
G1 X-3.75 Y9.06 E423.3763
G1 X-4.61 Y8.65 E423.4074
G1 X-5.45 Y8.15 E423.4393
G1 X-6.22 Y7.57 E423.4708
G1 X-6.93 Y6.93 E423.5019
G1 X-7.57 Y6.22 E423.5331
G1 X-8.15 Y5.44 E423.5649
G1 X-8.64 Y4.62 E423.5960
G1 X-9.06 Y3.75 E423.6276
G1 X-9.38 Y2.85 E423.6587
G1 X-9.61 Y1.91 E423.6903
G1 X-9.75 Y.96 E423.7216
G1 X-9.80 Y.00 E423.7530
G1 X-9.75 Y-.96 E423.7844
G1 X-9.61 Y-1.91 E423.8157
G1 X-9.38 Y-2.85 E423.8473
G1 X-9.06 Y-3.75 E423.8784
G1 X-8.65 Y-4.61 E423.9095
G1 X-8.15 Y-5.45 E423.9414
G1 X-7.57 Y-6.22 E423.9729
G1 X-6.93 Y-6.93 E424.0041
G1 X-6.22 Y-7.57 E424.0353
G1 X-5.45 Y-8.15 E424.0667
G1 X-4.61 Y-8.65 E424.0987
G1 X-3.75 Y-9.06 E424.1298
G1 X-2.85 Y-9.38 E424.1609
G1 X-1.91 Y-9.61 E424.1925
G1 X-.96 Y-9.75 E424.2238
G1 X.00 Y-9.80 E424.2552
G1 X.96 Y-9.75 E424.2866
G1 X1.91 Y-9.61 E424.3179
G1 X2.85 Y-9.38 E424.3495
G1 X3.75 Y-9.06 E424.3806
G1 X4.62 Y-8.64 E424.4122
G1 X5.44 Y-8.15 E424.4433
G1 X6.22 Y-7.57 E424.4750
G1 X6.93 Y-6.93 E424.5062
G1 X7.57 Y-6.22 E424.5374
G1 X8.15 Y-5.45 E424.5689
G1 X8.65 Y-4.61 E424.6008
G1 X9.06 Y-3.75 E424.6319
G1 X9.38 Y-2.85 E424.6630
G1 X9.61 Y-1.91 E424.6946
G1 X9.75 Y-.96 E424.7259
G1 X9.80 Y-.10 E424.7540
G1 X9.39 Y-.10 E424.7584 F300
G1 X6.33 Y6.47 F4800
;structure:infill-solid
G1 X6.33 Y6.47
G1 X7.00 Y5.75 E424.7906 F1800
G1 X7.54 Y5.03 E424.8199
G1 X8.01 Y4.23 E424.8502
G1 X4.23 Y8.01 E425.0246
G1 X3.45 Y8.38 E425.0528
G1 X3.21 Y8.46 E425.0610
G1 X8.46 Y3.21 E425.3033
G1 X8.66 Y2.65 E425.3227
G1 X8.73 Y2.37 E425.3321
G1 X2.37 Y8.73 E425.6255
G1 X1.63 Y8.90 E425.6503
G1 X8.90 Y1.63 E425.9858
G1 X9.00 Y.96 E426.0079
G1 X.96 Y9.00 E426.3789
G1 X.35 Y9.04 E426.3988
G1 X9.04 Y.35 E426.7998
G1 X9.05 Y-.22 E426.8184
G1 X-.22 Y9.05 E427.2462
G1 X-.76 Y9.02 E427.2638
G1 X9.02 Y-.76 E427.7151
G1 X8.96 Y-1.27 E427.7319
G1 X-1.27 Y8.96 E428.2039
G1 X-1.76 Y8.88 E428.2201
G1 X8.88 Y-1.76 E428.7111
G1 X8.77 Y-2.22 E428.7265
G1 X-2.22 Y8.77 E429.2336
G1 X-2.67 Y8.65 E429.2488
G1 X8.65 Y-2.67 E429.7711
G1 X8.50 Y-3.09 E429.7857
G1 X-3.09 Y8.50 E430.3205
G1 X-3.50 Y8.35 E430.3348
G1 X8.35 Y-3.50 E430.8816
G1 X8.17 Y-3.89 E430.8956
G1 X-3.89 Y8.17 E431.4521
G1 X-4.28 Y7.99 E431.4661
G1 X7.98 Y-4.28 E432.0320
G1 X7.77 Y-4.63 E432.0453
G1 X-4.63 Y7.77 E432.6175
G1 X-4.98 Y7.55 E432.6310
G1 X7.56 Y-4.99 E433.2097
G1 X7.32 Y-5.32 E433.2230
G1 X-5.32 Y7.32 E433.8062
G1 X-5.64 Y7.08 E433.8193
G1 X7.08 Y-5.64 E434.4062
G1 X6.82 Y-5.95 E434.4194
G1 X-5.95 Y6.82 E435.0087
G1 X-6.25 Y6.55 E435.0218
G1 X6.55 Y-6.25 E435.6124
G1 X6.26 Y-6.53 E435.6256
G1 X-6.53 Y6.26 E436.2158
G1 X-6.80 Y5.96 E436.2289
G1 X5.96 Y-6.80 E436.8177
G1 X5.66 Y-7.06 E436.8307
G1 X-7.07 Y5.66 E437.4178
G1 X-7.31 Y5.33 E437.4311
G1 X5.33 Y-7.31 E438.0144
G1 X5.00 Y-7.55 E438.0277
G1 X-7.55 Y5.00 E438.6068
G1 X-7.76 Y4.65 E438.6201
G1 X4.65 Y-7.76 E439.1927
G1 X4.29 Y-7.98 E439.2065
G1 X-7.97 Y4.29 E439.7725
G1 X-8.16 Y3.91 E439.7863
G1 X3.91 Y-8.16 E440.3433
G1 X3.52 Y-8.34 E440.3573
G1 X-8.34 Y3.52 E440.9045
G1 X-8.50 Y3.11 E440.9189
G1 X3.11 Y-8.50 E441.4546
G1 X2.69 Y-8.65 E441.4692
G1 X-8.65 Y2.69 E441.9924
G1 X-8.76 Y2.24 E442.0076
G1 X2.24 Y-8.76 E442.5151
G1 X1.78 Y-8.88 E442.5306
G1 X-8.88 Y1.78 E443.0225
G1 X-8.95 Y1.29 E443.0387
G1 X1.29 Y-8.95 E443.5112
G1 X.79 Y-9.02 E443.5276
G1 X-9.02 Y.79 E443.9803
G1 X-9.04 Y.25 E443.9979
G1 X.25 Y-9.04 E444.4266
G1 X-.33 Y-9.04 E444.4455
G1 X-9.04 Y-.33 E444.8474
G1 X-9.01 Y-.93 E444.8670
G1 X-.93 Y-9.00 E445.2396
G1 X-1.60 Y-8.91 E445.2617
G1 X-8.91 Y-1.60 E445.5990
G1 X-8.88 Y-1.77 E445.6046
G1 X-8.74 Y-2.33 E445.6234
G1 X-2.33 Y-8.74 E445.9192
G1 X-2.65 Y-8.66 E445.9300
G1 X-3.16 Y-8.48 E445.9476
G1 X-8.48 Y-3.16 E446.1931
G1 X-8.38 Y-3.45 E446.2031
G1 X-8.03 Y-4.18 E446.2295
G1 X-4.18 Y-8.03 E446.4072
G1 X-4.28 Y-7.99 E446.4106
G1 X-5.03 Y-7.53 E446.4394
G1 X-5.75 Y-7.00 E446.4685
G1 X-6.07 Y-6.71 E446.4826
G1 X-6.71 Y-6.06 E446.5124
;layer:0.18
G1 Z2.180 F420
G1 X9.40 Y.00 F4800
;structure:shell-inner
G1 X9.40 Y.00
G1 X9.35 Y.92 E446.5424 F2880
G1 X9.22 Y1.83 E446.5724
G1 X8.99 Y2.74 E446.6031
G1 X8.69 Y3.59 E446.6325
G1 X8.29 Y4.43 E446.6628
G1 X7.82 Y5.22 E446.6928
G1 X7.26 Y5.97 E446.7234
G1 X6.65 Y6.65 E446.7531
G1 X5.97 Y7.26 E446.7830
G1 X5.22 Y7.82 E446.8135
G1 X4.43 Y8.29 E446.8435
G1 X3.59 Y8.69 E446.8738 F3024
G1 X2.74 Y8.99 E446.9033
G1 X1.83 Y9.22 E446.9339
G1 X.92 Y9.35 E446.9639
G1 X.00 Y9.40 E446.9939
G1 X-.92 Y9.35 E447.0240
G1 X-1.83 Y9.22 E447.0540
G1 X-2.74 Y8.99 E447.0846
G1 X-3.59 Y8.69 E447.1140
G1 X-4.42 Y8.29 E447.1441
G1 X-5.22 Y7.82 E447.1744
G1 X-5.97 Y7.26 E447.2049 F3168
G1 X-6.65 Y6.65 E447.2347
G1 X-7.26 Y5.97 E447.2645
G1 X-7.82 Y5.21 E447.2953
G1 X-8.29 Y4.43 E447.3251
G1 X-8.69 Y3.59 E447.3554
G1 X-8.99 Y2.74 E447.3848
G1 X-9.22 Y1.83 E447.4154
G1 X-9.35 Y.92 E447.4454
G1 X-9.40 Y.00 E447.4755
G1 X-9.35 Y-.92 E447.5055
G1 X-9.22 Y-1.83 E447.5355 F3312
G1 X-8.99 Y-2.74 E447.5662
G1 X-8.69 Y-3.59 E447.5956
G1 X-8.30 Y-4.42 E447.6255
G1 X-7.82 Y-5.22 E447.6560
G1 X-7.26 Y-5.97 E447.6865
G1 X-6.65 Y-6.65 E447.7163
G1 X-5.97 Y-7.26 E447.7461
G1 X-5.22 Y-7.81 E447.7765
G1 X-4.42 Y-8.29 E447.8069
G1 X-3.59 Y-8.69 E447.8370
G1 X-2.74 Y-8.99 E447.8664 F3456
G1 X-1.83 Y-9.22 E447.8970
G1 X-.92 Y-9.35 E447.9270
G1 X.00 Y-9.40 E447.9571
G1 X.92 Y-9.35 E447.9871
G1 X1.83 Y-9.22 E448.0171
G1 X2.74 Y-8.99 E448.0478
G1 X3.59 Y-8.69 E448.0771
G1 X4.43 Y-8.29 E448.1075
G1 X4.47 Y-8.27 E448.1090
G1 X5.21 Y-7.82 E448.1372
G1 X5.97 Y-7.26 E448.1680
G1 X6.11 Y-7.13 E448.1742 F2988
G1 X6.65 Y-6.65 E448.1978 F2376
G1 X7.26 Y-5.97 E448.2276
G1 X7.48 Y-5.68 E448.2395
G1 X7.82 Y-5.22 E448.2581 F1764
G1 X8.30 Y-4.42 E448.2886
G1 X8.51 Y-3.97 E448.3048
G1 X8.69 Y-3.59 E448.3185 F1152
G1 X8.99 Y-2.74 E448.3479
G1 X9.15 Y-2.08 E448.3701
G1 X9.22 Y-1.83 E448.3785 F540
G1 X9.35 Y-.92 E448.4085
G1 X9.39 Y-.10 E448.4353
;structure:shell-outer
G1 X9.80 Y.00 E448.4353 F300
G1 X9.75 Y.96 E448.4667 F1800
G1 X9.61 Y1.91 E448.4980
G1 X9.38 Y2.85 E448.5296
G1 X9.06 Y3.75 E448.5608
G1 X8.64 Y4.62 E448.5923
G1 X8.15 Y5.44 E448.6234
G1 X7.57 Y6.22 E448.6551
G1 X6.93 Y6.93 E448.6863
G1 X6.22 Y7.57 E448.7175
G1 X5.44 Y8.15 E448.7492
G1 X4.62 Y8.64 E448.7804
G1 X3.75 Y9.06 E448.8119
G1 X2.85 Y9.38 E448.8431
G1 X1.91 Y9.61 E448.8747
G1 X.96 Y9.75 E448.9060
G1 X.00 Y9.80 E448.9374
G1 X-.96 Y9.75 E448.9687
G1 X-1.91 Y9.61 E449.0001
G1 X-2.85 Y9.38 E449.0316
G1 X-3.75 Y9.06 E449.0628
G1 X-4.61 Y8.65 E449.0939
G1 X-5.45 Y8.15 E449.1258
G1 X-6.22 Y7.57 E449.1573
G1 X-6.93 Y6.93 E449.1885
G1 X-7.57 Y6.22 E449.2197
G1 X-8.15 Y5.44 E449.2514
G1 X-8.64 Y4.62 E449.2825
G1 X-9.06 Y3.75 E449.3141
G1 X-9.38 Y2.85 E449.3452
G1 X-9.61 Y1.91 E449.3768
G1 X-9.75 Y.96 E449.4081
G1 X-9.80 Y.00 E449.4395
G1 X-9.75 Y-.96 E449.4709
G1 X-9.61 Y-1.91 E449.5022
G1 X-9.38 Y-2.85 E449.5338
G1 X-9.06 Y-3.75 E449.5649
G1 X-8.65 Y-4.61 E449.5960
G1 X-8.15 Y-5.45 E449.6279
G1 X-7.57 Y-6.22 E449.6594
G1 X-6.93 Y-6.93 E449.6906
G1 X-6.22 Y-7.57 E449.7218
G1 X-5.45 Y-8.15 E449.7532
G1 X-4.61 Y-8.65 E449.7852
G1 X-3.75 Y-9.06 E449.8162
G1 X-2.85 Y-9.38 E449.8474
G1 X-1.91 Y-9.61 E449.8790
G1 X-.96 Y-9.75 E449.9103
G1 X.00 Y-9.80 E449.9417
G1 X.96 Y-9.75 E449.9730
G1 X1.91 Y-9.61 E450.0044
G1 X2.85 Y-9.38 E450.0360
G1 X3.75 Y-9.06 E450.0671
G1 X4.62 Y-8.64 E450.0987
G1 X5.44 Y-8.15 E450.1298
G1 X6.22 Y-7.57 E450.1615
G1 X6.93 Y-6.93 E450.1927
G1 X7.57 Y-6.22 E450.2239
G1 X8.15 Y-5.45 E450.2554
G1 X8.65 Y-4.61 E450.2873
G1 X9.06 Y-3.75 E450.3184
G1 X9.38 Y-2.85 E450.3495
G1 X9.61 Y-1.91 E450.3811
G1 X9.75 Y-.96 E450.4124
G1 X9.80 Y-.10 E450.4405
G1 X9.39 Y-.10 E450.4450 F300
G1 X6.08 Y-6.70 F4800
;structure:infill-solid
G1 X6.08 Y-6.70
G1 X6.70 Y-6.08 E450.4736 F1800
G1 X7.00 Y-5.75 E450.4881
G1 X7.52 Y-5.05 E450.5166
G1 X7.99 Y-4.27 E450.5463
G1 X8.03 Y-4.18 E450.5495
G1 X4.18 Y-8.03 E450.7271
G1 X3.45 Y-8.38 E450.7536
G1 X3.17 Y-8.48 E450.7632
G1 X8.48 Y-3.16 E451.0085
G1 X8.66 Y-2.66 E451.0258
G1 X8.74 Y-2.33 E451.0369
G1 X2.33 Y-8.74 E451.3327
G1 X1.76 Y-8.88 E451.3519
G1 X1.60 Y-8.91 E451.3572
G1 X8.91 Y-1.60 E451.6945
G1 X9.01 Y-.93 E451.7166
G1 X.93 Y-9.01 E452.0894
G1 X.33 Y-9.04 E452.1090
G1 X9.04 Y-.33 E452.5109
G1 X9.05 Y.25 E452.5299
G1 X-.24 Y-9.04 E452.9585
G1 X-.79 Y-9.02 E452.9765
G1 X9.02 Y.79 E453.4292
G1 X8.95 Y1.29 E453.4456
G1 X-1.29 Y-8.95 E453.9181
G1 X-1.78 Y-8.88 E453.9343
G1 X8.88 Y1.78 E454.4261
G1 X8.76 Y2.24 E454.4416
G1 X-2.24 Y-8.76 E454.9492
G1 X-2.69 Y-8.65 E454.9643
G1 X8.65 Y2.69 E455.4876
G1 X8.50 Y3.11 E455.5022
G1 X-3.11 Y-8.50 E456.0379
G1 X-3.52 Y-8.34 E456.0522
G1 X8.34 Y3.52 E456.5995
G1 X8.16 Y3.91 E456.6135
G1 X-3.91 Y-8.16 E457.1704
G1 X-4.29 Y-7.98 E457.1841
G1 X7.97 Y4.29 E457.7501
G1 X7.76 Y4.65 E457.7637
G1 X-4.65 Y-7.76 E458.3363
G1 X-5.00 Y-7.55 E458.3496
G1 X7.55 Y5.00 E458.9287
G1 X7.31 Y5.33 E458.9420
G1 X-5.33 Y-7.31 E459.5253
G1 X-5.66 Y-7.07 E459.5386
G1 X7.07 Y5.66 E460.1260
G1 X6.81 Y5.97 E460.1392
G1 X-5.96 Y-6.80 E460.7284
G1 X-6.26 Y-6.53 E460.7416
G1 X6.54 Y6.26 E461.3320
G1 X6.25 Y6.55 E461.3454
G1 X-6.55 Y-6.25 E461.9360
G1 X-6.82 Y-5.95 E461.9492
G1 X5.95 Y6.82 E462.5384
G1 X5.64 Y7.08 E462.5516
G1 X-7.08 Y-5.64 E463.1385
G1 X-7.32 Y-5.32 E463.1516
G1 X5.32 Y7.32 E463.7348
G1 X4.99 Y7.56 E463.7482
G1 X-7.55 Y-4.98 E464.3268
G1 X-7.77 Y-4.63 E464.3403
G1 X4.63 Y7.77 E464.9125
G1 X4.28 Y7.98 E464.9258
G1 X-7.98 Y-4.28 E465.4915
G1 X-8.17 Y-3.89 E465.5056
G1 X3.89 Y8.17 E466.0622
G1 X3.50 Y8.35 E466.0761
G1 X-8.35 Y-3.50 E466.6229
G1 X-8.50 Y-3.09 E466.6372
G1 X3.09 Y8.50 E467.1720
G1 X2.67 Y8.65 E467.1866
G1 X-8.65 Y-2.67 E467.7089
G1 X-8.77 Y-2.22 E467.7241
G1 X2.22 Y8.77 E468.2313
G1 X1.76 Y8.88 E468.2467
G1 X-8.88 Y-1.76 E468.7376
G1 X-8.95 Y-1.27 E468.7538
G1 X1.27 Y8.96 E469.2256
G1 X.76 Y9.02 E469.2424
G1 X-9.02 Y-.76 E469.6937
G1 X-9.05 Y-.22 E469.7113
G1 X.22 Y9.05 E470.1391
G1 X-.35 Y9.04 E470.1576
G1 X-9.04 Y.35 E470.5586
G1 X-9.00 Y.96 E470.5786
G1 X-.96 Y9.00 E470.9496
G1 X-1.63 Y8.90 E470.9717
G1 X-8.90 Y1.63 E471.3072
G1 X-8.73 Y2.37 E471.3319
G1 X-2.37 Y8.73 E471.6254
G1 X-2.65 Y8.66 E471.6348
G1 X-3.20 Y8.46 E471.6539
G1 X-8.46 Y3.20 E471.8966
G1 X-8.38 Y3.44 E471.9049
G1 X-8.01 Y4.23 E471.9333
G1 X-4.23 Y8.01 E472.1078
G1 X-5.08 Y7.50 E472.1401
G1 X-5.75 Y7.00 E472.1674
G1 X-6.47 Y6.33 E472.1995
;layer:0.18
G1 X9.40 Y.00 F4800
G1 Z2.360 F420
;structure:shell-inner
G1 X9.40 Y.00 F4800
G1 X9.35 Y.92 E472.2295 F2880
G1 X9.22 Y1.83 E472.2595
G1 X8.99 Y2.74 E472.2902
G1 X8.69 Y3.59 E472.3195
G1 X8.29 Y4.43 E472.3499
G1 X7.82 Y5.22 E472.3799
G1 X7.26 Y5.97 E472.4104
G1 X6.65 Y6.65 E472.4402
G1 X5.97 Y7.26 E472.4701
G1 X5.22 Y7.82 E472.5006
G1 X4.43 Y8.29 E472.5306
G1 X3.59 Y8.69 E472.5609 F3024
G1 X2.74 Y8.99 E472.5903
G1 X1.83 Y9.22 E472.6210
G1 X.92 Y9.35 E472.6510
G1 X.00 Y9.40 E472.6810
G1 X-.92 Y9.35 E472.7111
G1 X-1.83 Y9.22 E472.7411
G1 X-2.74 Y8.99 E472.7717
G1 X-3.59 Y8.69 E472.8011
G1 X-4.42 Y8.29 E472.8312
G1 X-5.22 Y7.82 E472.8615
G1 X-5.97 Y7.26 E472.8920 F3168
G1 X-6.65 Y6.65 E472.9218
G1 X-7.26 Y5.97 E472.9516
G1 X-7.82 Y5.21 E472.9824
G1 X-8.29 Y4.43 E473.0121
G1 X-8.69 Y3.59 E473.0425
G1 X-8.99 Y2.74 E473.0719
G1 X-9.22 Y1.83 E473.1025
G1 X-9.35 Y.92 E473.1325
G1 X-9.40 Y.00 E473.1626
G1 X-9.35 Y-.92 E473.1927
G1 X-9.22 Y-1.83 E473.2227 F3312
G1 X-8.99 Y-2.74 E473.2533
G1 X-8.69 Y-3.59 E473.2827
G1 X-8.30 Y-4.42 E473.3126
G1 X-7.82 Y-5.22 E473.3430
G1 X-7.26 Y-5.97 E473.3736
G1 X-6.65 Y-6.65 E473.4034
G1 X-5.97 Y-7.26 E473.4332
G1 X-5.22 Y-7.81 E473.4636
G1 X-4.42 Y-8.29 E473.4940
G1 X-3.59 Y-8.69 E473.5240
G1 X-2.74 Y-8.99 E473.5535 F3456
G1 X-1.83 Y-9.22 E473.5841
G1 X-.92 Y-9.35 E473.6141
G1 X.00 Y-9.40 E473.6442
G1 X.92 Y-9.35 E473.6742
G1 X1.83 Y-9.22 E473.7042
G1 X2.74 Y-8.99 E473.7348
G1 X3.59 Y-8.69 E473.7642
G1 X4.43 Y-8.29 E473.7946
G1 X4.47 Y-8.27 E473.7960
G1 X5.21 Y-7.82 E473.8243
G1 X5.97 Y-7.26 E473.8551
G1 X6.11 Y-7.13 E473.8613 F2988
G1 X6.65 Y-6.65 E473.8849 F2376
G1 X7.26 Y-5.97 E473.9147
G1 X7.48 Y-5.68 E473.9266
G1 X7.82 Y-5.22 E473.9452 F1764
G1 X8.30 Y-4.42 E473.9757
G1 X8.51 Y-3.97 E473.9919
G1 X8.69 Y-3.59 E474.0056 F1152
G1 X8.99 Y-2.74 E474.0350
G1 X9.15 Y-2.08 E474.0572
G1 X9.22 Y-1.83 E474.0656 F540
G1 X9.35 Y-.92 E474.0956
G1 X9.39 Y-.10 E474.1224
;structure:shell-outer
G1 X9.80 Y.00 E474.1224 F300
G1 X9.75 Y.96 E474.1538 F1800
G1 X9.61 Y1.91 E474.1851
G1 X9.38 Y2.85 E474.2167
G1 X9.06 Y3.75 E474.2478
G1 X8.64 Y4.62 E474.2794
G1 X8.15 Y5.44 E474.3105
G1 X7.57 Y6.22 E474.3422
G1 X6.93 Y6.93 E474.3734
G1 X6.22 Y7.57 E474.4046
G1 X5.44 Y8.15 E474.4363
G1 X4.62 Y8.64 E474.4675
G1 X3.75 Y9.06 E474.4990
G1 X2.85 Y9.38 E474.5302
G1 X1.91 Y9.61 E474.5617
G1 X.96 Y9.75 E474.5931
G1 X.00 Y9.80 E474.6245
G1 X-.96 Y9.75 E474.6558
G1 X-1.91 Y9.61 E474.6872
G1 X-2.85 Y9.38 E474.7187
G1 X-3.75 Y9.06 E474.7499
G1 X-4.61 Y8.65 E474.7810
G1 X-5.45 Y8.15 E474.8129
G1 X-6.22 Y7.57 E474.8444
G1 X-6.93 Y6.93 E474.8755
G1 X-7.57 Y6.22 E474.9067
G1 X-8.15 Y5.44 E474.9385
G1 X-8.64 Y4.62 E474.9696
G1 X-9.06 Y3.75 E475.0012
G1 X-9.38 Y2.85 E475.0323
G1 X-9.61 Y1.91 E475.0639
G1 X-9.75 Y.96 E475.0952
G1 X-9.80 Y.00 E475.1266
G1 X-9.75 Y-.96 E475.1580
G1 X-9.61 Y-1.91 E475.1893
G1 X-9.38 Y-2.85 E475.2209
G1 X-9.06 Y-3.75 E475.2520
G1 X-8.65 Y-4.61 E475.2831
G1 X-8.15 Y-5.45 E475.3150
G1 X-7.57 Y-6.22 E475.3465
G1 X-6.93 Y-6.93 E475.3777
G1 X-6.22 Y-7.57 E475.4089
G1 X-5.45 Y-8.15 E475.4403
G1 X-4.61 Y-8.65 E475.4723
G1 X-3.75 Y-9.06 E475.5034
G1 X-2.85 Y-9.38 E475.5345
G1 X-1.91 Y-9.61 E475.5661
G1 X-.96 Y-9.75 E475.5974
G1 X.00 Y-9.80 E475.6288
G1 X.96 Y-9.75 E475.6602
G1 X1.91 Y-9.61 E475.6915
G1 X2.85 Y-9.38 E475.7230
G1 X3.75 Y-9.06 E475.7542
G1 X4.62 Y-8.64 E475.7857
G1 X5.44 Y-8.15 E475.8169
G1 X6.22 Y-7.57 E475.8486
G1 X6.93 Y-6.93 E475.8798
G1 X7.57 Y-6.22 E475.9110
G1 X8.15 Y-5.45 E475.9425
G1 X8.65 Y-4.61 E475.9744
G1 X9.06 Y-3.75 E476.0055
G1 X9.38 Y-2.85 E476.0366
G1 X9.61 Y-1.91 E476.0682
G1 X9.75 Y-.96 E476.0995
G1 X9.80 Y-.10 E476.1276
G1 X9.39 Y-.10 E476.1320 F300
;layer:0.18
G1 Z2.540 F420
;structure:shell-inner
G1 X9.40 Y.00 F4800
G1 X9.35 Y.92 E476.1621 F3600
G1 X9.22 Y1.83 E476.1921
G1 X8.99 Y2.74 E476.2227
G1 X8.69 Y3.59 E476.2522
G1 X8.29 Y4.43 E476.2825
G1 X7.82 Y5.22 E476.3125
G1 X7.26 Y5.97 E476.3430
G1 X6.65 Y6.65 E476.3728
G1 X5.97 Y7.26 E476.4026
G1 X5.22 Y7.82 E476.4332
G1 X4.43 Y8.29 E476.4632
G1 X3.59 Y8.69 E476.4935
G1 X2.74 Y8.99 E476.5229
G1 X1.83 Y9.22 E476.5536
G1 X.92 Y9.35 E476.5836
G1 X.00 Y9.40 E476.6136
G1 X-.92 Y9.35 E476.6437
G1 X-1.83 Y9.22 E476.6737
G1 X-2.74 Y8.99 E476.7043
G1 X-3.59 Y8.69 E476.7337
G1 X-4.42 Y8.29 E476.7638
G1 X-5.22 Y7.82 E476.7941
G1 X-5.97 Y7.26 E476.8246
G1 X-6.65 Y6.65 E476.8544
G1 X-7.26 Y5.97 E476.8842
G1 X-7.82 Y5.21 E476.9150
G1 X-8.29 Y4.43 E476.9448
G1 X-8.69 Y3.59 E476.9751
G1 X-8.99 Y2.74 E477.0045
G1 X-9.22 Y1.83 E477.0351
G1 X-9.35 Y.92 E477.0651
G1 X-9.40 Y.00 E477.0952
G1 X-9.35 Y-.92 E477.1252
G1 X-9.22 Y-1.83 E477.1552
G1 X-8.99 Y-2.74 E477.1859
G1 X-8.69 Y-3.59 E477.2153
G1 X-8.30 Y-4.42 E477.2452
G1 X-7.82 Y-5.22 E477.2757
G1 X-7.26 Y-5.97 E477.3062
G1 X-6.65 Y-6.65 E477.3360
G1 X-5.97 Y-7.26 E477.3658
G1 X-5.22 Y-7.81 E477.3961
G1 X-4.42 Y-8.29 E477.4266
G1 X-3.59 Y-8.69 E477.4567
G1 X-2.74 Y-8.99 E477.4860
G1 X-1.83 Y-9.22 E477.5167
G1 X-.92 Y-9.35 E477.5467
G1 X.00 Y-9.40 E477.5767
G1 X.92 Y-9.35 E477.6068
G1 X1.83 Y-9.22 E477.6368
G1 X2.74 Y-8.99 E477.6674
G1 X3.59 Y-8.69 E477.6968
G1 X4.43 Y-8.29 E477.7272
G1 X4.47 Y-8.27 E477.7287
G1 X5.21 Y-7.82 E477.7569 F2988
G1 X5.97 Y-7.26 E477.7877
G1 X6.11 Y-7.13 E477.7939
G1 X6.65 Y-6.65 E477.8175 F2376
G1 X7.26 Y-5.97 E477.8473
G1 X7.48 Y-5.68 E477.8592
G1 X7.82 Y-5.22 E477.8778 F1764
G1 X8.30 Y-4.42 E477.9083
G1 X8.51 Y-3.97 E477.9245
G1 X8.69 Y-3.59 E477.9382 F1152
G1 X8.99 Y-2.74 E477.9676
G1 X9.15 Y-2.08 E477.9897
G1 X9.22 Y-1.83 E477.9982 F540
G1 X9.35 Y-.92 E478.0282
G1 X9.39 Y-.10 E478.0550
;structure:shell-outer
G1 X9.80 Y.00 E478.0550 F300
G1 X9.75 Y.96 E478.0864 F1800
G1 X9.61 Y1.91 E478.1177
G1 X9.38 Y2.85 E478.1493
G1 X9.06 Y3.75 E478.1804
G1 X8.64 Y4.62 E478.2120
G1 X8.15 Y5.44 E478.2431
G1 X7.57 Y6.22 E478.2748
G1 X6.93 Y6.93 E478.3060
G1 X6.22 Y7.57 E478.3372
G1 X5.44 Y8.15 E478.3689
G1 X4.62 Y8.64 E478.4001
G1 X3.75 Y9.06 E478.4316
G1 X2.85 Y9.38 E478.4628
G1 X1.91 Y9.61 E478.4943
G1 X.96 Y9.75 E478.5257
G1 X.00 Y9.80 E478.5571
G1 X-.96 Y9.75 E478.5884
G1 X-1.91 Y9.61 E478.6198
G1 X-2.85 Y9.38 E478.6513
G1 X-3.75 Y9.06 E478.6825
G1 X-4.61 Y8.65 E478.7136
G1 X-5.45 Y8.15 E478.7455
G1 X-6.22 Y7.57 E478.7770
G1 X-6.93 Y6.93 E478.8082
G1 X-7.57 Y6.22 E478.8393
G1 X-8.15 Y5.44 E478.8711
G1 X-8.64 Y4.62 E478.9022
G1 X-9.06 Y3.75 E478.9337
G1 X-9.38 Y2.85 E478.9649
G1 X-9.61 Y1.91 E478.9965
G1 X-9.75 Y.96 E479.0278
G1 X-9.80 Y.00 E479.0592
G1 X-9.75 Y-.96 E479.0906
G1 X-9.61 Y-1.91 E479.1219
G1 X-9.38 Y-2.85 E479.1535
G1 X-9.06 Y-3.75 E479.1846
G1 X-8.65 Y-4.61 E479.2157
G1 X-8.15 Y-5.45 E479.2476
G1 X-7.57 Y-6.22 E479.2791
G1 X-6.93 Y-6.93 E479.3103
G1 X-6.22 Y-7.57 E479.3415
G1 X-5.45 Y-8.15 E479.3729
G1 X-4.61 Y-8.65 E479.4048
G1 X-3.75 Y-9.06 E479.4359
G1 X-2.85 Y-9.38 E479.4671
G1 X-1.91 Y-9.61 E479.4987
G1 X-.96 Y-9.75 E479.5300
G1 X.00 Y-9.80 E479.5614
G1 X.96 Y-9.75 E479.5927
G1 X1.91 Y-9.61 E479.6241
G1 X2.85 Y-9.38 E479.6557
G1 X3.75 Y-9.06 E479.6868
G1 X4.62 Y-8.64 E479.7183
G1 X5.44 Y-8.15 E479.7495
G1 X6.22 Y-7.57 E479.7812
G1 X6.93 Y-6.93 E479.8124
G1 X7.57 Y-6.22 E479.8436
G1 X8.15 Y-5.45 E479.8751
G1 X8.65 Y-4.61 E479.9070
G1 X9.06 Y-3.75 E479.9380
G1 X9.38 Y-2.85 E479.9692
G1 X9.61 Y-1.91 E480.0008
G1 X9.75 Y-.96 E480.0321
G1 X9.80 Y-.10 E480.0602
G1 X9.39 Y-.10 E480.0647 F300
G1 X6.33 Y6.47 F4800
;structure:infill-sparse
;extrude_ratio:2
G1 X6.33 Y6.47
G1 X7.00 Y5.75 E480.1288 F3600
G1 X7.53 Y5.03 E480.1872
G1 X8.00 Y4.23 E480.2477
G1 X4.23 Y8.01 E480.5961
G1 X3.46 Y8.37 E480.6516
G1 X3.21 Y8.46 E480.6689
G1 X8.46 Y3.21 E481.1534
G1 X8.67 Y2.63 E481.1937
G1 X8.73 Y2.37 E481.2111
G1 X2.37 Y8.73 E481.7980
G1 X1.63 Y8.90 E481.8476
G1 X8.90 Y1.63 E482.5185
G1 X9.00 Y.96 E482.5627
G1 X.96 Y9.00 E483.3047
G1 X.35 Y9.04 E483.3446
G1 X9.04 Y.35 E484.1466
G1 X9.05 Y-.22 E484.1838
G1 X-.22 Y9.05 E485.0393
G1 X-.76 Y9.02 E485.0745
G1 X9.02 Y-.76 E485.9771
G1 X8.96 Y-1.27 E486.0106
G1 X-1.27 Y8.96 E486.9547
G1 X-1.76 Y8.88 E486.9871
G1 X8.88 Y-1.76 E487.9690
G1 X8.77 Y-2.22 E487.9999
G1 X-2.22 Y8.77 E489.0142
G1 X-2.67 Y8.65 E489.0446
G1 X8.65 Y-2.67 E490.0893
G1 X8.50 Y-3.09 E490.1183
G1 X-3.09 Y8.50 E491.1879
G1 X-3.50 Y8.35 E491.2164
G1 X8.35 Y-3.50 E492.3100
G1 X8.17 Y-3.89 E492.3381
G1 X-3.89 Y8.17 E493.4510
G1 X-4.28 Y7.98 E493.4793
G1 X7.98 Y-4.27 E494.6103
G1 X7.77 Y-4.63 E494.6375
G1 X-4.63 Y7.77 E495.7818
G1 X-4.99 Y7.56 E495.8090
G1 X7.56 Y-4.99 E496.9672
G1 X7.32 Y-5.32 E496.9938
G1 X-5.32 Y7.32 E498.1603
G1 X-5.64 Y7.08 E498.1864
G1 X7.08 Y-5.64 E499.3603
G1 X6.82 Y-5.95 E499.3867
G1 X-5.95 Y6.82 E500.5652
G1 X-6.25 Y6.55 E500.5915
G1 X6.55 Y-6.25 E501.7729
G1 X6.26 Y-6.53 E501.7992
G1 X-6.53 Y6.26 E502.9795
G1 X-6.80 Y5.97 E503.0053
G1 X5.97 Y-6.80 E504.1838
G1 X5.66 Y-7.07 E504.2107
G1 X-7.07 Y5.66 E505.3855
G1 X-7.31 Y5.33 E505.4121
G1 X5.33 Y-7.31 E506.5786
G1 X5.00 Y-7.55 E506.6052
G1 X-7.55 Y5.00 E507.7634
G1 X-7.76 Y4.65 E507.7900
G1 X4.65 Y-7.76 E508.9353
G1 X4.29 Y-7.97 E508.9625
G1 X-7.97 Y4.29 E510.0939
G1 X-8.16 Y3.91 E510.1216
G1 X3.91 Y-8.16 E511.2356
G1 X3.52 Y-8.34 E511.2636
G1 X-8.34 Y3.52 E512.3581
G1 X-8.50 Y3.11 E512.3869
G1 X3.11 Y-8.50 E513.4583
G1 X2.69 Y-8.64 E513.4871
G1 X-8.64 Y2.69 E514.5327
G1 X-8.76 Y2.24 E514.5631
G1 X2.24 Y-8.76 E515.5783
G1 X1.78 Y-8.88 E515.6093
G1 X-8.88 Y1.78 E516.5931
G1 X-8.95 Y1.29 E516.6255
G1 X1.29 Y-8.95 E517.5705
G1 X.79 Y-9.02 E517.6034
G1 X-9.02 Y.79 E518.5087
G1 X-9.04 Y.25 E518.5440
G1 X.25 Y-9.04 E519.4013
G1 X-.33 Y-9.04 E519.4392
G1 X-9.04 Y-.33 E520.2429
G1 X-9.01 Y-.93 E520.2821
G1 X-.93 Y-9.00 E521.0274
G1 X-1.60 Y-8.91 E521.0715
G1 X-8.91 Y-1.60 E521.7461
G1 X-8.88 Y-1.77 E521.7573
G1 X-8.74 Y-2.33 E521.7950
G1 X-2.33 Y-8.74 E522.3866
G1 X-2.63 Y-8.67 E522.4067
G1 X-3.16 Y-8.48 E522.4434
G1 X-8.48 Y-3.16 E522.9344
G1 X-8.38 Y-3.44 E522.9538
G1 X-8.03 Y-4.18 E523.0072
G1 X-4.18 Y-8.03 E523.3625
G1 X-4.28 Y-7.98 E523.3698
G1 X-5.04 Y-7.53 E523.4275
G1 X-5.74 Y-7.00 E523.4847
G1 X-6.07 Y-6.71 E523.5134
G1 X-6.72 Y-6.06 E523.5734
;layer:0.18
;extrude_ratio:1
G1 X9.40 Y.00 F4800
G1 Z2.720 F420
;structure:shell-inner
G1 X9.40 Y.00 F4800
G1 X9.35 Y.92 E523.6034 F2880
G1 X9.22 Y1.83 E523.6334
G1 X8.99 Y2.74 E523.6640
G1 X8.69 Y3.59 E523.6934
G1 X8.29 Y4.43 E523.7238
G1 X7.82 Y5.22 E523.7538
G1 X7.26 Y5.97 E523.7843
G1 X6.65 Y6.65 E523.8142
G1 X5.97 Y7.26 E523.8440
G1 X5.22 Y7.82 E523.8745
G1 X4.43 Y8.29 E523.9045
G1 X3.59 Y8.69 E523.9348 F3024
G1 X2.74 Y8.99 E523.9643
G1 X1.83 Y9.22 E523.9949
G1 X.92 Y9.35 E524.0249
G1 X.00 Y9.40 E524.0550
G1 X-.92 Y9.35 E524.0850
G1 X-1.83 Y9.22 E524.1150
G1 X-2.74 Y8.99 E524.1456
G1 X-3.59 Y8.69 E524.1750
G1 X-4.42 Y8.29 E524.2051
G1 X-5.22 Y7.82 E524.2354
G1 X-5.97 Y7.26 E524.2659 F3168
G1 X-6.65 Y6.65 E524.2957
G1 X-7.26 Y5.97 E524.3255
G1 X-7.82 Y5.21 E524.3563
G1 X-8.29 Y4.43 E524.3860
G1 X-8.69 Y3.59 E524.4164
G1 X-8.99 Y2.74 E524.4458
G1 X-9.22 Y1.83 E524.4765
G1 X-9.35 Y.92 E524.5064
G1 X-9.40 Y.00 E524.5365
G1 X-9.35 Y-.92 E524.5666
G1 X-9.22 Y-1.83 E524.5966 F3312
G1 X-8.99 Y-2.74 E524.6272
G1 X-8.69 Y-3.59 E524.6566
G1 X-8.30 Y-4.42 E524.6866
G1 X-7.82 Y-5.22 E524.7170
G1 X-7.26 Y-5.97 E524.7476
G1 X-6.65 Y-6.65 E524.7774
G1 X-5.97 Y-7.26 E524.8072
G1 X-5.22 Y-7.81 E524.8376
G1 X-4.42 Y-8.29 E524.8680
G1 X-3.59 Y-8.69 E524.8981
G1 X-2.74 Y-8.99 E524.9275 F3456
G1 X-1.83 Y-9.22 E524.9582
G1 X-.92 Y-9.35 E524.9881
G1 X.00 Y-9.40 E525.0182
G1 X.92 Y-9.35 E525.0483
G1 X1.83 Y-9.22 E525.0783
G1 X2.74 Y-8.99 E525.1089
G1 X3.59 Y-8.69 E525.1383
G1 X4.43 Y-8.29 E525.1687
G1 X4.47 Y-8.27 E525.1701
G1 X5.21 Y-7.82 E525.1984
G1 X5.97 Y-7.26 E525.2292
G1 X6.11 Y-7.13 E525.2354 F2988
G1 X6.65 Y-6.65 E525.2590 F2376
G1 X7.26 Y-5.97 E525.2888
G1 X7.48 Y-5.68 E525.3007
G1 X7.82 Y-5.22 E525.3194 F1764
G1 X8.30 Y-4.42 E525.3498
G1 X8.51 Y-3.97 E525.3661
G1 X8.69 Y-3.59 E525.3798 F1152
G1 X8.99 Y-2.74 E525.4092
G1 X9.15 Y-2.08 E525.4314
G1 X9.22 Y-1.83 E525.4399 F540
G1 X9.35 Y-.92 E525.4699
G1 X9.39 Y-.10 E525.4967
;structure:shell-outer
G1 X9.80 Y.00 E525.4967 F300
G1 X9.75 Y.96 E525.5281 F1800
G1 X9.61 Y1.91 E525.5594
G1 X9.38 Y2.85 E525.5910
G1 X9.06 Y3.75 E525.6222
G1 X8.64 Y4.62 E525.6537
G1 X8.15 Y5.44 E525.6848
G1 X7.57 Y6.22 E525.7165
G1 X6.93 Y6.93 E525.7477
G1 X6.22 Y7.57 E525.7789
G1 X5.44 Y8.15 E525.8106
G1 X4.62 Y8.64 E525.8418
G1 X3.75 Y9.06 E525.8733
G1 X2.85 Y9.38 E525.9044
G1 X1.91 Y9.61 E525.9360
G1 X.96 Y9.75 E525.9673
G1 X.00 Y9.80 E525.9987
G1 X-.96 Y9.75 E526.0301
G1 X-1.91 Y9.61 E526.0614
G1 X-2.85 Y9.38 E526.0930
G1 X-3.75 Y9.06 E526.1242
G1 X-4.61 Y8.65 E526.1552
G1 X-5.45 Y8.15 E526.1871
G1 X-6.22 Y7.57 E526.2185
G1 X-6.93 Y6.93 E526.2497
G1 X-7.57 Y6.22 E526.2809
G1 X-8.15 Y5.44 E526.3126
G1 X-8.64 Y4.62 E526.3438
G1 X-9.06 Y3.75 E526.3753
G1 X-9.38 Y2.85 E526.4065
G1 X-9.61 Y1.91 E526.4380
G1 X-9.75 Y.96 E526.4693
G1 X-9.80 Y.00 E526.5007
G1 X-9.75 Y-.96 E526.5321
G1 X-9.61 Y-1.91 E526.5634
G1 X-9.38 Y-2.85 E526.5949
G1 X-9.06 Y-3.75 E526.6261
G1 X-8.65 Y-4.61 E526.6572
G1 X-8.15 Y-5.45 E526.6891
G1 X-7.57 Y-6.22 E526.7205
G1 X-6.93 Y-6.93 E526.7517
G1 X-6.22 Y-7.57 E526.7829
G1 X-5.45 Y-8.15 E526.8144
G1 X-4.61 Y-8.65 E526.8462
G1 X-3.75 Y-9.06 E526.8773
G1 X-2.85 Y-9.38 E526.9085
G1 X-1.91 Y-9.61 E526.9400
G1 X-.96 Y-9.75 E526.9713
G1 X.00 Y-9.80 E527.0027
G1 X.96 Y-9.75 E527.0341
G1 X1.91 Y-9.61 E527.0654
G1 X2.85 Y-9.38 E527.0969
G1 X3.75 Y-9.06 E527.1281
G1 X4.62 Y-8.64 E527.1596
G1 X5.44 Y-8.15 E527.1908
G1 X6.22 Y-7.57 E527.2225
G1 X6.93 Y-6.93 E527.2537
G1 X7.57 Y-6.22 E527.2849
G1 X8.15 Y-5.45 E527.3163
G1 X8.65 Y-4.61 E527.3482
G1 X9.06 Y-3.75 E527.3793
G1 X9.38 Y-2.85 E527.4105
G1 X9.61 Y-1.91 E527.4420
G1 X9.75 Y-.96 E527.4734
G1 X9.80 Y-.10 E527.5015
G1 X9.39 Y-.10 E527.5059 F300
;layer:0.18
G1 Z2.900 F420
;structure:shell-inner
G1 X9.40 Y.00 F4800
G1 X9.35 Y.92 E527.5360 F3600
G1 X9.22 Y1.83 E527.5659
G1 X8.99 Y2.74 E527.5966
G1 X8.69 Y3.59 E527.6260
G1 X8.29 Y4.43 E527.6564
G1 X7.82 Y5.22 E527.6864
G1 X7.26 Y5.97 E527.7169
G1 X6.65 Y6.65 E527.7468
G1 X5.97 Y7.26 E527.7766
G1 X5.22 Y7.82 E527.8072
G1 X4.43 Y8.29 E527.8371
G1 X3.59 Y8.69 E527.8675
G1 X2.74 Y8.99 E527.8969
G1 X1.83 Y9.22 E527.9276
G1 X.92 Y9.35 E527.9576
G1 X.00 Y9.40 E527.9876
G1 X-.92 Y9.35 E528.0177
G1 X-1.83 Y9.22 E528.0477
G1 X-2.74 Y8.99 E528.0783
G1 X-3.59 Y8.69 E528.1078
G1 X-4.42 Y8.29 E528.1378
G1 X-5.22 Y7.82 E528.1681
G1 X-5.97 Y7.26 E528.1986
G1 X-6.65 Y6.65 E528.2285
G1 X-7.26 Y5.97 E528.2583
G1 X-7.82 Y5.21 E528.2891
G1 X-8.29 Y4.43 E528.3188
G1 X-8.69 Y3.59 E528.3491
G1 X-8.99 Y2.74 E528.3786
G1 X-9.22 Y1.83 E528.4092
G1 X-9.35 Y.92 E528.4392
G1 X-9.40 Y.00 E528.4693
G1 X-9.35 Y-.92 E528.4994
G1 X-9.22 Y-1.83 E528.5293
G1 X-8.99 Y-2.74 E528.5600
G1 X-8.69 Y-3.59 E528.5894
G1 X-8.30 Y-4.42 E528.6193
G1 X-7.82 Y-5.22 E528.6498
G1 X-7.26 Y-5.97 E528.6803
G1 X-6.65 Y-6.65 E528.7102
G1 X-5.97 Y-7.26 E528.7400
G1 X-5.22 Y-7.81 E528.7703
G1 X-4.42 Y-8.29 E528.8007
G1 X-3.59 Y-8.69 E528.8308
G1 X-2.74 Y-8.99 E528.8603
G1 X-1.83 Y-9.22 E528.8909
G1 X-.92 Y-9.35 E528.9209
G1 X.00 Y-9.40 E528.9510
G1 X.92 Y-9.35 E528.9810
G1 X1.83 Y-9.22 E529.0110
G1 X2.74 Y-8.99 E529.0417
G1 X3.59 Y-8.69 E529.0711
G1 X4.43 Y-8.29 E529.1015
G1 X4.47 Y-8.27 E529.1029
G1 X5.21 Y-7.82 E529.1311 F2988
G1 X5.97 Y-7.26 E529.1620
G1 X6.11 Y-7.13 E529.1682
G1 X6.65 Y-6.65 E529.1918 F2376
G1 X7.26 Y-5.97 E529.2216
G1 X7.48 Y-5.68 E529.2335
G1 X7.82 Y-5.22 E529.2522 F1764
G1 X8.30 Y-4.42 E529.2826
G1 X8.51 Y-3.97 E529.2988
G1 X8.69 Y-3.59 E529.3125 F1152
G1 X8.99 Y-2.74 E529.3419
G1 X9.15 Y-2.08 E529.3642
G1 X9.22 Y-1.83 E529.3726 F540
G1 X9.35 Y-.92 E529.4027
G1 X9.39 Y-.10 E529.4295
;structure:shell-outer
G1 X9.80 Y.00 E529.4295 F300
G1 X9.75 Y.96 E529.4608 F1800
G1 X9.61 Y1.91 E529.4922
G1 X9.38 Y2.85 E529.5237
G1 X9.06 Y3.75 E529.5549
G1 X8.64 Y4.62 E529.5864
G1 X8.15 Y5.44 E529.6176
G1 X7.57 Y6.22 E529.6493
G1 X6.93 Y6.93 E529.6804
G1 X6.22 Y7.57 E529.7116
G1 X5.44 Y8.15 E529.7433
G1 X4.62 Y8.64 E529.7745
G1 X3.75 Y9.06 E529.8061
G1 X2.85 Y9.38 E529.8372
G1 X1.91 Y9.61 E529.8688
G1 X.96 Y9.75 E529.9001
G1 X.00 Y9.80 E529.9315
G1 X-.96 Y9.75 E529.9629
G1 X-1.91 Y9.61 E529.9942
G1 X-2.85 Y9.38 E530.0257
G1 X-3.75 Y9.06 E530.0569
G1 X-4.61 Y8.65 E530.0880
G1 X-5.45 Y8.15 E530.1198
G1 X-6.22 Y7.57 E530.1513
G1 X-6.93 Y6.93 E530.1825
G1 X-7.57 Y6.22 E530.2136
G1 X-8.15 Y5.44 E530.2453
G1 X-8.64 Y4.62 E530.2765
G1 X-9.06 Y3.75 E530.3080
G1 X-9.38 Y2.85 E530.3392
G1 X-9.61 Y1.91 E530.3708
G1 X-9.75 Y.96 E530.4021
G1 X-9.80 Y.00 E530.4334
G1 X-9.75 Y-.96 E530.4648
G1 X-9.61 Y-1.91 E530.4962
G1 X-9.38 Y-2.85 E530.5277
G1 X-9.06 Y-3.75 E530.5589
G1 X-8.65 Y-4.61 E530.5900
G1 X-8.15 Y-5.45 E530.6219
G1 X-7.57 Y-6.22 E530.6533
G1 X-6.93 Y-6.93 E530.6845
G1 X-6.22 Y-7.57 E530.7157
G1 X-5.45 Y-8.15 E530.7471
G1 X-4.61 Y-8.65 E530.7790
G1 X-3.75 Y-9.06 E530.8100
G1 X-2.85 Y-9.38 E530.8412
G1 X-1.91 Y-9.61 E530.8728
G1 X-.96 Y-9.75 E530.9041
G1 X.00 Y-9.80 E530.9354
G1 X.96 Y-9.75 E530.9668
G1 X1.91 Y-9.61 E530.9981
G1 X2.85 Y-9.38 E531.0297
G1 X3.75 Y-9.06 E531.0609
G1 X4.62 Y-8.64 E531.0924
G1 X5.44 Y-8.15 E531.1236
G1 X6.22 Y-7.57 E531.1553
G1 X6.93 Y-6.93 E531.1865
G1 X7.57 Y-6.22 E531.2177
G1 X8.15 Y-5.45 E531.2491
G1 X8.65 Y-4.61 E531.2810
G1 X9.06 Y-3.75 E531.3120
G1 X9.38 Y-2.85 E531.3432
G1 X9.61 Y-1.91 E531.3748
G1 X9.75 Y-.96 E531.4061
G1 X9.80 Y-.10 E531.4342
G1 X9.39 Y-.10 E531.4386 F300
G1 X5.71 Y-6.49 F4800
;structure:infill-sparse
;extrude_ratio:2
G1 X5.71 Y-6.49
G1 X6.46 Y-5.74 E531.5078 F3600
G1 X6.70 Y-5.49 E531.5305
G1 X7.18 Y-4.83 E531.5837
G1 X7.64 Y-4.07 E531.6417
G1 X7.70 Y-3.94 E531.6510
G1 X3.93 Y-7.70 E531.9984
G1 X3.31 Y-8.00 E532.0434
G1 X2.94 Y-8.13 E532.0689
G1 X8.14 Y-2.93 E532.5489
G1 X8.27 Y-2.55 E532.5750
G1 X8.38 Y-2.12 E532.6040
G1 X2.12 Y-8.38 E533.1817
G1 X1.68 Y-8.49 E533.2113
G1 X1.40 Y-8.53 E533.2297
G1 X8.53 Y-1.40 E533.8877
G1 X8.62 Y-.75 E533.9305
G1 X.75 Y-8.62 E534.6568
G1 X.15 Y-8.65 E534.6960
G1 X8.65 Y-.15 E535.4804
G1 X8.63 Y.41 E535.5171
G1 X-.41 Y-8.63 E536.3513
G1 X-.94 Y-8.60 E536.3859
G1 X8.60 Y.94 E537.2663
G1 X8.53 Y1.44 E537.2993
G1 X-1.43 Y-8.52 E538.2185
G1 X-1.91 Y-8.43 E538.2503
G1 X8.43 Y1.91 E539.2046
G1 X8.32 Y2.37 E539.2354
G1 X-2.37 Y-8.32 E540.2220
G1 X-2.80 Y-8.18 E540.2516
G1 X8.18 Y2.80 E541.2649
G1 X8.03 Y3.22 E541.2940
G1 X-3.22 Y-8.03 E542.3322
G1 X-3.61 Y-7.86 E542.3599
G1 X7.86 Y3.61 E543.4185
G1 X7.67 Y4.00 E543.4468
G1 X-4.00 Y-7.67 E544.5238
G1 X-4.36 Y-7.47 E544.5506
G1 X7.47 Y4.36 E545.6424
G1 X7.26 Y4.71 E545.6690
G1 X-4.71 Y-7.25 E546.7732
G1 X-5.05 Y-7.02 E546.8000
G1 X7.02 Y5.05 E547.9139
G1 X6.78 Y5.37 E547.9400
G1 X-5.37 Y-6.78 E549.0613
G1 X-5.68 Y-6.52 E549.0877
G1 X6.52 Y5.68 E550.2135
G1 X6.25 Y5.98 E550.2398
G1 X-5.98 Y-6.25 E551.3686
G1 X-6.26 Y-5.96 E551.3949
G1 X5.97 Y6.27 E552.5235
G1 X5.67 Y6.54 E552.5498
G1 X-6.53 Y-5.66 E553.6757
G1 X-6.79 Y-5.35 E553.7021
G1 X5.36 Y6.79 E554.8229
G1 X5.03 Y7.04 E554.8499
G1 X-7.03 Y-5.03 E555.9633
G1 X-7.27 Y-4.69 E555.9905
G1 X4.70 Y7.27 E557.0947
G1 X4.34 Y7.48 E557.1219
G1 X-7.48 Y-4.34 E558.2127
G1 X-7.69 Y-3.98 E558.2399
G1 X3.98 Y7.69 E559.3169
G1 X3.59 Y7.87 E559.3449
G1 X-7.87 Y-3.59 E560.4026
G1 X-8.04 Y-3.20 E560.4303
G1 X3.19 Y8.04 E561.4671
G1 X2.77 Y8.19 E561.4962
G1 X-8.19 Y-2.78 E562.5081
G1 X-8.33 Y-2.34 E562.5383
G1 X2.34 Y8.32 E563.5225
G1 X1.88 Y8.44 E563.5536
G1 X-8.44 Y-1.89 E564.5064
G1 X-8.53 Y-1.41 E564.5383
G1 X1.41 Y8.53 E565.4556
G1 X.91 Y8.60 E565.4886
G1 X-8.60 Y-.91 E566.3662
G1 X-8.64 Y-.38 E566.4008
G1 X.38 Y8.64 E567.2333
G1 X-.18 Y8.65 E567.2699
G1 X-8.65 Y.18 E568.0515
G1 X-8.61 Y.78 E568.0908
G1 X-.78 Y8.62 E568.8139
G1 X-1.44 Y8.52 E568.8574
G1 X-8.52 Y1.44 E569.5108
G1 X-8.49 Y1.68 E569.5266
G1 X-8.37 Y2.16 E569.5589
G1 X-2.17 Y8.37 E570.1315
G1 X-2.52 Y8.28 E570.1551
G1 X-2.99 Y8.11 E570.1877
G1 X-8.12 Y2.99 E570.6607
G1 X-8.00 Y3.31 E570.6829
G1 X-7.68 Y3.99 E570.7320
G1 X-3.99 Y7.68 E571.0726
G1 X-4.10 Y7.63 E571.0805
G1 X-4.80 Y7.21 E571.1337
G1 X-5.50 Y6.69 E571.1906
G1 X-6.19 Y6.05 E571.2520
;extrude_ratio:1
G1 X.90 Y-9.01 F4800
;structure:infill-solid
;extrude_ratio:2
G1 X.90 Y-9.01
G1 X.00 Y-9.06 E571.3108 F1800
G1 X-.90 Y-9.01 E571.3697
G1 X-1.75 Y-8.89 E571.4256
G1 X-2.64 Y-8.66 E571.4856
G1 X-3.46 Y-8.38 E571.5422
G1 X-4.27 Y-7.99 E571.6009
G1 X-5.03 Y-7.53 E571.6589
G1 X-5.74 Y-7.00 E571.7167
G1 X-6.41 Y-6.41 E571.7750
G1 X-7.00 Y-5.75 E571.8327
G1 X-7.53 Y-5.03 E571.8910
G1 X-8.00 Y-4.26 E571.9499
G1 X-8.38 Y-3.46 E572.0077
G1 X-8.66 Y-2.65 E572.0636
G1 X-8.89 Y-1.75 E572.1243
G1 X-9.01 Y-.90 E572.1803
G1 X-9.06 Y.00 E572.2391
G1 X-9.01 Y.90 E572.2979
G1 X-8.89 Y1.75 E572.3539
G1 X-8.66 Y2.64 E572.4139
G1 X-8.38 Y3.46 E572.4705
G1 X-7.99 Y4.28 E572.5297
G1 X-7.54 Y5.02 E572.5862
G1 X-7.00 Y5.75 E572.6455
G1 X-6.41 Y6.41 E572.7032
G1 X-5.75 Y7.00 E572.7610
G1 X-5.03 Y7.53 E572.8193
G1 X-4.27 Y7.99 E572.8773
G1 X-3.46 Y8.38 E572.9359
G1 X-2.65 Y8.66 E572.9919
G1 X-1.75 Y8.89 E573.0525
G1 X-.90 Y9.01 E573.1085
G1 X.00 Y9.06 E573.1673
G1 X.90 Y9.01 E573.2262
G1 X1.75 Y8.89 E573.2821
G1 X2.65 Y8.66 E573.3428
G1 X3.46 Y8.37 E573.3989
G1 X4.28 Y7.99 E573.4579
G1 X5.03 Y7.53 E573.5153
G1 X5.75 Y7.00 E573.5736
G1 X6.41 Y6.41 E573.6314
G1 X7.00 Y5.75 E573.6892
G1 X7.53 Y5.03 E573.7475
G1 X7.99 Y4.27 E573.8054
G1 X8.38 Y3.46 E573.8642
G1 X8.66 Y2.65 E573.9201
G1 X8.89 Y1.74 E573.9813
G1 X9.01 Y.90 E574.0367
G1 X9.06 Y.00 E574.0955
G1 X9.01 Y-.90 E574.1543
G1 X8.89 Y-1.75 E574.2104
G1 X8.66 Y-2.65 E574.2710
G1 X8.38 Y-3.46 E574.3269
G1 X8.00 Y-4.26 E574.3847
G1 X7.53 Y-5.04 E574.4442
G1 X7.00 Y-5.75 E574.5020
G1 X6.41 Y-6.41 E574.5597
G1 X5.75 Y-7.00 E574.6175
G1 X5.03 Y-7.53 E574.6757
G1 X4.27 Y-7.99 E574.7338
G1 X3.46 Y-8.37 E574.7921
G1 X2.64 Y-8.66 E574.8489
G1 X1.75 Y-8.89 E574.9089
G1 X.90 Y-9.01 E574.9649
;extrude_ratio:1
;layer:0.18
G1 X9.40 Y.00 F4800
G1 Z3.080 F420
;structure:shell-inner
G1 X9.40 Y.00 F4800
G1 X9.35 Y.92 E574.9950 F2880
G1 X9.22 Y1.83 E575.0250
G1 X8.99 Y2.74 E575.0556
G1 X8.69 Y3.59 E575.0850
G1 X8.29 Y4.43 E575.1154
G1 X7.82 Y5.22 E575.1454
G1 X7.26 Y5.97 E575.1760
G1 X6.65 Y6.65 E575.2058
G1 X5.97 Y7.26 E575.2356
G1 X5.22 Y7.82 E575.2661
G1 X4.43 Y8.29 E575.2962
G1 X3.59 Y8.69 E575.3265 F3024
G1 X2.74 Y8.99 E575.3560
G1 X1.83 Y9.22 E575.3866
G1 X.92 Y9.35 E575.4166
G1 X.00 Y9.40 E575.4467
G1 X-.92 Y9.35 E575.4767
G1 X-1.83 Y9.22 E575.5067
G1 X-2.74 Y8.99 E575.5373
G1 X-3.59 Y8.69 E575.5668
G1 X-4.42 Y8.29 E575.5968
G1 X-5.22 Y7.82 E575.6271
G1 X-5.97 Y7.26 E575.6577 F3168
G1 X-6.65 Y6.65 E575.6875
G1 X-7.26 Y5.97 E575.7172
G1 X-7.82 Y5.21 E575.7481
G1 X-8.29 Y4.43 E575.7778
G1 X-8.69 Y3.59 E575.8081
G1 X-8.99 Y2.74 E575.8376
G1 X-9.22 Y1.83 E575.8682
G1 X-9.35 Y.92 E575.8982
G1 X-9.40 Y.00 E575.9282
G1 X-9.35 Y-.92 E575.9583
G1 X-9.22 Y-1.83 E575.9884 F3312
G1 X-8.99 Y-2.74 E576.0189
G1 X-8.69 Y-3.59 E576.0484
G1 X-8.30 Y-4.42 E576.0783
G1 X-7.82 Y-5.22 E576.1088
G1 X-7.26 Y-5.97 E576.1393
G1 X-6.65 Y-6.65 E576.1692
G1 X-5.97 Y-7.26 E576.1989
G1 X-5.22 Y-7.81 E576.2293
G1 X-4.42 Y-8.29 E576.2598
G1 X-3.59 Y-8.69 E576.2898
G1 X-2.74 Y-8.99 E576.3193 F3456
G1 X-1.83 Y-9.22 E576.3499
G1 X-.92 Y-9.35 E576.3799
G1 X.00 Y-9.40 E576.4099
G1 X.92 Y-9.35 E576.4400
G1 X1.83 Y-9.22 E576.4700
G1 X2.74 Y-8.99 E576.5006
G1 X3.59 Y-8.69 E576.5301
G1 X4.43 Y-8.29 E576.5604
G1 X4.47 Y-8.27 E576.5619
G1 X5.21 Y-7.82 E576.5902
G1 X5.97 Y-7.26 E576.6209
G1 X6.11 Y-7.13 E576.6272 F2988
G1 X6.65 Y-6.65 E576.6508 F2376
G1 X7.26 Y-5.97 E576.6806
G1 X7.48 Y-5.68 E576.6925
G1 X7.82 Y-5.22 E576.7111 F1764
G1 X8.30 Y-4.42 E576.7416
G1 X8.51 Y-3.97 E576.7578
G1 X8.69 Y-3.59 E576.7715 F1152
G1 X8.99 Y-2.74 E576.8010
G1 X9.15 Y-2.08 E576.8231
G1 X9.22 Y-1.83 E576.8316 F540
G1 X9.35 Y-.92 E576.8617
G1 X9.39 Y-.10 E576.8885
;structure:shell-outer
G1 X9.80 Y.00 E576.8885 F300
G1 X9.75 Y.96 E576.9198 F1800
G1 X9.61 Y1.91 E576.9511
G1 X9.38 Y2.85 E576.9827
G1 X9.06 Y3.75 E577.0139
G1 X8.64 Y4.62 E577.0454
G1 X8.15 Y5.44 E577.0766
G1 X7.57 Y6.22 E577.1083
G1 X6.93 Y6.93 E577.1395
G1 X6.22 Y7.57 E577.1707
G1 X5.44 Y8.15 E577.2024
G1 X4.62 Y8.64 E577.2335
G1 X3.75 Y9.06 E577.2650
G1 X2.85 Y9.38 E577.2962
G1 X1.91 Y9.61 E577.3278
G1 X.96 Y9.75 E577.3591
G1 X.00 Y9.80 E577.3905
G1 X-.96 Y9.75 E577.4218
G1 X-1.91 Y9.61 E577.4531
G1 X-2.85 Y9.38 E577.4847
G1 X-3.75 Y9.06 E577.5159
G1 X-4.61 Y8.65 E577.5470
G1 X-5.45 Y8.15 E577.5788
G1 X-6.22 Y7.57 E577.6103
G1 X-6.93 Y6.93 E577.6414
G1 X-7.57 Y6.22 E577.6726
G1 X-8.15 Y5.44 E577.7043
G1 X-8.64 Y4.62 E577.7355
G1 X-9.06 Y3.75 E577.7671
G1 X-9.38 Y2.85 E577.7982
G1 X-9.61 Y1.91 E577.8298
G1 X-9.75 Y.96 E577.8611
G1 X-9.80 Y.00 E577.8925
G1 X-9.75 Y-.96 E577.9239
G1 X-9.61 Y-1.91 E577.9552
G1 X-9.38 Y-2.85 E577.9867
G1 X-9.06 Y-3.75 E578.0179
G1 X-8.65 Y-4.61 E578.0490
G1 X-8.15 Y-5.45 E578.0808
G1 X-7.57 Y-6.22 E578.1123
G1 X-6.93 Y-6.93 E578.1435
G1 X-6.22 Y-7.57 E578.1746
G1 X-5.45 Y-8.15 E578.2061
G1 X-4.61 Y-8.65 E578.2379
G1 X-3.75 Y-9.06 E578.2690
G1 X-2.85 Y-9.38 E578.3002
G1 X-1.91 Y-9.61 E578.3318
G1 X-.96 Y-9.75 E578.3631
G1 X.00 Y-9.80 E578.3944
G1 X.96 Y-9.75 E578.4259
G1 X1.91 Y-9.61 E578.4572
G1 X2.85 Y-9.38 E578.4887
G1 X3.75 Y-9.06 E578.5199
G1 X4.62 Y-8.64 E578.5514
G1 X5.44 Y-8.15 E578.5826
G1 X6.22 Y-7.57 E578.6143
G1 X6.93 Y-6.93 E578.6455
G1 X7.57 Y-6.22 E578.6767
G1 X8.15 Y-5.45 E578.7081
G1 X8.65 Y-4.61 E578.7400
G1 X9.06 Y-3.75 E578.7710
G1 X9.38 Y-2.85 E578.8022
G1 X9.61 Y-1.91 E578.8338
G1 X9.75 Y-.96 E578.8651
G1 X9.80 Y-.10 E578.8932
G1 X9.39 Y-.10 E578.8977 F300
G1 X6.33 Y6.47 F4800
;structure:infill-solid
G1 X6.33 Y6.47
G1 X7.00 Y5.75 E578.9297 F1800
G1 X7.54 Y5.03 E578.9591
G1 X8.01 Y4.23 E578.9893
G1 X4.23 Y8.01 E579.1638
G1 X3.45 Y8.38 E579.1920
G1 X3.21 Y8.46 E579.2002
G1 X8.46 Y3.21 E579.4425
G1 X8.66 Y2.65 E579.4618
G1 X8.73 Y2.37 E579.4713
G1 X2.37 Y8.73 E579.7648
G1 X1.63 Y8.90 E579.7895
G1 X8.90 Y1.63 E580.1250
G1 X9.00 Y.96 E580.1471
G1 X.96 Y9.00 E580.5181
G1 X.35 Y9.04 E580.5380
G1 X9.04 Y.35 E580.9391
G1 X9.05 Y-.22 E580.9577
G1 X-.22 Y9.05 E581.3854
G1 X-.76 Y9.02 E581.4030
G1 X9.02 Y-.76 E581.8543
G1 X8.96 Y-1.27 E581.8710
G1 X-1.27 Y8.96 E582.3431
G1 X-1.76 Y8.88 E582.3593
G1 X8.88 Y-1.76 E582.8502
G1 X8.77 Y-2.22 E582.8656
G1 X-2.22 Y8.77 E583.3728
G1 X-2.67 Y8.65 E583.3880
G1 X8.65 Y-2.67 E583.9103
G1 X8.50 Y-3.09 E583.9248
G1 X-3.09 Y8.50 E584.4596
G1 X-3.50 Y8.35 E584.4739
G1 X8.35 Y-3.50 E585.0207
G1 X8.17 Y-3.89 E585.0347
G1 X-3.89 Y8.17 E585.5912
G1 X-4.28 Y7.99 E585.6052
G1 X7.99 Y-4.28 E586.1714
G1 X7.77 Y-4.63 E586.1849
G1 X-4.63 Y7.77 E586.7571
G1 X-4.99 Y7.56 E586.7707
G1 X7.56 Y-4.99 E587.3498
G1 X7.32 Y-5.32 E587.3631
G1 X-5.32 Y7.32 E587.9464
G1 X-5.64 Y7.08 E587.9594
G1 X7.08 Y-5.64 E588.5464
G1 X6.82 Y-5.95 E588.5596
G1 X-5.95 Y6.82 E589.1488
G1 X-6.25 Y6.55 E589.1620
G1 X6.55 Y-6.25 E589.7526
G1 X6.26 Y-6.53 E589.7658
G1 X-6.53 Y6.26 E590.3560
G1 X-6.80 Y5.96 E590.3692
G1 X5.96 Y-6.80 E590.9580
G1 X5.66 Y-7.06 E590.9709
G1 X-7.07 Y5.66 E591.5581
G1 X-7.31 Y5.33 E591.5714
G1 X5.33 Y-7.31 E592.1546
G1 X5.00 Y-7.55 E592.1679
G1 X-7.55 Y5.00 E592.7471
G1 X-7.76 Y4.65 E592.7604
G1 X4.65 Y-7.76 E593.3330
G1 X4.29 Y-7.98 E593.3468
G1 X-7.98 Y4.29 E593.9130
G1 X-8.16 Y3.91 E593.9267
G1 X3.91 Y-8.16 E594.4837
G1 X3.52 Y-8.34 E594.4976
G1 X-8.34 Y3.52 E595.0449
G1 X-8.50 Y3.11 E595.0593
G1 X3.11 Y-8.50 E595.5950
G1 X2.69 Y-8.65 E595.6096
G1 X-8.65 Y2.69 E596.1328
G1 X-8.76 Y2.24 E596.1480
G1 X2.24 Y-8.76 E596.6555
G1 X1.78 Y-8.88 E596.6710
G1 X-8.88 Y1.78 E597.1629
G1 X-8.95 Y1.29 E597.1790
G1 X1.29 Y-8.95 E597.6515
G1 X.79 Y-9.02 E597.6681
G1 X-9.02 Y.79 E598.1207
G1 X-9.04 Y.25 E598.1383
G1 X.25 Y-9.04 E598.5670
G1 X-.33 Y-9.04 E598.5860
G1 X-9.04 Y-.33 E598.9879
G1 X-9.01 Y-.93 E599.0075
G1 X-.93 Y-9.01 E599.3803
G1 X-1.60 Y-8.91 E599.4025
G1 X-8.91 Y-1.60 E599.7398
G1 X-8.88 Y-1.77 E599.7454
G1 X-8.74 Y-2.33 E599.7642
G1 X-2.33 Y-8.74 E600.0600
G1 X-2.64 Y-8.66 E600.0704
G1 X-3.16 Y-8.48 E600.0883
G1 X-8.48 Y-3.16 E600.3338
G1 X-8.38 Y-3.45 E600.3438
G1 X-8.03 Y-4.17 E600.3700
G1 X-4.18 Y-8.03 E600.5478
G1 X-4.28 Y-7.99 E600.5514
G1 X-5.03 Y-7.53 E600.5800
G1 X-5.75 Y-7.00 E600.6092
G1 X-6.07 Y-6.71 E600.6233
G1 X-6.71 Y-6.06 E600.6530
;layer:0.18
G1 X9.40 Y.00 F4800
G1 Z3.260 F420
;structure:shell-inner
G1 X9.40 Y.00 F4800
G1 X9.35 Y.92 E600.6831 F2880
G1 X9.22 Y1.83 E600.7131
G1 X8.99 Y2.74 E600.7437
G1 X8.69 Y3.59 E600.7732
G1 X8.29 Y4.43 E600.8036
G1 X7.82 Y5.22 E600.8335
G1 X7.26 Y5.97 E600.8641
G1 X6.65 Y6.65 E600.8939
G1 X5.97 Y7.26 E600.9237
G1 X5.22 Y7.82 E600.9542
G1 X4.43 Y8.29 E600.9843
G1 X3.59 Y8.69 E601.0147 F3024
G1 X2.74 Y8.99 E601.0441
G1 X1.83 Y9.22 E601.0747
G1 X.92 Y9.35 E601.1047
G1 X.00 Y9.40 E601.1348
G1 X-.92 Y9.35 E601.1648
G1 X-1.83 Y9.22 E601.1948
G1 X-2.74 Y8.99 E601.2255
G1 X-3.59 Y8.69 E601.2549
G1 X-4.42 Y8.29 E601.2849
G1 X-5.22 Y7.82 E601.3152
G1 X-5.97 Y7.26 E601.3458 F3168
G1 X-6.65 Y6.65 E601.3756
G1 X-7.26 Y5.97 E601.4054
G1 X-7.82 Y5.21 E601.4362
G1 X-8.29 Y4.43 E601.4659
G1 X-8.69 Y3.59 E601.4963
G1 X-8.99 Y2.74 E601.5257
G1 X-9.22 Y1.83 E601.5564
G1 X-9.35 Y.92 E601.5863
G1 X-9.40 Y.00 E601.6164
G1 X-9.35 Y-.92 E601.6464
G1 X-9.22 Y-1.83 E601.6765 F3312
G1 X-8.99 Y-2.74 E601.7071
G1 X-8.69 Y-3.59 E601.7365
G1 X-8.30 Y-4.42 E601.7664
G1 X-7.82 Y-5.22 E601.7969
G1 X-7.26 Y-5.97 E601.8275
G1 X-6.65 Y-6.65 E601.8573
G1 X-5.97 Y-7.26 E601.8871
G1 X-5.22 Y-7.81 E601.9174
G1 X-4.42 Y-8.29 E601.9479
G1 X-3.59 Y-8.69 E601.9780
G1 X-2.74 Y-8.99 E602.0074 F3456
G1 X-1.83 Y-9.22 E602.0380
G1 X-.92 Y-9.35 E602.0680
G1 X.00 Y-9.40 E602.0981
G1 X.92 Y-9.35 E602.1281
G1 X1.83 Y-9.22 E602.1582
G1 X2.74 Y-8.99 E602.1887
G1 X3.59 Y-8.69 E602.2182
G1 X4.43 Y-8.29 E602.2486
G1 X4.47 Y-8.27 E602.2500
G1 X5.21 Y-7.82 E602.2783
G1 X5.97 Y-7.26 E602.3091
G1 X6.11 Y-7.13 E602.3153 F2988
G1 X6.65 Y-6.65 E602.3389 F2376
G1 X7.26 Y-5.97 E602.3687
G1 X7.48 Y-5.68 E602.3806
G1 X7.82 Y-5.22 E602.3993 F1764
G1 X8.30 Y-4.42 E602.4297
G1 X8.51 Y-3.97 E602.4459
G1 X8.69 Y-3.59 E602.4596 F1152
G1 X8.99 Y-2.74 E602.4891
G1 X9.15 Y-2.08 E602.5113
G1 X9.22 Y-1.83 E602.5198 F540
G1 X9.35 Y-.92 E602.5498
G1 X9.39 Y-.10 E602.5766
;structure:shell-outer
G1 X9.80 Y.00 E602.5766 F300
G1 X9.75 Y.96 E602.6079 F1800
G1 X9.61 Y1.91 E602.6392
G1 X9.38 Y2.85 E602.6709
G1 X9.06 Y3.75 E602.7021
G1 X8.64 Y4.62 E602.7335
G1 X8.15 Y5.44 E602.7647
G1 X7.57 Y6.22 E602.7964
G1 X6.93 Y6.93 E602.8276
G1 X6.22 Y7.57 E602.8588
G1 X5.44 Y8.15 E602.8905
G1 X4.62 Y8.64 E602.9217
G1 X3.75 Y9.06 E602.9531
G1 X2.85 Y9.38 E602.9843
G1 X1.91 Y9.61 E603.0159
G1 X.96 Y9.75 E603.0472
G1 X.00 Y9.80 E603.0786
G1 X-.96 Y9.75 E603.1099
G1 X-1.91 Y9.61 E603.1413
G1 X-2.85 Y9.38 E603.1728
G1 X-3.75 Y9.06 E603.2040
G1 X-4.61 Y8.65 E603.2351
G1 X-5.45 Y8.15 E603.2670
G1 X-6.22 Y7.57 E603.2984
G1 X-6.93 Y6.93 E603.3296
G1 X-7.57 Y6.22 E603.3608
G1 X-8.15 Y5.44 E603.3925
G1 X-8.64 Y4.62 E603.4237
G1 X-9.06 Y3.75 E603.4552
G1 X-9.38 Y2.85 E603.4864
G1 X-9.61 Y1.91 E603.5179
G1 X-9.75 Y.96 E603.5492
G1 X-9.80 Y.00 E603.5806
G1 X-9.75 Y-.96 E603.6120
G1 X-9.61 Y-1.91 E603.6433
G1 X-9.38 Y-2.85 E603.6748
G1 X-9.06 Y-3.75 E603.7060
G1 X-8.65 Y-4.61 E603.7371
G1 X-8.15 Y-5.45 E603.7689
G1 X-7.57 Y-6.22 E603.8004
G1 X-6.93 Y-6.93 E603.8316
G1 X-6.22 Y-7.57 E603.8628
G1 X-5.45 Y-8.15 E603.8942
G1 X-4.61 Y-8.65 E603.9261
G1 X-3.75 Y-9.06 E603.9572
G1 X-2.85 Y-9.38 E603.9884
G1 X-1.91 Y-9.61 E604.0199
G1 X-.96 Y-9.75 E604.0512
G1 X.00 Y-9.80 E604.0826
G1 X.96 Y-9.75 E604.1140
G1 X1.91 Y-9.61 E604.1453
G1 X2.85 Y-9.38 E604.1768
G1 X3.75 Y-9.06 E604.2080
G1 X4.62 Y-8.64 E604.2395
G1 X5.44 Y-8.15 E604.2707
G1 X6.22 Y-7.57 E604.3024
G1 X6.93 Y-6.93 E604.3336
G1 X7.57 Y-6.22 E604.3648
G1 X8.15 Y-5.45 E604.3962
G1 X8.65 Y-4.61 E604.4281
G1 X9.06 Y-3.75 E604.4591
G1 X9.38 Y-2.85 E604.4903
G1 X9.61 Y-1.91 E604.5219
G1 X9.75 Y-.96 E604.5532
G1 X9.80 Y-.10 E604.5813
G1 X9.39 Y-.10 E604.5858 F300
G1 X6.08 Y-6.70 F4800
;structure:infill-solid
G1 X6.08 Y-6.70
G1 X6.70 Y-6.08 E604.6144 F1800
G1 X7.00 Y-5.75 E604.6290
G1 X7.52 Y-5.05 E604.6574
G1 X7.99 Y-4.27 E604.6871
G1 X8.03 Y-4.18 E604.6903
G1 X4.18 Y-8.03 E604.8679
G1 X3.45 Y-8.38 E604.8943
G1 X3.17 Y-8.48 E604.9040
G1 X8.48 Y-3.16 E605.1493
G1 X8.66 Y-2.66 E605.1666
G1 X8.74 Y-2.33 E605.1776
G1 X2.33 Y-8.74 E605.4734
G1 X1.76 Y-8.88 E605.4925
G1 X1.60 Y-8.91 E605.4978
G1 X8.91 Y-1.60 E605.8352
G1 X9.01 Y-.93 E605.8573
G1 X.93 Y-9.01 E606.2301
G1 X.33 Y-9.04 E606.2497
G1 X9.04 Y-.33 E606.6516
G1 X9.05 Y.25 E606.6706
G1 X-.24 Y-9.04 E607.0993
G1 X-.79 Y-9.02 E607.1172
G1 X9.02 Y.79 E607.5699
G1 X8.95 Y1.29 E607.5864
G1 X-1.29 Y-8.95 E608.0589
G1 X-1.78 Y-8.88 E608.0750
G1 X8.88 Y1.78 E608.5669
G1 X8.76 Y2.24 E608.5824
G1 X-2.24 Y-8.76 E609.0900
G1 X-2.69 Y-8.65 E609.1051
G1 X8.65 Y2.69 E609.6283
G1 X8.50 Y3.11 E609.6429
G1 X-3.11 Y-8.50 E610.1787
G1 X-3.52 Y-8.34 E610.1930
G1 X8.34 Y3.52 E610.7403
G1 X8.16 Y3.91 E610.7543
G1 X-3.91 Y-8.16 E611.3112
G1 X-4.29 Y-7.98 E611.3250
G1 X7.97 Y4.29 E611.8909
G1 X7.76 Y4.65 E611.9045
G1 X-4.65 Y-7.76 E612.4771
G1 X-5.00 Y-7.55 E612.4904
G1 X7.55 Y5.00 E613.0696
G1 X7.31 Y5.33 E613.0829
G1 X-5.33 Y-7.31 E613.6662
G1 X-5.66 Y-7.07 E613.6795
G1 X7.07 Y5.66 E614.2668
G1 X6.81 Y5.97 E614.2801
G1 X-5.96 Y-6.80 E614.8693
G1 X-6.26 Y-6.53 E614.8825
G1 X6.54 Y6.26 E615.4729
G1 X6.25 Y6.55 E615.4862
G1 X-6.55 Y-6.25 E616.0768
G1 X-6.82 Y-5.95 E616.0901
G1 X5.95 Y6.82 E616.6793
G1 X5.64 Y7.08 E616.6925
G1 X-7.08 Y-5.64 E617.2794
G1 X-7.32 Y-5.32 E617.2924
G1 X5.32 Y7.32 E617.8757
G1 X4.99 Y7.56 E617.8890
G1 X-7.55 Y-4.98 E618.4677
G1 X-7.77 Y-4.63 E618.4812
G1 X4.63 Y7.77 E619.0533
G1 X4.28 Y7.98 E619.0667
G1 X-7.98 Y-4.28 E619.6323
G1 X-8.17 Y-3.89 E619.6464
G1 X3.89 Y8.17 E620.2030
G1 X3.50 Y8.35 E620.2169
G1 X-8.35 Y-3.50 E620.7638
G1 X-8.50 Y-3.09 E620.7780
G1 X3.09 Y8.50 E621.3128
G1 X2.67 Y8.65 E621.3274
G1 X-8.65 Y-2.67 E621.8497
G1 X-8.77 Y-2.22 E621.8649
G1 X2.22 Y8.77 E622.3720
G1 X1.76 Y8.88 E622.3875
G1 X-8.88 Y-1.76 E622.8784
G1 X-8.95 Y-1.27 E622.8945
G1 X1.27 Y8.96 E623.3664
G1 X.76 Y9.02 E623.3831
G1 X-9.02 Y-.76 E623.8343
G1 X-9.05 Y-.22 E623.8520
G1 X.22 Y9.05 E624.2797
G1 X-.35 Y9.04 E624.2984
G1 X-9.04 Y.35 E624.6994
G1 X-9.00 Y.96 E624.7193
G1 X-.96 Y9.00 E625.0903
G1 X-1.63 Y8.90 E625.1124
G1 X-8.90 Y1.63 E625.4478
G1 X-8.73 Y2.37 E625.4726
G1 X-2.37 Y8.73 E625.7661
G1 X-2.65 Y8.66 E625.7755
G1 X-3.20 Y8.46 E625.7946
G1 X-8.46 Y3.20 E626.0373
G1 X-8.38 Y3.44 E626.0456
G1 X-8.01 Y4.23 E626.0740
G1 X-4.23 Y8.01 E626.2484
G1 X-5.08 Y7.50 E626.2808
G1 X-5.75 Y7.00 E626.3080
G1 X-6.47 Y6.33 E626.3401
;layer:0.18
G1 X9.40 Y.00 F4800
G1 Z3.440 F420
;structure:shell-inner
G1 X9.40 Y.00 F4800
G1 X9.35 Y.92 E626.3701 F2880
G1 X9.22 Y1.83 E626.4002
G1 X8.99 Y2.74 E626.4308
G1 X8.69 Y3.59 E626.4602
G1 X8.24 Y4.52 E626.4939
G1 X7.82 Y5.21 E626.5203
G1 X7.21 Y6.02 E626.5533
G1 X6.57 Y6.72 E626.5843
G1 X5.96 Y7.26 E626.6109
G1 X5.22 Y7.82 E626.6411
G1 X4.35 Y8.33 E626.6740
G1 X3.60 Y8.68 E626.7010 F3024
G1 X2.73 Y8.99 E626.7311
G1 X1.74 Y9.23 E626.7643
G1 X.93 Y9.35 E626.7910
G1 X-.10 Y9.39 E626.8247
G1 X-.92 Y9.35 E626.8515
G1 X-1.92 Y9.20 E626.8845
G1 X-2.73 Y8.99 E626.9118
G1 X-3.69 Y8.64 E626.9451
G1 X-4.42 Y8.29 E626.9715
G1 X-5.22 Y7.81 E627.0020
G1 X-6.03 Y7.20 E627.0350 F3168
G1 X-6.72 Y6.57 E627.0655
G1 X-7.26 Y5.98 E627.0916
G1 X-7.82 Y5.22 E627.1225
G1 X-8.33 Y4.34 E627.1557
G1 X-8.69 Y3.59 E627.1828
G1 X-8.99 Y2.74 E627.2122
G1 X-9.22 Y1.83 E627.2428
G1 X-9.35 Y.93 E627.2725
G1 X-9.39 Y-.11 E627.3065
G1 X-9.35 Y-.92 E627.3329
G1 X-9.22 Y-1.83 E627.3629 F3312
G1 X-9.00 Y-2.72 E627.3928
G1 X-8.64 Y-3.69 E627.4266
G1 X-8.30 Y-4.42 E627.4528
G1 X-7.81 Y-5.23 E627.4837
G1 X-7.27 Y-5.96 E627.5133
G1 X-6.58 Y-6.70 E627.5464
G1 X-5.89 Y-7.32 E627.5766
G1 X-5.14 Y-7.86 E627.6067
G1 X-4.34 Y-8.33 E627.6370
G1 X-3.51 Y-8.72 E627.6669
G1 X-2.64 Y-9.02 E627.6969 F3456
G1 X-1.83 Y-9.22 E627.7241
G1 X-.93 Y-9.35 E627.7538
G1 X.10 Y-9.39 E627.7874
G1 X.92 Y-9.35 E627.8143
G1 X1.83 Y-9.22 E627.8443
G1 X2.72 Y-9.00 E627.8742
G1 X3.69 Y-8.64 E627.9080
G1 X4.42 Y-8.29 E627.9344
G1 X4.47 Y-8.27 E627.9361
G1 X5.30 Y-7.76 E627.9680
G1 X5.96 Y-7.27 E627.9948
G1 X6.11 Y-7.13 E628.0015 F2988
G1 X6.72 Y-6.57 E628.0285 F2376
G1 X7.26 Y-5.97 E628.0548
G1 X7.48 Y-5.68 E628.0667
G1 X7.82 Y-5.22 E628.0854 F1764
G1 X8.29 Y-4.43 E628.1153
G1 X8.50 Y-3.97 E628.1319
G1 X8.72 Y-3.50 E628.1488 F1152
G1 X9.01 Y-2.65 E628.1781
G1 X9.16 Y-2.08 E628.1974
G1 X9.22 Y-1.83 E628.2057 F540
G1 X9.36 Y-.82 E628.2390
G1 X9.39 Y-.10 E628.2625
;structure:shell-outer
G1 X9.80 Y.00 E628.2625 F300
G1 X9.75 Y.96 E628.2938 F1800
G1 X9.61 Y1.91 E628.3252
G1 X9.38 Y2.85 E628.3567
G1 X9.06 Y3.75 E628.3879
G1 X8.59 Y4.71 E628.4228
G1 X8.15 Y5.44 E628.4506
G1 X7.51 Y6.29 E628.4853
G1 X6.85 Y7.00 E628.5169
G1 X6.22 Y7.57 E628.5446
G1 X5.44 Y8.15 E628.5763
G1 X4.54 Y8.68 E628.6104
G1 X3.75 Y9.06 E628.6390
G1 X2.85 Y9.38 E628.6702
G1 X1.82 Y9.63 E628.7048
G1 X.96 Y9.75 E628.7331
G1 X-.10 Y9.80 E628.7677
G1 X-.96 Y9.75 E628.7959
G1 X-2.01 Y9.59 E628.8305
G1 X-2.84 Y9.38 E628.8584
G1 X-3.84 Y9.01 E628.8932
G1 X-4.61 Y8.65 E628.9210
G1 X-5.44 Y8.15 E628.9526
G1 X-6.29 Y7.51 E628.9873
G1 X-7.00 Y6.85 E629.0189
G1 X-7.57 Y6.22 E629.0467
G1 X-8.15 Y5.44 E629.0783
G1 X-8.68 Y4.54 E629.1124
G1 X-9.06 Y3.75 E629.1410
G1 X-9.38 Y2.85 E629.1722
G1 X-9.61 Y1.91 E629.2038
G1 X-9.75 Y.96 E629.2351
G1 X-9.79 Y-.10 E629.2697
G1 X-9.75 Y-.96 E629.2978
G1 X-9.61 Y-1.91 E629.3291
G1 X-9.38 Y-2.84 E629.3603
G1 X-9.01 Y-3.84 E629.3952
G1 X-8.65 Y-4.61 E629.4229
G1 X-8.15 Y-5.45 E629.4548
G1 X-7.57 Y-6.22 E629.4862
G1 X-6.87 Y-6.99 E629.5202
G1 X-6.14 Y-7.63 E629.5518
G1 X-5.36 Y-8.20 E629.5833
G1 X-4.53 Y-8.68 E629.6146
G1 X-3.65 Y-9.09 E629.6463
G1 X-2.75 Y-9.40 E629.6774
G1 X-1.91 Y-9.61 E629.7057
G1 X-.96 Y-9.75 E629.7370
G1 X.10 Y-9.79 E629.7716
G1 X.96 Y-9.75 E629.7996
G1 X1.91 Y-9.61 E629.8310
G1 X2.84 Y-9.38 E629.8622
G1 X3.84 Y-9.01 E629.8970
G1 X4.61 Y-8.65 E629.9248
G1 X5.53 Y-8.09 E629.9599
G1 X6.22 Y-7.58 E629.9879
G1 X7.00 Y-6.85 E630.0228
G1 X7.57 Y-6.22 E630.0505
G1 X8.15 Y-5.45 E630.0819
G1 X8.64 Y-4.62 E630.1134
G1 X9.09 Y-3.65 E630.1483
G1 X9.40 Y-2.75 E630.1793
G1 X9.61 Y-1.91 E630.2076
G1 X9.76 Y-.87 E630.2419
G1 X9.80 Y-.10 E630.2671
G1 X9.40 Y-.10 E630.2714 F300
G1 X6.25 Y6.55 F4800
;structure:infill-solid
G1 X6.25 Y6.55
G1 X6.95 Y5.80 E630.3049 F1800
G1 X7.54 Y5.02 E630.3368
G1 X7.94 Y4.36 E630.3620
G1 X8.00 Y4.23 E630.3667
G1 X4.22 Y8.01 E630.5412
G1 X3.46 Y8.37 E630.5686
G1 X3.19 Y8.47 E630.5780
G1 X8.47 Y3.19 E630.8216
G1 X8.67 Y2.64 E630.8407
G1 X8.73 Y2.36 E630.8500
G1 X2.36 Y8.73 E631.1439
G1 X1.62 Y8.91 E631.1688
G1 X8.90 Y1.62 E631.5050
G1 X9.00 Y.95 E631.5271
G1 X.96 Y8.99 E631.8981
G1 X.35 Y9.03 E631.9181
G1 X9.04 Y.34 E632.3190
G1 X9.05 Y-.23 E632.3377
G1 X-.23 Y9.05 E632.7658
G1 X-.77 Y9.02 E632.7835
G1 X9.02 Y-.77 E633.2352
G1 X8.95 Y-1.27 E633.2517
G1 X-1.27 Y8.95 E633.7233
G1 X-1.76 Y8.87 E633.7395
G1 X8.88 Y-1.77 E634.2304
G1 X8.77 Y-2.22 E634.2455
G1 X-2.22 Y8.77 E634.7526
G1 X-2.67 Y8.65 E634.7678
G1 X8.64 Y-2.67 E635.2899
G1 X8.50 Y-3.09 E635.3044
G1 X-3.09 Y8.50 E635.8392
G1 X-3.51 Y8.34 E635.8539
G1 X8.34 Y-3.50 E636.4005
G1 X8.16 Y-3.89 E636.4145
G1 X-3.90 Y8.16 E636.9707
G1 X-4.28 Y7.98 E636.9845
G1 X7.98 Y-4.28 E637.5501
G1 X7.77 Y-4.64 E637.5637
G1 X-4.64 Y7.77 E638.1364
G1 X-4.99 Y7.55 E638.1499
G1 X7.55 Y-4.99 E638.7285
G1 X7.32 Y-5.32 E638.7417
G1 X-5.32 Y7.31 E639.3247
G1 X-5.64 Y7.07 E639.3377
G1 X7.07 Y-5.65 E639.9244
G1 X6.81 Y-5.96 E639.9376
G1 X-5.95 Y6.81 E640.5266
G1 X-6.25 Y6.54 E640.5398
G1 X6.54 Y-6.26 E641.1302
G1 X6.25 Y-6.53 E641.1431
G1 X-6.54 Y6.26 E641.7333
G1 X-6.81 Y5.96 E641.7465
G1 X5.96 Y-6.81 E642.3357
G1 X5.65 Y-7.07 E642.3489
G1 X-7.07 Y5.65 E642.9358
G1 X-7.31 Y5.33 E642.9489
G1 X5.33 Y-7.31 E643.5321
G1 X4.99 Y-7.54 E643.5455
G1 X-7.55 Y5.00 E644.1242
G1 X-7.76 Y4.64 E644.1378
G1 X4.64 Y-7.76 E644.7100
G1 X4.29 Y-7.98 E644.7235
G1 X-7.97 Y4.28 E645.2891
G1 X-8.16 Y3.90 E645.3030
G1 X3.90 Y-8.16 E645.8595
G1 X3.51 Y-8.34 E645.8735
G1 X-8.34 Y3.52 E646.4205
G1 X-8.50 Y3.10 E646.4352
G1 X3.10 Y-8.49 E646.9702
G1 X2.68 Y-8.65 E646.9849
G1 X-8.65 Y2.68 E647.5077
G1 X-8.77 Y2.23 E647.5229
G1 X2.23 Y-8.77 E648.0305
G1 X1.78 Y-8.88 E648.0456
G1 X-8.88 Y1.78 E648.5374
G1 X-8.95 Y1.28 E648.5540
G1 X1.28 Y-8.95 E649.0260
G1 X.78 Y-9.02 E649.0425
G1 X-9.02 Y.78 E649.4947
G1 X-9.04 Y.23 E649.5127
G1 X.24 Y-9.04 E649.9406
G1 X-.34 Y-9.03 E649.9596
G1 X-9.04 Y-.34 E650.3608
G1 X-9.00 Y-.94 E650.3804
G1 X-.94 Y-9.01 E650.7525
G1 X-1.61 Y-8.90 E650.7746
G1 X-8.90 Y-1.61 E651.1110
G1 X-8.88 Y-1.76 E651.1160
G1 X-8.74 Y-2.34 E651.1354
G1 X-2.35 Y-8.74 E651.4304
G1 X-2.55 Y-8.69 E651.4372
G1 X-3.18 Y-8.47 E651.4589
G1 X-8.46 Y-3.19 E651.7026
G1 X-8.33 Y-3.55 E651.7151
G1 X-8.02 Y-4.20 E651.7386
G1 X-4.20 Y-8.02 E651.9148
G1 X-4.96 Y-7.57 E651.9436
G1 X-5.67 Y-7.06 E651.9721
G1 X-6.21 Y-6.58 E651.9957
G1 X-6.53 Y-6.26 E652.0105
G1 X3 Y-5.2 Z103.4 F2400
G4 P500
G1 X0 Y-8.2 Z6.4 F2400
G1 X0 Y-8.2 Z3.4 E657.04 F30
G1 X0 Y-8.2 Z3.58 E657.24
G1 X0 Y-8.2 Z3.76 E657.44
G1 X0 Y-8.2 Z3.94 E657.64
G1 X0 Y-8.2 Z4.12 E657.84
G1 X0 Y-8.2 Z4.3 E658.04
G1 X0 Y-8.2 Z4.47 E658.24
G1 X0 Y-8.2 Z4.65 E658.44
G1 X0 Y-8.2 Z4.83 E658.64
G1 X0 Y-8.2 Z5.01 E658.84
G1 X0 Y-8.2 Z5.19 E659.04
G1 X0 Y-8.2 Z5.37 E659.24
G1 X0 Y-8.2 Z5.55 E659.44
G1 X0 Y-8.2 Z5.73 E659.64
G1 X0 Y-8.2 Z5.91 E659.84
G1 X0 Y-8.2 Z6.09 E660.04
G1 X0 Y-8.2 Z6.27 E660.24
G1 X0 Y-8.2 Z6.44 E660.44
G1 X0 Y-8.2 Z6.62 E660.64
G1 X0 Y-8.2 Z6.8 E660.84
G1 X0 Y-8.2 Z6.98 E661.04
G1 X0 Y-8.2 Z7.16 E661.24
G1 X0 Y-8.2 Z7.34 E661.44
G1 X0 Y-8.2 Z7.52 E661.64
G1 X0 Y-8.2 Z7.7 E661.84
G1 X0 Y-8.2 Z7.88 E662.04
G1 X0 Y-8.2 Z8.06 E662.24
G1 X0 Y-8.2 Z8.24 E662.44
G1 X0 Y-8.2 Z8.41 E662.64
G1 X0 Y-8.2 Z8.59 E662.84
G1 X0 Y-8.2 Z8.77 E663.04
G1 X0 Y-8.2 Z8.95 E663.24
G1 X0 Y-8.2 Z9.13 E663.44
G1 X0 Y-8.2 Z9.31 E663.64
G1 X0 Y-8.2 Z9.49 E663.84
G1 X0 Y-8.2 Z9.67 E664.04
G1 X0 Y-8.2 Z9.85 E664.24
G1 X0 Y-8.2 Z10.03 E664.44
G1 X0 Y-8.2 Z10.2 E664.64
G1 X0 Y-8.2 Z10.38 E664.84
G1 X0 Y-8.2 Z10.56 E665.04
G1 X0 Y-8.2 Z10.74 E665.24
G1 X0 Y-8.2 Z10.92 E665.44
G1 X0 Y-8.2 Z11.1 E665.64
G1 X0 Y-8.2 Z11.28 E665.84
G1 X0 Y-8.2 Z11.46 E666.04
G1 X0 Y-8.2 Z11.64 E666.24
G1 X0 Y-8.2 Z11.82 E666.44
G1 X0 Y-8.2 Z12.0 E666.64
