;machine_type: Adventurer 3 Series
;right_extruder_material: PLA
;right_extruder_material_density: 1.24
;filament_diameter0: 1.75
;right_extruder_temperature: 210
;layer_height: 0.18
;perimeter_shells: 2
;top_solid_layers: 4
;bottom_solid_layers: 3
;fill_density: 15%
;fill_pattern: hexagon
;base_print_speed: 60
;travel_speed: 80
;platform_temperature: 65
;right_extruder_temperature_raft0: 215
;right_extruder_temperature_reset: 
;left_extruder_temperature_reset: 
;start gcode
M118 X15.66 Y15.00 Z23.55 T0
M140 S65 T0
M104 S215 T0
M104 S0 T1
M107
G90
G28
M132 X Y Z A B
G1 Z50.000 F420
G161 X Y F3300
M7 T0
M6 T0
M651 S255
;layer_count: 126
M108 T0
G1 X15.00 Y-15.00 F4800
;preExtrude:0.20
M106
G1 Z.200 F420
;structure:pre-extrude
G1 X15.00 Y-15.00 F4800
G1 X15.00 Y15.00 E4.3504 F1200
G1 X-15.00 Y15.00 E8.7009
G1 X-15.00 Y-15.00 E13.0513
G1 X15.00 Y-15.00 E17.4017
G1 X0 Y0 E18
;start main print
G1 X0 Y0 Z0 E18 F30
G1 X0 Y0 Z0.25 E18.25
G1 X0 Y0 Z0.5 E18.5
G1 X0 Y0 Z0.75 E18.75
G1 X0 Y0 Z1.0 E19.0
G1 X0 Y0 Z1.25 E19.25
G1 X0 Y0 Z1.5 E19.5
G1 X0 Y0 Z1.75 E19.75
G1 X0 Y0 Z2.0 E20.0
G1 X0 Y0 Z2.25 E20.25
G1 X0 Y0 Z2.5 E20.5
G1 X0 Y0 Z2.75 E20.75
G1 X0 Y0 Z3.0 E21.0
G1 X0 Y0 Z3.25 E21.25
G1 X0 Y0 Z3.5 E21.5
G1 X0 Y0 Z3.75 E21.75
G1 X0 Y0 Z4.0 E22.0
G1 X0 Y0 Z4.25 E22.25
G1 X0 Y0 Z4.5 E22.5
G1 X0 Y0 Z4.75 E22.75
G1 X0 Y0 Z5.0 E23.0
G1 X0 Y0 Z5.25 E23.25
G1 X0 Y0 Z5.5 E23.5
G1 X0 Y0 Z5.75 E23.75
G1 X0 Y0 Z6.0 E24.0
G1 X0 Y0 Z6.25 E24.25
G1 X0 Y0 Z6.5 E24.5
G1 X0 Y0 Z6.75 E24.75
G1 X0 Y0 Z7.0 E25.0
G1 X0 Y0 Z7.25 E25.25
G1 X0 Y0 Z7.5 E25.5
G1 X0 Y0 Z7.75 E25.75
G1 X0 Y0 Z8.0 E26.0
G1 X0 Y0 Z8.25 E26.25
G1 X0 Y0 Z8.5 E26.5
G1 X0 Y0 Z8.75 E26.75
G1 X0 Y0 Z9.0 E27.0
G1 X0 Y0 Z9.25 E27.25
G1 X0 Y0 Z9.5 E27.5
G1 X0 Y0 Z9.75 E27.75
G1 X0 Y0 Z10.0 E28.0
G1 X0 Y0 Z10.25 E28.25
G1 X0 Y0 Z10.5 E28.5
G1 X0 Y0 Z10.75 E28.75
G1 X0 Y0 Z11.0 E29.0
G1 X0 Y0 Z11.25 E29.25
G1 X0 Y0 Z11.5 E29.5
G1 X0 Y0 Z11.75 E29.75
G1 X0 Y0 Z12.0 E30.0
G1 X0 Y0 Z12.25 E30.25
G1 X0 Y0 Z12.5 E30.5
G1 X0 Y0 Z12.75 E30.75
G1 X0 Y0 Z13.0 E31.0
G1 X0 Y0 Z13.25 E31.25
G1 X0 Y0 Z13.5 E31.5
G1 X0 Y0 Z13.75 E31.75
G1 X0 Y0 Z14.0 E32.0
G1 X0 Y0 Z14.25 E32.25
G1 X0 Y0 Z14.5 E32.5
G1 X0 Y0 Z14.75 E32.75
G1 X0 Y0 Z15.0 E33.0
G1 X0 Y0 Z15.25 E33.25
G1 X0 Y0 Z15.5 E33.5
G1 X0 Y0 Z15.75 E33.75
G1 X0 Y0 Z16.0 E34.0
G1 X0 Y0 Z16.25 E34.25
G1 X0 Y0 Z16.5 E34.5
G1 X0 Y0 Z16.75 E34.75
G1 X0 Y0 Z17.0 E35.0
G1 X0 Y0 Z17.25 E35.25
G1 X0 Y0 Z17.5 E35.5
G1 X0 Y0 Z17.75 E35.75
G1 X0 Y0 Z18.0 E36.0
G1 X0 Y0 Z18.25 E36.25
G1 X0 Y0 Z18.5 E36.5
G1 X0 Y0 Z18.75 E36.75
G1 X0 Y0 Z19.0 E37.0
G1 X0 Y0 Z19.25 E37.25
G1 X0 Y0 Z19.5 E37.5
G1 X0 Y0 Z19.75 E37.75
G1 X0 Y0 Z20.0 E38.0
G1 X0 Y0 Z20.25 E38.25
G1 X0 Y0 Z20.5 E38.5
G1 X0 Y0 Z20.75 E38.75
G1 X0 Y0 Z21.0 E39.0
G1 X0 Y0 Z21.25 E39.25
G1 X0 Y0 Z21.5 E39.5
G1 X0 Y0 Z21.75 E39.75
G1 X0 Y0 Z22.0 E40.0
G1 X0 Y0 Z22.25 E40.25
G1 X0 Y0 Z22.5 E40.5
G1 X0 Y0 Z22.75 E40.75
G1 X0 Y0 Z23.0 E41.0
G1 X0 Y0 Z23.25 E41.25
G1 X0 Y0 Z23.5 E41.5
G1 X0 Y0 Z23.75 E41.75
G1 X0 Y0 Z24.0 E42.0
G1 X0 Y0 Z24.25 E42.25
G1 X0 Y0 Z24.5 E42.5
G1 X0 Y0 Z24.75 E42.75
G1 X0 Y0 Z25.0 E43.0
G1 X0 Y0 Z25.25 E43.25
G1 X0 Y0 Z25.5 E43.5
G1 X0 Y0 Z25.75 E43.75
G1 X0 Y0 Z26.0 E44.0
G1 X0 Y0 Z26.25 E44.25
G1 X0 Y0 Z26.5 E44.5
G1 X0 Y0 Z26.75 E44.75
G1 X0 Y0 Z27.0 E45.0
G1 X0 Y0 Z27.25 E45.25
G1 X0 Y0 Z27.5 E45.5
G1 X0 Y0 Z27.75 E45.75
G1 X0 Y0 Z28.0 E46.0
G1 X0 Y0 Z28.25 E46.25
G1 X0 Y0 Z28.5 E46.5
G1 X0 Y0 Z28.75 E46.75
G1 X0 Y0 Z29.0 E47.0
G1 X0 Y0 Z29.25 E47.25
G1 X0 Y0 Z29.5 E47.5
G1 X0 Y0 Z29.75 E47.75
G1 X0 Y0 Z30.0 E48.0
G1 X0 Y0 Z30.25 E48.25
G1 X0 Y0 Z30.5 E48.5
G1 X0 Y0 Z30.75 E48.75
G1 X0 Y0 Z31.0 E49.0
G1 X0 Y0 Z31.25 E49.25
G1 X0 Y0 Z31.5 E49.5
G1 X0 Y0 Z31.75 E49.75
G1 X0 Y0 Z32.0 E50.0
G1 X0 Y0 Z32.25 E50.25
G1 X0 Y0 Z32.5 E50.5
G1 X0 Y0 Z32.75 E50.75
G1 X0 Y0 Z33.0 E51.0
G1 X0 Y0 Z33.25 E51.25
G1 X0 Y0 Z33.5 E51.5
G1 X0 Y0 Z33.75 E51.75
G1 X0 Y0 Z34.0 E52.0
G1 X0 Y0 Z34.25 E52.25
G1 X0 Y0 Z34.5 E52.5
G1 X0 Y0 Z34.75 E52.75
G1 X0 Y0 Z35.0 E53.0
G1 X0 Y0 Z35.25 E53.25
G1 X0 Y0 Z35.5 E53.5
G1 X0 Y0 Z35.75 E53.75
G1 X0 Y0 Z36.0 E54.0
G1 X0 Y0 Z36.25 E54.25
G1 X0 Y0 Z36.5 E54.5
G1 X0 Y0 Z36.75 E54.75
G1 X0 Y0 Z37.0 E55.0
G1 X0 Y0 Z37.25 E55.25
G1 X0 Y0 Z37.5 E55.5
G1 X0 Y0 Z37.75 E55.75
G1 X0 Y0 Z38.0 E56.0
G1 X0 Y0 Z38.25 E56.25
G1 X0 Y0 Z38.5 E56.5
G1 X0 Y0 Z38.75 E56.75
G1 X0 Y0 Z39.0 E57.0
G1 X0 Y0 Z39.25 E57.25
G1 X0 Y0 Z39.5 E57.5
G1 X0 Y0 Z39.75 E57.75
G1 X0 Y0 Z40.0 E58.0
G1 X0 Y0 Z40.25 E58.25
G1 X0 Y0 Z40.5 E58.5
G1 X0 Y0 Z40.75 E58.75
G1 X0 Y0 Z41.0 E59.0
G1 X0 Y0 Z41.25 E59.25
G1 X0 Y0 Z41.5 E59.5
G1 X0 Y0 Z41.75 E59.75
G1 X0 Y0 Z42.0 E60.0
G1 X0 Y0 Z42.25 E60.25
G1 X0 Y0 Z42.5 E60.5
G1 X0 Y0 Z42.75 E60.75
G1 X0 Y0 Z43.0 E61.0
G1 X0 Y0 Z43.25 E61.25
G1 X0 Y0 Z43.5 E61.5
G1 X0 Y0 Z43.75 E61.75
G1 X0 Y0 Z44.0 E62.0
G1 X0 Y0 Z44.25 E62.25
G1 X0 Y0 Z44.5 E62.5
G1 X0 Y0 Z44.75 E62.75
G1 X0 Y0 Z45.0 E63.0
G1 X0 Y0 Z45.25 E63.25
G1 X0 Y0 Z45.5 E63.5
G1 X0 Y0 Z45.75 E63.75
G1 X0 Y0 Z46.0 E64.0
G1 X0 Y0 Z46.25 E64.25
G1 X0 Y0 Z46.5 E64.5
G1 X0 Y0 Z46.75 E64.75
G1 X0 Y0 Z47.0 E65.0
G1 X0 Y0 Z47.25 E65.25
G1 X0 Y0 Z47.5 E65.5
G1 X0 Y0 Z47.75 E65.75
G1 X0 Y0 Z48.0 E66.0
G1 X0 Y0 Z48.25 E66.25
G1 X0 Y0 Z48.5 E66.5
G1 X0 Y0 Z48.75 E66.75
G1 X0 Y0 Z49.0 E67.0
G1 X0 Y0 Z49.25 E67.25
G1 X0 Y0 Z49.5 E67.5
G1 X0 Y0 Z49.75 E67.75
;end gcode
M104 S0 T0
M140 S0 T0
G162 Z F1800
G28 X Y
M132 X Y A B
M652
G91
M18
