;machine_type: Adventurer 3 Series
;right_extruder_material: PLA
;right_extruder_material_density: 1.24
;filament_diameter0: 1.75
;right_extruder_temperature: 210
;layer_height: 0.18
;perimeter_shells: 2
;top_solid_layers: 4
;bottom_solid_layers: 3
;fill_density: 15%
;fill_pattern: hexagon
;base_print_speed: 60
;travel_speed: 80
;platform_temperature: 65
;right_extruder_temperature_raft0: 215
;right_extruder_temperature_reset: 
;left_extruder_temperature_reset: 
;start gcode
M118 X15.66 Y15.00 Z23.55 T0
M140 S65 T0
M104 S215 T0
M104 S0 T1
M107
G90
G28
M132 X Y Z A B
G1 Z50.000 F420
G161 X Y F3300
M7 T0
M6 T0
M651 S255
;layer_count: 126
M108 T0
G1 X15.00 Y-15.00 F4800
;preExtrude:0.20
M106
G1 Z.200 F420
;structure:pre-extrude
G1 X15.00 Y-15.00 F4800
G1 X15.00 Y15.00 E4.3504 F1200
G1 X-15.00 Y15.00 E8.7009
G1 X-15.00 Y-15.00 E13.0513
G1 X15.00 Y-15.00 E17.4017
G1 X0 Y0 E17.50
;start main print
G1 X1.5 Y0.0 Z0 E17.5 F100
G1 X1.66 Y0.54 E17.58
G1 X1.62 Y1.18 E17.66
G1 X1.32 Y1.82 E17.74
G1 X0.77 Y2.38 E17.82
G1 X0.0 Y2.75 E17.9
G1 X-0.93 Y2.85 E17.98
G1 X-1.91 Y2.63 E18.06
G1 X-2.83 Y2.06 E18.14
G1 X-3.57 Y1.16 E18.22
G1 X-4.0 Y0.0 E18.3
G1 X-4.04 Y-1.31 E18.38
G1 X-3.64 Y-2.65 E18.46
G1 X-2.79 Y-3.84 E18.54
G1 X-1.55 Y-4.76 E18.62
G1 X-0.0 Y-5.25 E18.7
G1 X1.7 Y-5.23 E18.78
G1 X3.38 Y-4.65 E18.86
G1 X4.85 Y-3.53 E18.94
G1 X5.94 Y-1.93 E19.02
G1 X6.5 Y-0.0 E19.1
G1 X6.42 Y2.09 Z0.31 E19.18
G1 X5.66 Y4.11 Z0.63 E19.26
G1 X4.26 Y5.87 Z0.94 E19.34
G1 X2.32 Y7.13 Z1.26 E19.42
G1 X0.0 Y7.75 Z1.57 E19.5
G1 X-2.47 Y7.61 Z1.88 E19.58
G1 X-4.85 Y6.67 Z2.2 E19.66
G1 X-6.88 Y5.0 Z2.51 E19.74
G1 X-8.32 Y2.7 Z2.83 E19.82
G1 X-9.0 Y0.0 Z3.14 E19.9
G1 X-8.8 Y-2.86 Z3.46 E19.98
G1 X-7.69 Y-5.58 Z3.77 E20.06
G1 X-5.73 Y-7.89 Z4.08 E20.14
G1 X-3.09 Y-9.51 Z4.4 E20.22
G1 X-0.0 Y-10.25 Z4.71 E20.3
G1 X3.24 Y-9.99 Z5.03 E20.38
G1 X6.32 Y-8.7 Z5.34 E20.46
G1 X8.9 Y-6.47 Z5.65 E20.54
G1 X10.7 Y-3.48 Z5.97 E20.62
G1 X11.5 Y-0.0 Z6.28 E20.7
G1 X11.17 Y3.63 Z6.6 E20.78
G1 X9.71 Y7.05 Z6.91 E20.86
G1 X7.2 Y9.91 Z7.23 E20.94
G1 X3.86 Y11.89 Z7.54 E21.02
G1 X0.0 Y12.75 Z7.85 E21.1
G1 X-4.02 Y12.36 Z8.17 E21.18
G1 X-7.79 Y10.72 Z8.48 E21.26
G1 X-10.92 Y7.94 Z8.8 E21.34
G1 X-13.08 Y4.25 Z9.11 E21.42
G1 X-14.0 Y0.0 Z9.42 E21.5
G1 X-13.55 Y-4.4 Z9.74 E21.58
G1 X-11.73 Y-8.52 Z10.05 E21.66
G1 X-8.67 Y-11.93 Z10.37 E21.74
G1 X-4.64 Y-14.27 Z10.68 E21.82
G1 X0.0 Y-15.25 Z11.0 E21.9
G1 X4.79 Y-14.74 Z11.31 E21.98
G1 X9.26 Y-12.74 Z11.62 E22.06
G1 X12.94 Y-9.4 Z11.94 E22.14
G1 X15.45 Y-5.02 Z12.25 E22.22
G1 X16.5 Y0.0 Z12.57 E22.3
G1 X15.93 Y5.18 Z12.88 E22.38
G1 X13.75 Y9.99 Z13.19 E22.46
G1 X10.14 Y13.96 Z13.51 E22.54
G1 X5.41 Y16.64 Z13.82 E22.62
G1 X-0.0 Y17.75 Z14.14 E22.7
G1 X-5.56 Y17.12 Z14.45 E22.78
G1 X-10.73 Y14.76 Z14.77 E22.86
G1 X-14.97 Y10.87 Z15.08 E22.94
G1 X-17.83 Y5.79 Z15.39 E23.02
G1 X-19.0 Y-0.0 Z15.71 E23.1
G1 X-18.31 Y-5.95 Z16.02 E23.18
G1 X-15.78 Y-11.46 Z16.34 E23.26
G1 X-11.61 Y-15.98 Z16.65 E23.34
G1 X-6.18 Y-19.02 Z16.96 E23.42
G1 X0.0 Y-20.25 Z17.28 E23.5
G1 X6.33 Y-19.5 Z17.59 E23.58
G1 X12.2 Y-16.79 Z17.91 E23.66
G1 X16.99 Y-12.34 Z18.22 E23.74
G1 X20.21 Y-6.57 Z18.54 E23.82
G1 X21.5 Y0.0 Z18.85 E23.9
G1 X20.69 Y6.72 Z19.16 E23.98
G1 X17.8 Y12.93 Z19.48 E24.06
G1 X13.08 Y18.0 Z19.79 E24.14
G1 X6.95 Y21.4 Z20.11 E24.22
G1 X-0.0 Y22.75 Z20.42 E24.3
G1 X-7.11 Y21.87 Z20.73 E24.38
G1 X-13.67 Y18.81 Z21.05 E24.46
G1 X-19.01 Y13.81 Z21.36 E24.54
G1 X-22.59 Y7.34 Z21.68 E24.62
G1 X-24.0 Y-0.0 Z21.99 E24.7
G1 X-23.06 Y-7.49 Z22.31 E24.78
G1 X-19.82 Y-14.4 Z22.62 E24.86
G1 X-14.55 Y-20.02 Z22.93 E24.94
G1 X-7.73 Y-23.78 Z23.25 E25.02
G1 X0.0 Y-25.25 Z23.56 E25.1
G1 X7.88 Y-24.25 Z23.88 E25.18
G1 X15.14 Y-20.83 Z24.19 E25.26
G1 X21.03 Y-15.28 Z24.5 E25.34
G1 X24.97 Y-8.11 Z24.82 E25.42
G1 X26.0 Y0.0 Z25.13 E25.5
G1 X24.49 Y7.96 Z25.45 E25.58
G1 X20.63 Y14.99 Z25.76 E25.66
G1 X14.84 Y20.43 Z26.08 E25.74
G1 X7.73 Y23.78 Z26.39 E25.82
G1 X-0.0 Y24.75 Z26.7 E25.9
G1 X-7.57 Y23.3 Z27.02 E25.98
G1 X-14.25 Y19.62 Z27.33 E26.06
G1 X-19.42 Y14.11 Z27.65 E26.14
G1 X-22.59 Y7.34 Z27.96 E26.22
G1 X-23.5 Y-0.0 Z28.27 E26.3
G1 X-22.11 Y-7.18 Z28.59 E26.38
G1 X-18.61 Y-13.52 Z28.9 E26.46
G1 X-13.37 Y-18.41 Z29.22 E26.54
G1 X-6.95 Y-21.4 Z29.53 E26.62
G1 X0.0 Y-22.25 Z29.85 E26.7
G1 X6.8 Y-20.92 Z30.16 E26.78
G1 X12.78 Y-17.6 Z30.47 E26.86
G1 X17.39 Y-12.64 Z30.79 E26.94
G1 X20.21 Y-6.57 Z31.1 E27.02
G1 X21.0 Y0.0 Z31.42 E27.1
G1 X19.73 Y6.41 Z31.73 E27.18
G1 X16.58 Y12.05 Z32.04 E27.26
G1 X11.9 Y16.38 Z32.36 E27.34
G1 X6.18 Y19.02 Z32.67 E27.42
G1 X-0.0 Y19.75 Z32.99 E27.5
G1 X-6.03 Y18.55 Z33.3 E27.58
G1 X-11.31 Y15.57 Z33.62 E27.66
G1 X-15.37 Y11.17 Z33.93 E27.74
G1 X-17.83 Y5.79 Z34.24 E27.82
G1 X-18.5 Y-0.0 Z34.56 E27.9
G1 X-17.36 Y-5.64 Z34.87 E27.98
G1 X-14.56 Y-10.58 Z35.19 E28.06
G1 X-10.43 Y-14.36 Z35.5 E28.14
G1 X-5.41 Y-16.64 Z35.81 E28.22
G1 X0.0 Y-17.25 Z36.13 E28.3
G1 X5.25 Y-16.17 Z36.44 E28.38
G1 X9.85 Y-13.55 Z36.76 E28.46
G1 X13.35 Y-9.7 Z37.07 E28.54
G1 X15.45 Y-5.02 Z37.38 E28.62
G1 X16.0 Y0.0 Z37.7 E28.7
G1 X14.98 Y4.87 Z38.01 E28.78
G1 X12.54 Y9.11 Z38.33 E28.86
G1 X8.96 Y12.34 Z38.64 E28.94
G1 X4.64 Y14.27 Z38.96 E29.02
G1 X-0.0 Y14.75 Z39.27 E29.1
G1 X-4.48 Y13.79 Z39.58 E29.18
G1 X-8.38 Y11.53 Z39.9 E29.26
G1 X-11.33 Y8.23 Z40.21 E29.34
G1 X-13.08 Y4.25 Z40.53 E29.42
G1 X-13.5 Y-0.0 Z40.84 E29.5
G1 X-12.6 Y-4.09 Z41.15 E29.58
G1 X-10.52 Y-7.64 Z41.47 E29.66
G1 X-7.49 Y-10.31 Z41.78 E29.74
G1 X-3.86 Y-11.89 Z42.1 E29.82
G1 X0.0 Y-12.25 Z42.41 E29.9
G1 X3.71 Y-11.41 Z42.73 E29.98
G1 X6.91 Y-9.51 Z43.04 E30.06
G1 X9.3 Y-6.76 Z43.35 E30.14
G1 X10.7 Y-3.48 Z43.67 E30.22
G1 X11.0 Y0.0 Z43.98 E30.3
G1 X10.22 Y3.32 Z44.3 E30.38
G1 X8.49 Y6.17 Z44.61 E30.46
G1 X6.02 Y8.29 Z44.92 E30.54
G1 X3.09 Y9.51 Z45.24 E30.62
G1 X-0.0 Y9.75 Z45.55 E30.7
G1 X-2.94 Y9.04 Z45.87 E30.78
G1 X-5.44 Y7.48 Z46.18 E30.86
G1 X-7.28 Y5.29 Z46.5 E30.94
G1 X-8.32 Y2.7 Z46.81 E31.02
G1 X-8.5 Y-0.0 Z47.12 E31.1
G1 X-7.85 Y-2.55 Z47.44 E31.18
G1 X-6.47 Y-4.7 Z47.75 E31.26
G1 X-4.56 Y-6.27 Z48.07 E31.34
G1 X-2.32 Y-7.13 Z48.38 E31.42
G1 X0.0 Y-7.25 Z48.69 E31.5
G1 X2.16 Y-6.66 Z49.01 E31.58
G1 X3.97 Y-5.46 Z49.32 E31.66
G1 X5.26 Y-3.82 Z49.64 E31.74
G1 X5.94 Y-1.93 Z49.95 E31.82
G1 X6.0 Y0.0 Z50.27 E31.9
G1 X5.47 Y1.78 Z50.58 E31.98
G1 X4.45 Y3.23 Z50.89 E32.06
G1 X3.09 Y4.25 Z51.21 E32.14
G1 X1.55 Y4.76 Z51.52 E32.22
G1 X-0.0 Y4.75 Z51.84 E32.3
G1 X-1.39 Y4.28 Z52.15 E32.38
G1 X-2.5 Y3.44 Z52.46 E32.46
G1 X-3.24 Y2.35 Z52.78 E32.54
G1 X-3.57 Y1.16 Z53.09 E32.62
G1 X-3.5 Y-0.0 Z53.41 E32.7
G1 X-3.09 Y-1.0 Z53.72 E32.78
G1 X-2.43 Y-1.76 Z54.04 E32.86
G1 X-1.62 Y-2.22 Z54.35 E32.94
G1 X-0.77 Y-2.38 Z54.66 E33.02
G1 X0.0 Y-2.25 Z54.98 E33.1
G1 X0.62 Y-1.9 Z55.29 E33.18
G1 X1.03 Y-1.42 Z55.61 E33.26
G1 X1.21 Y-0.88 Z55.92 E33.34
G1 X1.19 Y-0.39 Z56.23 E33.42
;end gcode
M104 S0 T0
M140 S0 T0
G162 Z F1800
G28 X Y
M132 X Y A B
M652
G91
M18
