;machine_type: Adventurer 3 Series
;right_extruder_material: PLA
;right_extruder_material_density: 1.24
;filament_diameter0: 1.75
;right_extruder_temperature: 210
;layer_height: 0.18
;perimeter_shells: 2
;top_solid_layers: 4
;bottom_solid_layers: 3
;fill_density: 15%
;fill_pattern: hexagon
;base_print_speed: 60
;travel_speed: 80
;platform_temperature: 65
;right_extruder_temperature_raft0: 215
;right_extruder_temperature_reset: 
;left_extruder_temperature_reset: 
;start gcode
M118 X15.66 Y15.00 Z23.55 T0
M140 S65 T0
M104 S215 T0
M104 S0 T1
M107
G90
G28
M132 X Y Z A B
G1 Z50.000 F420
G161 X Y F3300
M7 T0
M6 T0
M651 S255
;layer_count: 126
M108 T0
G1 X15.00 Y-15.00 F4800
;preExtrude:0.20
M106
G1 Z.200 F420
;structure:pre-extrude
G1 X15.00 Y-15.00 F4800
G1 X15.00 Y15.00 E4.3504 F1200
G1 X-15.00 Y15.00 E8.7009
G1 X-15.00 Y-15.00 E13.0513
G1 X15.00 Y-15.00 E17.4017
G1 X0 Y0 E17.50
;start main print
G1 X1.5 Y0.0 Z0 E17.5 F120
G1 X1.34 Y0.68 E17.55
G1 X0.88 Y1.21 E17.6
G1 X0.23 Y1.48 E17.65
G1 X-0.46 Y1.43 E17.7
G1 X-1.06 Y1.06 E17.75
G1 X-1.43 Y0.46 E17.8
G1 X-1.48 Y-0.23 E17.85
G1 X-1.21 Y-0.88 E17.9
G1 X-0.68 Y-1.34 E17.95
G1 X-0.0 Y-1.5 E18.0
G1 X0.68 Y-1.34 E18.05
G1 X1.21 Y-0.88 E18.1
G1 X1.48 Y-0.23 E18.15
G1 X1.43 Y0.46 Z0.31 E18.2
G1 X1.06 Y1.06 Z0.79 E18.25
G1 X0.46 Y1.43 Z1.26 E18.3
G1 X-0.23 Y1.48 Z1.73 E18.35
G1 X-0.88 Y1.21 Z2.2 E18.4
G1 X-1.34 Y0.68 Z2.67 E18.45
G1 X-1.5 Y0.0 Z3.14 E18.5
G1 X-1.34 Y-0.68 Z3.61 E18.55
G1 X-0.88 Y-1.21 Z4.08 E18.6
G1 X-0.23 Y-1.48 Z4.56 E18.65
G1 X0.46 Y-1.43 Z5.03 E18.7
G1 X1.06 Y-1.06 Z5.5 E18.75
G1 X1.43 Y-0.46 Z5.97 E18.8
G1 X1.48 Y0.23 Z6.44 E18.85
G1 X1.21 Y0.88 Z6.91 E18.9
G1 X0.68 Y1.34 Z7.38 E18.95
G1 X0.0 Y1.5 Z7.85 E19.0
G1 X-0.68 Y1.34 Z8.33 E19.05
G1 X-1.21 Y0.88 Z8.8 E19.1
G1 X-1.48 Y0.23 Z9.27 E19.15
G1 X-1.43 Y-0.46 Z9.74 E19.2
G1 X-1.06 Y-1.06 Z10.21 E19.25
G1 X-0.46 Y-1.43 Z10.68 E19.3
G1 X0.23 Y-1.48 Z11.15 E19.35
G1 X0.88 Y-1.21 Z11.62 E19.4
G1 X1.34 Y-0.68 Z12.1 E19.45
G1 X1.5 Y-0.0 Z12.57 E19.5
G1 X1.34 Y0.68 Z13.04 E19.55
G1 X0.88 Y1.21 Z13.51 E19.6
G1 X0.23 Y1.48 Z13.98 E19.65
G1 X-0.46 Y1.43 Z14.45 E19.7
G1 X-1.06 Y1.06 Z14.92 E19.75
G1 X-1.43 Y0.46 Z15.39 E19.8
G1 X-1.48 Y-0.23 Z15.87 E19.85
G1 X-1.21 Y-0.88 Z16.34 E19.9
G1 X-0.68 Y-1.34 Z16.81 E19.95
G1 X-0.0 Y-1.5 Z17.28 E20.0
G1 X0.68 Y-1.34 Z17.75 E20.05
G1 X1.21 Y-0.88 Z18.22 E20.1
G1 X1.48 Y-0.23 Z18.69 E20.15
G1 X1.43 Y0.46 Z19.16 E20.2
G1 X1.06 Y1.06 Z19.63 E20.25
G1 X0.46 Y1.43 Z20.11 E20.3
G1 X-0.23 Y1.48 Z20.58 E20.35
G1 X-0.88 Y1.21 Z21.05 E20.4
G1 X-1.34 Y0.68 Z21.52 E20.45
G1 X-1.5 Y0.0 Z21.99 E20.5
G1 X-1.34 Y-0.68 Z22.46 E20.55
G1 X-0.88 Y-1.21 Z22.93 E20.6
G1 X-0.23 Y-1.48 Z23.4 E20.65
G1 X0.46 Y-1.43 Z23.88 E20.7
G1 X1.06 Y-1.06 Z24.35 E20.75
G1 X1.43 Y-0.46 Z24.82 E20.8
G1 X1.48 Y0.23 Z25.29 E20.85
G1 X1.21 Y0.88 Z25.76 E20.9
G1 X0.68 Y1.34 Z26.23 E20.95
G1 X0.0 Y1.5 Z26.7 E21.0
G1 X-0.68 Y1.34 Z27.17 E21.05
G1 X-1.21 Y0.88 Z27.65 E21.1
G1 X-1.48 Y0.23 Z28.12 E21.15
G1 X-1.43 Y-0.46 Z28.59 E21.2
G1 X-1.06 Y-1.06 Z29.06 E21.25
G1 X-0.46 Y-1.43 Z29.53 E21.3
G1 X0.23 Y-1.48 Z30.0 E21.35
G1 X0.88 Y-1.21 Z30.47 E21.4
G1 X1.34 Y-0.68 Z30.94 E21.45
G1 X1.5 Y-0.0 Z31.42 E21.5
G1 X1.34 Y0.68 Z31.89 E21.55
G1 X0.88 Y1.21 Z32.36 E21.6
G1 X0.23 Y1.48 Z32.83 E21.65
G1 X-0.46 Y1.43 Z33.3 E21.7
G1 X-1.06 Y1.06 Z33.77 E21.75
G1 X-1.43 Y0.46 Z34.24 E21.8
G1 X-1.48 Y-0.23 Z34.71 E21.85
G1 X-1.21 Y-0.88 Z35.19 E21.9
G1 X-0.68 Y-1.34 Z35.66 E21.95
G1 X0.0 Y-1.5 Z36.13 E22.0
G1 X0.68 Y-1.34 Z36.6 E22.05
G1 X1.21 Y-0.88 Z37.07 E22.1
G1 X1.48 Y-0.23 Z37.54 E22.15
G1 X1.43 Y0.46 Z38.01 E22.2
G1 X1.06 Y1.06 Z38.48 E22.25
G1 X0.46 Y1.43 Z38.96 E22.3
G1 X-0.23 Y1.48 Z39.43 E22.35
G1 X-0.88 Y1.21 Z39.9 E22.4
G1 X-1.34 Y0.68 Z40.37 E22.45
G1 X-1.5 Y-0.0 Z40.84 E22.5
G1 X-1.34 Y-0.68 Z41.31 E22.55
G1 X-0.88 Y-1.21 Z41.78 E22.6
G1 X-0.23 Y-1.48 Z42.25 E22.65
G1 X0.46 Y-1.43 Z42.73 E22.7
G1 X1.06 Y-1.06 Z43.2 E22.75
G1 X1.43 Y-0.46 Z43.67 E22.8
G1 X1.48 Y0.23 Z44.14 E22.85
G1 X1.21 Y0.88 Z44.61 E22.9
G1 X0.68 Y1.34 Z45.08 E22.95
G1 X-0.0 Y1.5 Z45.55 E23.0
G1 X-0.68 Y1.34 Z46.02 E23.05
G1 X-1.21 Y0.88 Z46.5 E23.1
G1 X-1.48 Y0.23 Z46.97 E23.15
G1 X-1.43 Y-0.46 Z47.44 E23.2
G1 X-1.06 Y-1.06 Z47.91 E23.25
G1 X-0.46 Y-1.43 Z48.38 E23.3
G1 X0.23 Y-1.48 Z48.85 E23.35
G1 X0.88 Y-1.21 Z49.32 E23.4
G1 X1.34 Y-0.68 Z49.79 E23.45
G1 X1.5 Y0.0 Z50.27 E23.5
G1 X1.34 Y0.68 Z50.74 E23.55
G1 X0.88 Y1.21 Z51.21 E23.6
G1 X0.23 Y1.48 Z51.68 E23.65
G1 X-0.46 Y1.43 Z52.15 E23.7
G1 X-1.06 Y1.06 Z52.62 E23.75
G1 X-1.43 Y0.46 Z53.09 E23.8
G1 X-1.48 Y-0.23 Z53.56 E23.85
G1 X-1.21 Y-0.88 Z54.04 E23.9
G1 X-0.68 Y-1.34 Z54.51 E23.95
G1 X0.0 Y-1.5 Z54.98 E24.0
G1 X0.68 Y-1.34 Z55.45 E24.05
G1 X1.21 Y-0.88 Z55.92 E24.1
G1 X1.48 Y-0.23 Z56.39 E24.15
;end gcode
M104 S0 T0
M140 S0 T0
G162 Z F1800
G28 X Y
M132 X Y A B
M652
G91
M18
