;generated by ffslicer 2.2.2 12/10/22 14:56:10
;machine_type: Adventurer 3 Series
;right_extruder_material: PLA
;right_extruder_material_density: 1.24
;filament_diameter0: 1.75
;right_extruder_temperature: 210
;layer_height: 0.18
;perimeter_shells: 2
;top_solid_layers: 4
;bottom_solid_layers: 3
;fill_density: 15%
;fill_pattern: hexagon
;base_print_speed: 60
;travel_speed: 80
;platform_temperature: 65
;right_extruder_temperature_raft0: 215
;right_extruder_temperature_reset: 
;left_extruder_temperature_reset: 
;start gcode
M118 X15.66 Y15.00 Z23.55 T0
M140 S65 T0
M104 S215 T0
M104 S0 T1
M107
G90
G28
M132 X Y Z A B
G1 Z50.000 F420
G161 X Y F3300
M7 T0
M6 T0
M651 S255
;layer_count: 126
M108 T0
G1 X15.00 Y-15.00 F4800
;preExtrude:0.20
M106
G1 Z.200 F420
;structure:pre-extrude
G1 X15.00 Y-15.00 F4800
G1 X15.00 Y15.00 E4.3504 F1200
G1 X-15.00 Y15.00 E8.7009
G1 X-15.00 Y-15.00 E13.0513
G1 X15.00 Y-15.00 E17.4017
;raft
;layer:0.40
;support-start
G1 E12.4017 F1500
G1 Z.400 F420
G1 X.29 Y-12.49 F4800
G1 E17.4017 F1500
;structure:raft
G1 X.29 Y-12.49 F4200
G1 X1.09 Y-12.45 E17.6340 F480
G1 X1.58 Y-12.39 E17.7772
G1 X2.30 Y-12.28 E17.9884
G1 X2.79 Y-12.18 E18.1335
G1 X3.50 Y-11.99 E18.3466
G1 X3.93 Y-11.86 E18.4769
G1 X4.55 Y-11.64 E18.6677
G1 X5.05 Y-11.43 E18.8250
G1 X5.77 Y-11.08 E19.0572
G1 X6.16 Y-10.87 E19.1857
G1 X6.73 Y-10.53 E19.3782
G1 X7.18 Y-10.23 E19.5350
G1 X7.82 Y-9.74 E19.7688
G1 X8.16 Y-9.46 E19.8965
G1 X8.66 Y-9.01 E20.0916
G1 X9.04 Y-8.62 E20.2496
G1 X9.58 Y-8.02 E20.4837
G1 X9.87 Y-7.65 E20.6200
G1 X10.31 Y-7.06 E20.8335
G1 X10.59 Y-6.64 E20.9799
G1 X10.96 Y-6.00 E21.1943
G1 X11.16 Y-5.62 E21.3188
G1 X11.45 Y-5.01 E21.5147
G1 X11.64 Y-4.55 E21.6591
G1 X11.89 Y-3.86 E21.8719
G1 X12.04 Y-3.35 E22.0261
G1 X12.23 Y-2.57 E22.2589
G1 X12.31 Y-2.13 E22.3886
G1 X12.41 Y-1.47 E22.5822
G1 X12.46 Y-.98 E22.7251
G1 X12.49 Y-.25 E22.9370
G1 X12.49 Y.29 E23.0936
G1 X12.45 Y1.09 E23.3259
G1 X12.40 Y1.54 E23.4572
G1 X12.30 Y2.20 E23.6508
G1 X12.20 Y2.72 E23.8044
G1 X11.99 Y3.50 E24.0387
G1 X11.85 Y3.97 E24.1809
G1 X11.59 Y4.66 E24.3948
G1 X11.42 Y5.07 E24.5235
G1 X11.13 Y5.68 E24.7194
G1 X10.88 Y6.14 E24.8713
G1 X10.47 Y6.82 E25.1015
G1 X10.21 Y7.20 E25.2351
G1 X9.81 Y7.74 E25.4300
G1 X9.50 Y8.12 E25.5722
G1 X9.01 Y8.66 E25.7837
G1 X8.63 Y9.04 E25.9396
G1 X8.03 Y9.57 E26.1717
G1 X7.65 Y9.88 E26.3140
G1 X7.06 Y10.31 E26.5257
G1 X6.68 Y10.56 E26.6576
G1 X6.10 Y10.90 E26.8526
G1 X5.64 Y11.15 E27.0045
G1 X4.91 Y11.49 E27.2380
G1 X4.49 Y11.66 E27.3695
G1 X3.86 Y11.89 E27.5640
G1 X3.39 Y12.03 E27.7062
G1 X2.68 Y12.21 E27.9186
G1 X2.15 Y12.31 E28.0751
G1 X1.36 Y12.42 E28.3064
G1 X.91 Y12.46 E28.4374
G1 X.25 Y12.49 E28.6290
G1 X-.29 Y12.49 E28.7857
G1 X-1.09 Y12.45 E29.0180
G1 X-1.54 Y12.40 E29.1493
G1 X-2.20 Y12.30 E29.3429
G1 X-2.72 Y12.20 E29.4965
G1 X-3.50 Y11.99 E29.7307
G1 X-3.93 Y11.86 E29.8610
G1 X-4.55 Y11.64 E30.0518
G1 X-5.05 Y11.43 E30.2091
G1 X-5.77 Y11.08 E30.4413
G1 X-6.20 Y10.85 E30.5827
G1 X-6.82 Y10.47 E30.7936
G1 X-7.21 Y10.21 E30.9296
G1 X-7.74 Y9.81 E31.1222
G1 X-8.11 Y9.51 E31.2603
G1 X-8.66 Y9.01 E31.4759
G1 X-9.04 Y8.63 E31.6318
G1 X-9.57 Y8.03 E31.8639
G1 X-9.88 Y7.65 E32.0062
G1 X-10.31 Y7.06 E32.2179
G1 X-10.56 Y6.68 E32.3498
G1 X-10.90 Y6.10 E32.5448
G1 X-11.15 Y5.64 E32.6967
G1 X-11.49 Y4.91 E32.9302
G1 X-11.68 Y4.44 E33.0773
G1 X-11.92 Y3.75 E33.2891
G1 X-12.05 Y3.28 E33.4306
G1 X-12.23 Y2.57 E33.6430
G1 X-12.32 Y2.08 E33.7875
G1 X-12.42 Y1.35 E34.0012
G1 X-12.46 Y.91 E34.1293
G1 X-12.49 Y.25 E34.3209
G1 X-12.49 Y-.29 E34.4776
G1 X-12.45 Y-1.09 E34.7099
G1 X-12.39 Y-1.58 E34.8531
G1 X-12.28 Y-2.30 E35.0643
G1 X-12.18 Y-2.79 E35.2093
G1 X-11.99 Y-3.50 E35.4225
G1 X-11.86 Y-3.93 E35.5528
G1 X-11.64 Y-4.55 E35.7436
G1 X-11.43 Y-5.05 E35.9009
G1 X-11.08 Y-5.77 E36.1331
G1 X-10.85 Y-6.20 E36.2745
G1 X-10.47 Y-6.82 E36.4854
G1 X-10.18 Y-7.25 E36.6358
G1 X-9.73 Y-7.83 E36.8487
G1 X-9.46 Y-8.16 E36.9724
G1 X-9.01 Y-8.65 E37.1653
G1 X-8.66 Y-9.01 E37.3110
G1 X-8.11 Y-9.51 E37.5265
G1 X-7.74 Y-9.81 E37.6647
G1 X-7.15 Y-10.25 E37.8782
G1 X-6.74 Y-10.53 E38.0222
G1 X-6.10 Y-10.90 E38.2366
G1 X-5.68 Y-11.13 E38.3754
G1 X-5.01 Y-11.45 E38.5908
G1 X-4.55 Y-11.64 E38.7351
G1 X-3.86 Y-11.89 E38.9480
G1 X-3.35 Y-12.04 E39.1022
G1 X-2.56 Y-12.23 E39.3378
G1 X-2.08 Y-12.32 E39.4795
G1 X-1.35 Y-12.42 E39.6932
G1 X-.91 Y-12.46 E39.8213
G1 X-.25 Y-12.49 E40.0129
G1 X.29 Y-12.49 E40.1695
G1 E35.1695 F1500
G1 X-11.12 Y-3.60 F4800
G1 E40.1695 F1500
G1 X-11.12 Y-3.60 F4200
G1 X-3.59 Y-11.13 E43.2581 F480
G1 X-3.14 Y-11.26 E43.3939
G1 X-2.40 Y-11.44 E43.6148
G1 X-1.94 Y-11.53 E43.7507
G1 X-1.28 Y-11.62 E43.9439
G1 X-.85 Y-11.66 E44.0692
G1 X-.23 Y-11.69 E44.2492
G1 X.26 Y-11.69 E44.3913
G1 X1.02 Y-11.65 E44.6120
G1 X1.49 Y-11.60 E44.7491
G1 X2.15 Y-11.49 E44.9432
G1 X2.57 Y-11.40 E45.0678
G1 X-11.40 Y2.57 E50.7977
G1 X-11.28 Y3.08 E50.9497
G1 X-11.16 Y3.50 E51.0764
G1 X-10.93 Y4.16 E51.2791
G1 X-10.75 Y4.59 E51.4143
G1 X-10.43 Y5.29 E51.6375
G1 X-10.21 Y5.71 E51.7750
G1 X-9.89 Y6.24 E51.9546
G1 X-9.61 Y6.66 E52.1010
G1 X6.66 Y-9.61 E58.7743
G1 X7.31 Y-9.13 E59.0086
G1 X7.65 Y-8.85 E59.1364
G1 X8.11 Y-8.43 E59.3170
G1 X8.46 Y-8.08 E59.4606
G1 X8.96 Y-7.51 E59.6805
G1 X9.24 Y-7.16 E59.8105
G1 X9.61 Y-6.66 E59.9909
G1 X-6.66 Y9.61 E66.6642
G1 X-6.39 Y9.79 E66.7584
G1 X-5.80 Y10.15 E66.9588
G1 X-5.40 Y10.37 E67.0912
G1 X-4.73 Y10.70 E67.3078
G1 X-4.25 Y10.90 E67.4586
G1 X-3.67 Y11.10 E67.6366
G1 X-3.28 Y11.22 E67.7549
G1 X-2.57 Y11.41 E67.9681
G1 X11.40 Y-2.57 E73.7001
G1 X11.52 Y-1.99 E73.8719
G1 X11.62 Y-1.37 E74.0540
G1 X11.66 Y-.92 E74.1850
G1 X11.69 Y-.23 E74.3854
G1 X11.69 Y.25 E74.5246
G1 X11.65 Y1.03 E74.7511
G1 X11.60 Y1.45 E74.8738
G1 X11.52 Y2.05 E75.0493
G1 X11.42 Y2.55 E75.1972
G1 X11.23 Y3.27 E75.4132
G1 X11.12 Y3.60 E75.5140
G1 X3.59 Y11.13 E78.6026
;support-end
;layer:0.40
;support-start
M104 S210 T0
G1 E73.6026 F1500
G1 Z.800 F420
G1 X.29 Y-12.49 F4800
G1 E78.6026 F1500
G1 X.29 Y-12.49 F4800
G1 X1.09 Y-12.45 E78.6607 F1800
G1 X1.58 Y-12.39 E78.6964
G1 X2.30 Y-12.28 E78.7493
G1 X2.79 Y-12.18 E78.7855
G1 X3.50 Y-11.99 E78.8388
G1 X3.93 Y-11.86 E78.8714
G1 X4.55 Y-11.64 E78.9191
G1 X5.05 Y-11.43 E78.9584
G1 X5.77 Y-11.08 E79.0165
G1 X6.16 Y-10.87 E79.0486
G1 X6.73 Y-10.53 E79.0967
G1 X7.18 Y-10.23 E79.1359
G1 X7.82 Y-9.74 E79.1943
G1 X8.16 Y-9.46 E79.2263
G1 X8.66 Y-9.01 E79.2751
G1 X9.04 Y-8.62 E79.3145
G1 X9.58 Y-8.02 E79.3731
G1 X9.87 Y-7.65 E79.4072
G1 X10.31 Y-7.06 E79.4605
G1 X10.59 Y-6.64 E79.4971
G1 X10.96 Y-6.00 E79.5507
G1 X11.16 Y-5.62 E79.5819
G1 X11.45 Y-5.01 E79.6308
G1 X11.64 Y-4.55 E79.6669
G1 X11.89 Y-3.86 E79.7201
G1 X12.04 Y-3.35 E79.7587
G1 X12.23 Y-2.57 E79.8169
G1 X12.31 Y-2.13 E79.8493
G1 X12.41 Y-1.47 E79.8977
G1 X12.46 Y-.98 E79.9334
G1 X12.49 Y-.25 E79.9864
G1 X12.49 Y.29 E80.0256
G1 X12.45 Y1.09 E80.0836
G1 X12.40 Y1.54 E80.1165
G1 X12.30 Y2.20 E80.1649
G1 X12.20 Y2.72 E80.2033
G1 X11.99 Y3.50 E80.2618
G1 X11.85 Y3.97 E80.2974
G1 X11.59 Y4.66 E80.3509
G1 X11.42 Y5.07 E80.3830
G1 X11.13 Y5.68 E80.4320
G1 X10.88 Y6.14 E80.4700
G1 X10.47 Y6.82 E80.5275
G1 X10.21 Y7.20 E80.5609
G1 X9.81 Y7.74 E80.6097
G1 X9.50 Y8.12 E80.6452
G1 X9.01 Y8.66 E80.6981
G1 X8.63 Y9.04 E80.7370
G1 X8.03 Y9.57 E80.7951
G1 X7.65 Y9.88 E80.8306
G1 X7.06 Y10.31 E80.8836
G1 X6.68 Y10.56 E80.9166
G1 X6.10 Y10.90 E80.9653
G1 X5.64 Y11.15 E81.0033
G1 X4.91 Y11.49 E81.0617
G1 X4.49 Y11.66 E81.0945
G1 X3.86 Y11.89 E81.1431
G1 X3.39 Y12.03 E81.1787
G1 X2.68 Y12.21 E81.2318
G1 X2.15 Y12.31 E81.2709
G1 X1.36 Y12.42 E81.3288
G1 X.91 Y12.46 E81.3615
G1 X.25 Y12.49 E81.4094
G1 X-.29 Y12.49 E81.4486
G1 X-1.09 Y12.45 E81.5066
G1 X-1.54 Y12.40 E81.5395
G1 X-2.20 Y12.30 E81.5879
G1 X-2.72 Y12.20 E81.6263
G1 X-3.50 Y11.99 E81.6848
G1 X-3.93 Y11.86 E81.7174
G1 X-4.55 Y11.64 E81.7651
G1 X-5.05 Y11.43 E81.8044
G1 X-5.77 Y11.08 E81.8625
G1 X-6.20 Y10.85 E81.8978
G1 X-6.82 Y10.47 E81.9506
G1 X-7.21 Y10.21 E81.9846
G1 X-7.74 Y9.81 E82.0327
G1 X-8.11 Y9.51 E82.0672
G1 X-8.66 Y9.01 E82.1211
G1 X-9.04 Y8.63 E82.1601
G1 X-9.57 Y8.03 E82.2182
G1 X-9.88 Y7.65 E82.2537
G1 X-10.31 Y7.06 E82.3067
G1 X-10.56 Y6.68 E82.3396
G1 X-10.90 Y6.10 E82.3884
G1 X-11.15 Y5.64 E82.4263
G1 X-11.49 Y4.91 E82.4847
G1 X-11.68 Y4.44 E82.5215
G1 X-11.92 Y3.75 E82.5745
G1 X-12.05 Y3.28 E82.6098
G1 X-12.23 Y2.57 E82.6629
G1 X-12.32 Y2.08 E82.6991
G1 X-12.42 Y1.35 E82.7525
G1 X-12.46 Y.91 E82.7845
G1 X-12.49 Y.25 E82.8324
G1 X-12.49 Y-.29 E82.8716
G1 X-12.45 Y-1.09 E82.9297
G1 X-12.39 Y-1.58 E82.9654
G1 X-12.28 Y-2.30 E83.0183
G1 X-12.18 Y-2.79 E83.0545
G1 X-11.99 Y-3.50 E83.1078
G1 X-11.86 Y-3.93 E83.1404
G1 X-11.64 Y-4.55 E83.1881
G1 X-11.43 Y-5.05 E83.2274
G1 X-11.08 Y-5.77 E83.2854
G1 X-10.85 Y-6.20 E83.3208
G1 X-10.47 Y-6.82 E83.3735
G1 X-10.18 Y-7.25 E83.4111
G1 X-9.73 Y-7.83 E83.4644
G1 X-9.46 Y-8.16 E83.4953
G1 X-9.01 Y-8.65 E83.5435
G1 X-8.66 Y-9.01 E83.5799
G1 X-8.11 Y-9.51 E83.6338
G1 X-7.74 Y-9.81 E83.6684
G1 X-7.15 Y-10.25 E83.7217
G1 X-6.74 Y-10.53 E83.7577
G1 X-6.10 Y-10.90 E83.8113
G1 X-5.68 Y-11.13 E83.8460
G1 X-5.01 Y-11.45 E83.8999
G1 X-4.55 Y-11.64 E83.9360
G1 X-3.86 Y-11.89 E83.9892
G1 X-3.35 Y-12.04 E84.0277
G1 X-2.56 Y-12.23 E84.0866
G1 X-2.08 Y-12.32 E84.1221
G1 X-1.35 Y-12.42 E84.1755
G1 X-.91 Y-12.46 E84.2075
G1 X-.25 Y-12.49 E84.2554
G1 X.29 Y-12.49 E84.2946
G1 E79.2946 F1500
G1 X5.90 Y-10.78 F4800
G1 E84.2946 F1500
G1 X5.90 Y-10.78 F4800
G1 X10.78 Y-5.90 E84.7950 F1800
G1 X10.98 Y-5.53 E84.8255
G1 X11.26 Y-4.94 E84.8728
G1 X11.45 Y-4.48 E84.9089
G1 X11.69 Y-3.81 E84.9605
G1 X11.85 Y-3.30 E84.9993
G1 X11.98 Y-2.74 E85.0410
G1 X2.74 Y-11.98 E85.9884
G1 X2.27 Y-12.08 E86.0233
G1 X1.55 Y-12.20 E86.0762
G1 X1.08 Y-12.25 E86.1105
G1 X.48 Y-12.28 E86.1540
G1 X12.28 Y-.48 E87.3640
G1 X12.29 Y.28 E87.4191
G1 X12.25 Y1.07 E87.4765
G1 X12.21 Y1.42 E87.5020
G1 X-1.41 Y-12.21 E88.8991
G1 X-2.05 Y-12.12 E88.9460
G1 X-2.52 Y-12.03 E88.9807
G1 X-3.07 Y-11.90 E89.0217
G1 X11.90 Y3.07 E90.5567
G1 X11.80 Y3.44 E90.5845
G1 X11.66 Y3.90 E90.6193
G1 X11.42 Y4.55 E90.6696
G1 X-4.55 Y-11.42 E92.3072
G1 X-4.93 Y-11.27 E92.3368
G1 X-5.59 Y-10.95 E92.3900
G1 X-5.89 Y-10.79 E92.4146
G1 X10.79 Y5.89 E94.1250
G1 X10.30 Y6.71 E94.1943
G1 X10.04 Y7.10 E94.2282
G1 X-7.10 Y-10.04 E95.9858
G1 X-7.61 Y-9.66 E96.0319
G1 X-8.19 Y-9.17 E96.0870
G1 X9.17 Y8.19 E97.8671
G1 X8.87 Y8.52 E97.8994
G1 X8.49 Y8.90 E97.9384
G1 X8.18 Y9.16 E97.9677
G1 X-9.17 Y-8.18 E99.7463
G1 X-9.58 Y-7.70 E99.7920
G1 X-10.04 Y-7.09 E99.8474
G1 X7.09 Y10.04 E101.6039
G1 X6.57 Y10.39 E101.6494
G1 X5.88 Y10.79 E101.7072
G1 X-10.79 Y-5.88 E103.4166
G1 X-10.90 Y-5.68 E103.4331
G1 X-11.25 Y-4.96 E103.4912
G1 X-11.42 Y-4.55 E103.5233
G1 X4.55 Y11.42 E105.1609
G1 X3.80 Y11.70 E105.2190
G1 X3.07 Y11.90 E105.2738
G1 X-11.90 Y-3.06 E106.8084
G1 X-12.08 Y-2.26 E106.8678
G1 X-12.21 Y-1.41 E106.9302
G1 X1.41 Y12.21 E108.3268
G1 X.90 Y12.26 E108.3639
G1 X.24 Y12.29 E108.4118
G1 X-.48 Y12.28 E108.4640
G1 X-12.28 Y.48 E109.6740
G1 X-12.22 Y1.33 E109.7358
G1 X-12.12 Y2.06 E109.7892
G1 X-11.98 Y2.75 E109.8403
G1 X-2.74 Y11.98 E110.7872
G1 X-3.45 Y11.80 E110.8403
G1 X-3.87 Y11.67 E110.8722
G1 X-4.49 Y11.45 E110.9199
G1 X-4.96 Y11.25 E110.9570
G1 X-5.68 Y10.90 E111.0150
G1 X-5.91 Y10.77 E111.0342
G1 X-10.78 Y5.90 E111.5335
;support-end
;layer:0.25
;support-start
G1 E106.5335 F1500
G1 Z1.050 F420
G1 X.29 Y-12.49 F4800
G1 E111.5335 F1500
G1 X.29 Y-12.49 F4800
G1 X1.09 Y-12.45 E111.5698 F3600
G1 X1.58 Y-12.39 E111.5922
G1 X2.30 Y-12.28 E111.6252
G1 X2.79 Y-12.18 E111.6479
G1 X3.50 Y-11.99 E111.6812
G1 X3.93 Y-11.86 E111.7015
G1 X4.55 Y-11.64 E111.7314
G1 X5.05 Y-11.43 E111.7559
G1 X5.77 Y-11.08 E111.7922
G1 X6.16 Y-10.87 E111.8123
G1 X6.73 Y-10.53 E111.8424
G1 X7.18 Y-10.23 E111.8669
G1 X7.82 Y-9.74 E111.9034
G1 X8.16 Y-9.46 E111.9234
G1 X8.66 Y-9.01 E111.9538
G1 X9.04 Y-8.62 E111.9785
G1 X9.58 Y-8.02 E112.0151
G1 X9.87 Y-7.65 E112.0364
G1 X10.31 Y-7.06 E112.0698
G1 X10.59 Y-6.64 E112.0926
G1 X10.96 Y-6.00 E112.1261
G1 X11.16 Y-5.62 E112.1456
G1 X11.45 Y-5.01 E112.1762
G1 X11.64 Y-4.55 E112.1988
G1 X11.89 Y-3.86 E112.2320
G1 X12.04 Y-3.35 E112.2561
G1 X12.23 Y-2.57 E112.2925
G1 X12.31 Y-2.13 E112.3128
G1 X12.41 Y-1.47 E112.3430
G1 X12.46 Y-.98 E112.3653
G1 X12.49 Y-.25 E112.3984
G1 X12.49 Y.29 E112.4229
G1 X12.45 Y1.09 E112.4592
G1 X12.40 Y1.54 E112.4797
G1 X12.30 Y2.20 E112.5100
G1 X12.20 Y2.72 E112.5340
G1 X11.99 Y3.50 E112.5706
G1 X11.85 Y3.97 E112.5928
G1 X11.59 Y4.66 E112.6262
G1 X11.42 Y5.07 E112.6463
G1 X11.13 Y5.68 E112.6769
G1 X10.88 Y6.14 E112.7007
G1 X10.47 Y6.82 E112.7367
G1 X10.21 Y7.20 E112.7575
G1 X9.81 Y7.74 E112.7880
G1 X9.50 Y8.12 E112.8102
G1 X9.01 Y8.66 E112.8432
G1 X8.63 Y9.04 E112.8676
G1 X8.03 Y9.57 E112.9039
G1 X7.65 Y9.88 E112.9261
G1 X7.06 Y10.31 E112.9592
G1 X6.68 Y10.56 E112.9798
G1 X6.10 Y10.90 E113.0103
G1 X5.64 Y11.15 E113.0340
G1 X4.91 Y11.49 E113.0705
G1 X4.49 Y11.66 E113.0910
G1 X3.86 Y11.89 E113.1214
G1 X3.39 Y12.03 E113.1436
G1 X2.68 Y12.21 E113.1768
G1 X2.15 Y12.31 E113.2013
G1 X1.36 Y12.42 E113.2374
G1 X.91 Y12.46 E113.2579
G1 X.25 Y12.49 E113.2878
G1 X-.29 Y12.49 E113.3123
G1 X-1.09 Y12.45 E113.3486
G1 X-1.54 Y12.40 E113.3691
G1 X-2.20 Y12.30 E113.3994
G1 X-2.72 Y12.20 E113.4234
G1 X-3.50 Y11.99 E113.4600
G1 X-3.93 Y11.86 E113.4803
G1 X-4.55 Y11.64 E113.5102
G1 X-5.05 Y11.43 E113.5347
G1 X-5.77 Y11.08 E113.5710
G1 X-6.20 Y10.85 E113.5931
G1 X-6.82 Y10.47 E113.6261
G1 X-7.21 Y10.21 E113.6473
G1 X-7.74 Y9.81 E113.6774
G1 X-8.11 Y9.51 E113.6990
G1 X-8.66 Y9.01 E113.7327
G1 X-9.04 Y8.63 E113.7570
G1 X-9.57 Y8.03 E113.7933
G1 X-9.88 Y7.65 E113.8155
G1 X-10.31 Y7.06 E113.8486
G1 X-10.56 Y6.68 E113.8692
G1 X-10.90 Y6.10 E113.8997
G1 X-11.15 Y5.64 E113.9234
G1 X-11.49 Y4.91 E113.9599
G1 X-11.68 Y4.44 E113.9829
G1 X-11.92 Y3.75 E114.0160
G1 X-12.05 Y3.28 E114.0381
G1 X-12.23 Y2.57 E114.0713
G1 X-12.32 Y2.08 E114.0939
G1 X-12.42 Y1.35 E114.1273
G1 X-12.46 Y.91 E114.1473
G1 X-12.49 Y.25 E114.1772
G1 X-12.49 Y-.29 E114.2017
G1 X-12.45 Y-1.09 E114.2380
G1 X-12.39 Y-1.58 E114.2604
G1 X-12.28 Y-2.30 E114.2934
G1 X-12.18 Y-2.79 E114.3160
G1 X-11.99 Y-3.50 E114.3493
G1 X-11.86 Y-3.93 E114.3697
G1 X-11.64 Y-4.55 E114.3995
G1 X-11.43 Y-5.05 E114.4241
G1 X-11.08 Y-5.77 E114.4604
G1 X-10.85 Y-6.20 E114.4825
G1 X-10.47 Y-6.82 E114.5154
G1 X-10.18 Y-7.25 E114.5389
G1 X-9.73 Y-7.83 E114.5722
G1 X-9.46 Y-8.16 E114.5915
G1 X-9.01 Y-8.65 E114.6217
G1 X-8.66 Y-9.01 E114.6444
G1 X-8.11 Y-9.51 E114.6781
G1 X-7.74 Y-9.81 E114.6997
G1 X-7.15 Y-10.25 E114.7330
G1 X-6.74 Y-10.53 E114.7555
G1 X-6.10 Y-10.90 E114.7890
G1 X-5.68 Y-11.13 E114.8108
G1 X-5.01 Y-11.45 E114.8444
G1 X-4.55 Y-11.64 E114.8669
G1 X-3.86 Y-11.89 E114.9002
G1 X-3.35 Y-12.04 E114.9243
G1 X-2.56 Y-12.23 E114.9611
G1 X-2.08 Y-12.32 E114.9833
G1 X-1.35 Y-12.42 E115.0166
G1 X-.91 Y-12.46 E115.0367
G1 X-.25 Y-12.49 E115.0666
G1 X.29 Y-12.49 E115.0911
G1 E110.0911 F1500
G1 X-7.95 Y-9.38 F4800
G1 E115.0911 F1500
G1 X-7.95 Y-9.38 F4800
G1 X-9.35 Y-7.97 E115.1811 F3600
G1 X-9.58 Y-7.70 E115.1972
G1 X-10.01 Y-7.13 E115.2296
G1 X-10.29 Y-6.72 E115.2521
G1 X-10.72 Y-6.01 E115.2897
G1 X-6.00 Y-10.73 E115.5922
G1 X-5.59 Y-10.95 E115.6132
G1 X-4.82 Y-11.31 E115.6518
G1 X-11.31 Y-4.82 E116.0677
G1 X-11.45 Y-4.49 E116.0839
G1 X-11.67 Y-3.86 E116.1142
G1 X-3.86 Y-11.67 E116.6147
G1 X-3.81 Y-11.69 E116.6171
G1 X-3.03 Y-11.91 E116.6539
G1 X-11.91 Y-3.03 E117.2230
G1 X-12.08 Y-2.25 E117.2591
G1 X-2.25 Y-12.08 E117.8891
G1 X-1.55 Y-12.19 E117.9212
G1 X-12.19 Y-1.54 E118.6035
G1 X-12.25 Y-.88 E118.6335
G1 X-.88 Y-12.26 E119.3625
G1 X-.25 Y-12.29 E119.3911
G1 X-12.29 Y-.25 E120.1627
G1 X-12.29 Y.34 E120.1894
G1 X.34 Y-12.29 E120.9988
G1 X.91 Y-12.25 E121.0247
G1 X-12.26 Y.91 E121.8685
G1 X-12.20 Y1.46 E121.8935
G1 X1.46 Y-12.20 E122.7690
G1 X1.98 Y-12.13 E122.7927
G1 X-12.13 Y1.98 E123.6970
G1 X-12.04 Y2.49 E123.7205
G1 X2.48 Y-12.03 E124.6511
G1 X2.97 Y-11.92 E124.6738
G1 X-11.92 Y2.97 E125.6281
G1 X-11.80 Y3.44 E125.6501
G1 X3.45 Y-11.80 E126.6271
G1 X3.90 Y-11.66 E126.6484
G1 X-11.65 Y3.90 E127.6453
G1 X-11.50 Y4.34 E127.6664
G1 X4.34 Y-11.50 E128.6815
G1 X4.77 Y-11.33 E128.7025
G1 X-11.33 Y4.77 E129.7343
G1 X-11.14 Y5.18 E129.7548
G1 X5.18 Y-11.14 E130.8007
