; generated by Slic3r 1.3.0 on 2022-12-10 at 15:06:04

; external perimeters extrusion width = 0.44mm (3.38mm^3/s)
; perimeters extrusion width = 0.48mm (7.54mm^3/s)
; infill extrusion width = 0.48mm (10.05mm^3/s)
; solid infill extrusion width = 0.48mm (2.51mm^3/s)
; top infill extrusion width = 0.48mm (1.88mm^3/s)

M107
M190 S70 ; set bed temperature and wait for it to be reached
M104 S215 ; set temperature
G28 ; home all axes
G1 Z5 F5000 ; lift nozzle

; Filament gcode

M109 S215 ; set temperature and wait for it to be reached
G21 ; set units to millimeters
G90 ; use absolute coordinates
M82 ; use absolute distances for extrusion
G92 E0
G1 Z0.350 F7800.000
G1 E-2.00000 F2400.00000
G92 E0
G1 X64.787 Y65.249 F7800.000
G1 E2.00000 F2400.00000
G1 F1800
G1 X65.249 Y64.787 E2.05938
G1 X65.794 Y64.293 E2.12631
G1 X66.295 Y63.882 E2.18524
G1 X66.887 Y63.443 E2.25219
G1 X67.428 Y63.081 E2.31136
G1 X68.059 Y62.703 E2.37828
G1 X68.632 Y62.397 E2.43738
G1 X69.297 Y62.082 E2.50431
G1 X69.897 Y61.834 E2.56331
G1 X70.590 Y61.586 E2.63024
G1 X71.214 Y61.396 E2.68951
G1 X71.928 Y61.218 E2.75644
G1 X72.565 Y61.091 E2.81552
G1 X73.293 Y60.983 E2.88245
G1 X73.941 Y60.919 E2.94164
G1 X74.676 Y60.883 E3.00856
G1 X75.324 Y60.883 E3.06750
G1 X76.059 Y60.919 E3.13442
G1 X76.707 Y60.983 E3.19361
G1 X77.435 Y61.091 E3.26055
G1 X78.072 Y61.218 E3.31962
G1 X78.786 Y61.396 E3.38656
G1 X79.410 Y61.586 E3.44582
G1 X80.103 Y61.834 E3.51275
G1 X80.703 Y62.082 E3.57175
G1 X81.368 Y62.397 E3.63868
G1 X81.941 Y62.703 E3.69779
G1 X82.572 Y63.081 E3.76470
G1 X83.113 Y63.443 E3.82388
G1 X83.705 Y63.882 E3.89082
G1 X84.206 Y64.293 E3.94976
G1 X84.751 Y64.787 E4.01668
G1 X85.213 Y65.249 E4.07606
G1 X85.707 Y65.794 E4.14298
G1 X86.118 Y66.295 E4.20193
G1 X86.557 Y66.887 E4.26887
G1 X86.919 Y67.428 E4.32804
G1 X87.297 Y68.059 E4.39496
G1 X87.603 Y68.632 E4.45406
G1 X87.918 Y69.297 E4.52099
G1 X88.166 Y69.897 E4.57999
G1 X88.414 Y70.590 E4.64692
G1 X88.604 Y71.214 E4.70619
G1 X88.782 Y71.928 E4.77311
G1 X88.909 Y72.565 E4.83220
G1 X89.017 Y73.293 E4.89913
G1 X89.081 Y73.941 E4.95833
G1 X89.117 Y74.676 E5.02524
G1 X89.117 Y75.324 E5.08418
G1 X89.081 Y76.059 E5.15110
G1 X89.017 Y76.707 E5.21029
G1 X88.909 Y77.435 E5.27723
G1 X88.782 Y78.072 E5.33631
G1 X88.604 Y78.786 E5.40324
G1 X88.414 Y79.410 E5.46250
G1 X88.166 Y80.103 E5.52943
G1 X87.918 Y80.703 E5.58843
G1 X87.603 Y81.368 E5.65536
G1 X87.297 Y81.941 E5.71447
G1 X86.919 Y82.572 E5.78138
G1 X86.557 Y83.113 E5.84056
G1 X86.118 Y83.705 E5.90750
G1 X85.707 Y84.206 E5.96644
G1 X85.213 Y84.751 E6.03336
G1 X84.751 Y85.213 E6.09275
G1 X84.206 Y85.707 E6.15966
G1 X83.705 Y86.118 E6.21860
G1 X83.113 Y86.557 E6.28555
G1 X82.572 Y86.919 E6.34472
G1 X81.941 Y87.297 E6.41164
G1 X81.368 Y87.603 E6.47075
G1 X80.703 Y87.918 E6.53768
G1 X80.103 Y88.166 E6.59667
G1 X79.410 Y88.414 E6.66361
G1 X78.786 Y88.604 E6.72287
G1 X78.072 Y88.782 E6.78980
G1 X77.435 Y88.909 E6.84888
G1 X76.707 Y89.017 E6.91581
G1 X76.059 Y89.081 E6.97501
G1 X75.324 Y89.117 E7.04193
G1 X74.676 Y89.117 E7.10086
G1 X73.941 Y89.081 E7.16778
G1 X73.293 Y89.017 E7.22698
G1 X72.565 Y88.909 E7.29391
G1 X71.928 Y88.782 E7.35299
G1 X71.214 Y88.604 E7.41992
G1 X70.590 Y88.414 E7.47918
G1 X69.897 Y88.166 E7.54611
G1 X69.297 Y87.918 E7.60511
G1 X68.632 Y87.603 E7.67205
G1 X68.059 Y87.297 E7.73115
G1 X67.428 Y86.919 E7.79806
G1 X66.886 Y86.557 E7.85724
G1 X66.295 Y86.118 E7.92418
G1 X65.794 Y85.707 E7.98313
G1 X65.249 Y85.213 E8.05004
G1 X64.787 Y84.751 E8.10943
G1 X64.293 Y84.206 E8.17635
G1 X63.882 Y83.705 E8.23529
G1 X63.443 Y83.114 E8.30223
G1 X63.081 Y82.572 E8.36141
G1 X62.703 Y81.941 E8.42832
G1 X62.397 Y81.368 E8.48743
G1 X62.082 Y80.703 E8.55436
G1 X61.834 Y80.103 E8.61336
G1 X61.586 Y79.410 E8.68029
G1 X61.396 Y78.786 E8.73955
G1 X61.218 Y78.072 E8.80648
G1 X61.091 Y77.435 E8.86556
G1 X60.983 Y76.707 E8.93249
G1 X60.919 Y76.059 E8.99169
G1 X60.883 Y75.324 E9.05861
G1 X60.883 Y74.676 E9.11754
G1 X60.919 Y73.941 E9.18447
G1 X60.983 Y73.293 E9.24366
G1 X61.091 Y72.565 E9.31059
G1 X61.218 Y71.928 E9.36967
G1 X61.396 Y71.214 E9.43660
G1 X61.586 Y70.590 E9.49586
G1 X61.834 Y69.897 E9.56279
G1 X62.082 Y69.297 E9.62180
G1 X62.397 Y68.632 E9.68873
G1 X62.703 Y68.059 E9.74783
G1 X63.081 Y67.428 E9.81474
G1 X63.443 Y66.886 E9.87392
G1 X63.882 Y66.295 E9.94086
G1 X64.293 Y65.794 E9.99981
G1 X64.747 Y65.293 E10.06127
G1 E8.06127 F2400.00000
G92 E0
G1 X79.171 Y79.171 F7800.000
G1 E2.00000 F2400.00000
G1 F1800
G1 X78.742 Y79.559 E2.05261
G1 X78.277 Y79.904 E2.10528
G1 X77.780 Y80.202 E2.15789
G1 X77.257 Y80.449 E2.21055
G1 X76.712 Y80.644 E2.26318
G1 X76.151 Y80.785 E2.31580
G1 X75.578 Y80.870 E2.36843
G1 X75.000 Y80.898 E2.42107
G1 X74.422 Y80.870 E2.47370
G1 X73.849 Y80.785 E2.52633
G1 X73.288 Y80.644 E2.57895
G1 X72.743 Y80.449 E2.63159
G1 X72.220 Y80.202 E2.68424
G1 X71.723 Y79.904 E2.73685
G1 X71.258 Y79.559 E2.78952
G1 X70.829 Y79.171 E2.84213
G1 X70.441 Y78.742 E2.89475
G1 X70.096 Y78.277 E2.94741
G1 X69.798 Y77.780 E3.00003
G1 X69.551 Y77.257 E3.05268
G1 X69.356 Y76.712 E3.10531
G1 X69.215 Y76.151 E3.15794
G1 X69.130 Y75.578 E3.21057
G1 X69.102 Y75.000 E3.26320
G1 X69.130 Y74.422 E3.31583
G1 X69.215 Y73.849 E3.36846
G1 X69.356 Y73.288 E3.42108
G1 X69.551 Y72.743 E3.47372
G1 X69.798 Y72.220 E3.52637
G1 X70.096 Y71.723 E3.57899
G1 X70.441 Y71.258 E3.63165
G1 X70.829 Y70.829 E3.68427
G1 X71.258 Y70.441 E3.73688
G1 X71.723 Y70.096 E3.78954
G1 X72.220 Y69.798 E3.84216
G1 X72.743 Y69.551 E3.89481
G1 X73.288 Y69.356 E3.94745
G1 X73.849 Y69.215 E4.00007
G1 X74.422 Y69.130 E4.05270
G1 X75.000 Y69.102 E4.10533
G1 X75.501 Y69.126 E4.15091
G1 X76.159 Y69.217 E4.21131
G1 X76.712 Y69.356 E4.26318
G1 X77.257 Y69.551 E4.31582
G1 X77.780 Y69.798 E4.36847
G1 X78.277 Y70.096 E4.42109
G1 X78.742 Y70.441 E4.47375
G1 X79.171 Y70.829 E4.52636
G1 X79.559 Y71.258 E4.57898
G1 X79.904 Y71.723 E4.63164
G1 X80.202 Y72.220 E4.68426
G1 X80.449 Y72.743 E4.73691
G1 X80.644 Y73.288 E4.78955
G1 X80.785 Y73.849 E4.84217
G1 X80.870 Y74.422 E4.89480
G1 X80.898 Y75.000 E4.94743
G1 X80.870 Y75.578 E5.00006
G1 X80.785 Y76.151 E5.05269
G1 X80.644 Y76.712 E5.10532
G1 X80.449 Y77.257 E5.15795
G1 X80.202 Y77.780 E5.21060
G1 X79.904 Y78.277 E5.26322
G1 X79.559 Y78.742 E5.31588
G1 X79.211 Y79.126 E5.36304
G1 X79.634 Y79.590 F7800.000
G1 F1800
G1 X79.139 Y80.043 E5.42403
G1 X78.624 Y80.425 E5.48228
G1 X78.075 Y80.754 E5.54048
G1 X77.497 Y81.027 E5.59871
G1 X76.894 Y81.243 E5.65692
G1 X76.273 Y81.399 E5.71513
G1 X75.639 Y81.493 E5.77335
G1 X75.000 Y81.524 E5.83156
G1 X74.361 Y81.493 E5.88977
G1 X73.727 Y81.399 E5.94799
G1 X73.106 Y81.243 E6.00620
G1 X72.503 Y81.027 E6.06442
G1 X71.925 Y80.754 E6.12265
G1 X71.376 Y80.425 E6.18085
G1 X70.861 Y80.043 E6.23909
G1 X70.387 Y79.613 E6.29729
G1 X69.957 Y79.139 E6.35549
G1 X69.575 Y78.624 E6.41373
G1 X69.246 Y78.075 E6.47193
G1 X68.973 Y77.497 E6.53016
G1 X68.757 Y76.894 E6.58838
G1 X68.601 Y76.273 E6.64659
G1 X68.507 Y75.639 E6.70481
G1 X68.476 Y75.000 E6.76302
G1 X68.507 Y74.361 E6.82123
G1 X68.601 Y73.727 E6.87945
G1 X68.757 Y73.106 E6.93766
G1 X68.973 Y72.503 E6.99588
G1 X69.246 Y71.925 E7.05411
G1 X69.575 Y71.376 E7.11231
G1 X69.957 Y70.861 E7.17055
G1 X70.387 Y70.387 E7.22875
G1 X70.861 Y69.957 E7.28695
G1 X71.376 Y69.575 E7.34519
G1 X71.925 Y69.246 E7.40339
G1 X72.503 Y68.973 E7.46162
G1 X73.106 Y68.757 E7.51984
G1 X73.727 Y68.601 E7.57805
G1 X74.361 Y68.507 E7.63627
G1 X75.000 Y68.476 E7.69448
G1 X75.559 Y68.503 E7.74534
G1 X76.278 Y68.603 E7.81133
G1 X76.894 Y68.757 E7.86908
G1 X77.497 Y68.973 E7.92730
G1 X78.075 Y69.246 E7.98553
G1 X78.624 Y69.575 E8.04373
G1 X79.139 Y69.957 E8.10197
G1 X79.613 Y70.387 E8.16017
G1 X80.043 Y70.861 E8.21838
G1 X80.425 Y71.376 E8.27662
G1 X80.754 Y71.925 E8.33482
G1 X81.027 Y72.503 E8.39305
G1 X81.243 Y73.106 E8.45127
G1 X81.399 Y73.727 E8.50948
G1 X81.493 Y74.361 E8.56769
G1 X81.524 Y75.000 E8.62590
G1 X81.493 Y75.639 E8.68411
G1 X81.399 Y76.273 E8.74233
G1 X81.243 Y76.894 E8.80054
G1 X81.027 Y77.497 E8.85876
G1 X80.754 Y78.075 E8.91699
G1 X80.425 Y78.624 E8.97519
G1 X80.043 Y79.139 E9.03343
G1 X79.674 Y79.546 E9.08337
G1 X80.097 Y80.010 F7800.000
G1 F1800
G1 X79.536 Y80.527 E9.15274
G1 X78.972 Y80.945 E9.21656
G1 X78.370 Y81.305 E9.28035
G1 X77.736 Y81.605 E9.34416
G1 X77.075 Y81.842 E9.40796
G1 X76.395 Y82.012 E9.47176
G1 X75.701 Y82.115 E9.53556
G1 X75.000 Y82.150 E9.59935
G1 X74.299 Y82.115 E9.66314
G1 X73.605 Y82.012 E9.72694
G1 X72.925 Y81.842 E9.79074
G1 X72.264 Y81.605 E9.85454
G1 X71.630 Y81.305 E9.91835
G1 X71.028 Y80.945 E9.98213
G1 X70.464 Y80.527 E10.04595
G1 X69.944 Y80.056 E10.10974
G1 X69.473 Y79.536 E10.17353
G1 X69.055 Y78.972 E10.23735
G1 X68.695 Y78.370 E10.30113
G1 X68.395 Y77.736 E10.36494
G1 X68.158 Y77.075 E10.42874
G1 X67.988 Y76.395 E10.49254
G1 X67.885 Y75.701 E10.55634
G1 X67.850 Y75.000 E10.62013
G1 X67.885 Y74.299 E10.68392
G1 X67.988 Y73.605 E10.74772
G1 X68.158 Y72.925 E10.81152
G1 X68.395 Y72.264 E10.87533
G1 X68.695 Y71.630 E10.93913
G1 X69.055 Y71.028 E11.00292
G1 X69.473 Y70.464 E11.06674
G1 X69.944 Y69.944 E11.13053
G1 X70.464 Y69.473 E11.19431
G1 X71.028 Y69.055 E11.25813
G1 X71.630 Y68.695 E11.32192
G1 X72.264 Y68.395 E11.38573
G1 X72.925 Y68.158 E11.44953
G1 X73.605 Y67.988 E11.51333
G1 X74.299 Y67.885 E11.57713
G1 X75.000 Y67.850 E11.64092
G1 X75.617 Y67.881 E11.69706
G1 X76.396 Y67.988 E11.76864
G1 X77.075 Y68.158 E11.83227
G1 X77.736 Y68.395 E11.89608
G1 X78.370 Y68.695 E11.95988
G1 X78.972 Y69.055 E12.02367
G1 X79.536 Y69.473 E12.08749
G1 X80.056 Y69.944 E12.15128
G1 X80.527 Y70.464 E12.21506
G1 X80.945 Y71.028 E12.27888
G1 X81.305 Y71.630 E12.34267
G1 X81.605 Y72.264 E12.40648
G1 X81.842 Y72.925 E12.47028
G1 X82.012 Y73.605 E12.53408
G1 X82.115 Y74.299 E12.59788
G1 X82.150 Y75.000 E12.66167
G1 X82.115 Y75.701 E12.72546
G1 X82.012 Y76.395 E12.78926
G1 X81.842 Y77.075 E12.85306
G1 X81.605 Y77.736 E12.91686
G1 X81.305 Y78.370 E12.98067
G1 X80.945 Y78.972 E13.04445
G1 X80.527 Y79.536 E13.10827
G1 X80.137 Y79.965 E13.16100
G1 X80.037 Y79.998 F7800.000
G1 X78.484 Y78.973 F7800.000
G1 F1800
G1 X78.973 Y78.484 E13.22731
G1 X79.319 Y78.102 E13.27671
G1 X79.627 Y77.686 E13.32638
G1 X79.893 Y77.243 E13.37598
G1 X80.114 Y76.775 E13.42563
G1 X80.306 Y76.219 E13.48204
G1 X76.219 Y80.306 E14.03643
G1 X75.786 Y80.414 E14.07923
G1 X75.274 Y80.490 E14.12885
G1 X75.093 Y80.499 E14.14619
G1 X80.499 Y75.093 E14.87940
G1 X80.516 Y74.757 E14.91170
G1 X80.481 Y74.179 E14.96722
G1 X74.179 Y80.481 E15.82200
G1 X73.728 Y80.414 E15.86570
G1 X73.397 Y80.331 E15.89847
G1 X80.331 Y73.397 E16.83902
G1 X80.289 Y73.227 E16.85586
G1 X80.096 Y72.700 E16.90961
G1 X72.700 Y80.096 E17.91268
G1 X72.271 Y79.893 E17.95819
G1 X72.084 Y79.781 E17.97918
G1 X79.781 Y72.084 E19.02313
G1 X79.627 Y71.828 E19.05174
G1 X79.405 Y71.528 E19.08758
G1 X71.528 Y79.405 E20.15594
G1 X71.029 Y78.971 E20.21931
G1 X78.971 Y71.029 E21.29661
G1 X78.472 Y70.595 E21.35998
G1 X70.595 Y78.472 E22.42834
G1 X70.373 Y78.172 E22.46419
G1 X70.219 Y77.916 E22.49280
G1 X77.916 Y70.219 E23.53674
G1 X77.729 Y70.107 E23.55773
G1 X77.300 Y69.904 E23.60324
G1 X69.904 Y77.300 E24.60631
G1 X69.711 Y76.773 E24.66006
G1 X69.669 Y76.603 E24.67690
G1 X76.603 Y69.669 E25.61745
G1 X76.283 Y69.588 E25.64912
G1 X75.816 Y69.524 E25.69434
G1 X69.519 Y75.821 E26.54841
G1 X69.484 Y75.243 E26.60393
G1 X69.501 Y74.907 E26.63623
G1 X74.907 Y69.501 E27.36944
G1 X74.726 Y69.510 E27.38678
G1 X74.214 Y69.586 E27.43640
G1 X73.781 Y69.694 E27.47920
G1 X69.694 Y73.781 E28.03360
G1 X69.886 Y73.225 E28.09000
G1 X70.107 Y72.757 E28.13965
G1 X70.373 Y72.314 E28.18925
G1 X70.681 Y71.898 E28.23892
G1 X71.027 Y71.516 E28.28832
G1 X71.516 Y71.027 E28.35464
M104 S210 ; set temperature
M140 S65 ; set bed temperature
G1 Z0.650 F7800.000
G1 X79.589 Y79.549 F7800.000
G1 F900
G1 X79.100 Y79.996 E28.38921
G1 X78.590 Y80.374 E28.42236
G1 X78.047 Y80.700 E28.45549
G1 X77.473 Y80.971 E28.48863
G1 X76.876 Y81.185 E28.52177
G1 X76.261 Y81.339 E28.55490
G1 X75.633 Y81.432 E28.58803
G1 X75.000 Y81.463 E28.62116
G1 X74.367 Y81.432 E28.65430
G1 X73.739 Y81.339 E28.68743
G1 X73.124 Y81.185 E28.72056
G1 X72.527 Y80.971 E28.75370
G1 X71.953 Y80.700 E28.78684
G1 X71.410 Y80.374 E28.81997
G1 X70.900 Y79.996 E28.85312
G1 X70.430 Y79.570 E28.88624
G1 X70.004 Y79.100 E28.91937
G1 X69.626 Y78.590 E28.95252
G1 X69.300 Y78.047 E28.98564
G1 X69.029 Y77.473 E29.01879
G1 X68.815 Y76.876 E29.05192
G1 X68.661 Y76.261 E29.08505
G1 X68.568 Y75.633 E29.11819
G1 X68.537 Y75.000 E29.15132
G1 X68.568 Y74.367 E29.18445
G1 X68.661 Y73.739 E29.21758
G1 X68.815 Y73.124 E29.25072
G1 X69.029 Y72.527 E29.28385
G1 X69.300 Y71.953 E29.31699
G1 X69.626 Y71.410 E29.35012
G1 X70.004 Y70.900 E29.38327
G1 X70.430 Y70.430 E29.41639
G1 X70.900 Y70.004 E29.44952
G1 X71.410 Y69.626 E29.48267
G1 X71.953 Y69.300 E29.51580
G1 X72.527 Y69.029 E29.54894
G1 X73.124 Y68.815 E29.58207
G1 X73.739 Y68.661 E29.61521
G1 X74.367 Y68.568 E29.64834
G1 X75.000 Y68.537 E29.68147
G1 X75.633 Y68.568 E29.71460
G1 X76.261 Y68.661 E29.74774
G1 X76.876 Y68.815 E29.78087
G1 X77.473 Y69.029 E29.81400
G1 X78.047 Y69.300 E29.84715
G1 X78.590 Y69.626 E29.88027
G1 X79.100 Y70.004 E29.91342
G1 X79.570 Y70.430 E29.94655
G1 X79.996 Y70.900 E29.97967
G1 X80.374 Y71.410 E30.01282
G1 X80.700 Y71.953 E30.04595
G1 X80.971 Y72.527 E30.07909
G1 X81.185 Y73.124 E30.11223
G1 X81.339 Y73.739 E30.14536
G1 X81.432 Y74.367 E30.17849
G1 X81.463 Y75.000 E30.21162
G1 X81.432 Y75.633 E30.24476
G1 X81.339 Y76.261 E30.27789
G1 X81.185 Y76.876 E30.31102
G1 X80.971 Y77.473 E30.34416
G1 X80.700 Y78.047 E30.37730
G1 X80.374 Y78.590 E30.41043
G1 X79.996 Y79.100 E30.44358
G1 X79.629 Y79.505 E30.47211
G1 X79.899 Y79.830 F7800.000
G1 F3600
G1 X79.366 Y80.320 E30.50991
G1 X78.823 Y80.722 E30.54521
G1 X78.244 Y81.069 E30.58049
G1 X77.634 Y81.358 E30.61578
G1 X76.998 Y81.586 E30.65106
G1 X76.343 Y81.750 E30.68635
G1 X75.674 Y81.849 E30.72163
G1 X75.000 Y81.882 E30.75691
G1 X74.326 Y81.849 E30.79219
G1 X73.657 Y81.750 E30.82748
G1 X73.002 Y81.586 E30.86276
G1 X72.366 Y81.358 E30.89805
G1 X71.756 Y81.069 E30.93334
G1 X71.177 Y80.722 E30.96862
G1 X70.634 Y80.320 E31.00391
G1 X70.134 Y79.866 E31.03919
G1 X69.680 Y79.366 E31.07447
G1 X69.278 Y78.823 E31.10977
G1 X68.931 Y78.244 E31.14504
G1 X68.642 Y77.634 E31.18033
G1 X68.414 Y76.998 E31.21562
G1 X68.250 Y76.343 E31.25090
G1 X68.151 Y75.674 E31.28619
G1 X68.118 Y75.000 E31.32147
G1 X68.151 Y74.326 E31.35675
G1 X68.250 Y73.657 E31.39204
G1 X68.414 Y73.002 E31.42732
G1 X68.642 Y72.366 E31.46261
G1 X68.931 Y71.756 E31.49790
G1 X69.278 Y71.177 E31.53317
G1 X69.680 Y70.634 E31.56847
G1 X70.134 Y70.134 E31.60375
G1 X70.634 Y69.680 E31.63903
G1 X71.177 Y69.278 E31.67432
G1 X71.756 Y68.931 E31.70960
G1 X72.366 Y68.642 E31.74489
G1 X73.002 Y68.414 E31.78018
G1 X73.657 Y68.250 E31.81546
G1 X74.326 Y68.151 E31.85075
G1 X75.000 Y68.118 E31.88603
G1 X75.674 Y68.151 E31.92131
G1 X76.343 Y68.250 E31.95659
G1 X76.998 Y68.414 E31.99188
G1 X77.634 Y68.642 E32.02716
G1 X78.244 Y68.931 E32.06245
G1 X78.823 Y69.278 E32.09773
G1 X79.366 Y69.680 E32.13303
G1 X79.866 Y70.134 E32.16831
G1 X80.320 Y70.634 E32.20358
G1 X80.722 Y71.177 E32.23888
G1 X81.069 Y71.756 E32.27416
G1 X81.358 Y72.366 E32.30945
G1 X81.586 Y73.002 E32.34474
G1 X81.750 Y73.657 E32.38002
G1 X81.849 Y74.326 E32.41530
G1 X81.882 Y75.000 E32.45058
G1 X81.849 Y75.674 E32.48586
G1 X81.750 Y76.343 E32.52115
G1 X81.586 Y76.998 E32.55643
G1 X81.358 Y77.634 E32.59172
G1 X81.069 Y78.244 E32.62701
G1 X80.722 Y78.823 E32.66229
G1 X80.320 Y79.366 E32.69758
G1 X79.939 Y79.786 E32.72719
G1 X80.193 Y80.097 F7800.000
G1 F1800
G1 X79.618 Y80.627 E32.76383
G1 X79.044 Y81.053 E32.79731
G1 X78.432 Y81.420 E32.83078
G1 X77.786 Y81.726 E32.86425
G1 X77.113 Y81.966 E32.89772
G1 X76.420 Y82.140 E32.93119
G1 X75.713 Y82.245 E32.96466
G1 X75.000 Y82.280 E32.99813
G1 X74.287 Y82.245 E33.03159
G1 X73.580 Y82.140 E33.06506
G1 X72.887 Y81.966 E33.09853
G1 X72.214 Y81.726 E33.13200
G1 X71.568 Y81.420 E33.16547
G1 X70.956 Y81.053 E33.19894
G1 X70.382 Y80.627 E33.23242
G1 X69.852 Y80.148 E33.26588
