;generated by ffslicer 2.2.2 12/10/22 15:26:24
;machine_type: Adventurer 3 Series
;right_extruder_material: PLA
;right_extruder_material_density: 1.24
;filament_diameter0: 1.75
;right_extruder_temperature: 210
;layer_height: 0.18
;perimeter_shells: 2
;top_solid_layers: 4
;bottom_solid_layers: 3
;fill_density: 15%
;fill_pattern: hexagon
;base_print_speed: 60
;travel_speed: 80
;platform_temperature: 70
;right_extruder_temperature_raft0: 215
;right_extruder_temperature_reset: 
;left_extruder_temperature_reset: 
;start gcode
M118 X23.20 Y15.00 Z31.85 T0
M140 S70 T0
M104 S215 T0
M104 S0 T1
M107
G90
G28
M132 X Y Z A B
G1 Z50.000 F420
G161 X Y F3300
M7 T0
M6 T0
M651 S255
;layer_count: 172
M108 T0
G1 X15.00 Y-15.00 F4800
;preExtrude:0.20
M106
G1 Z.200 F420
;structure:pre-extrude
G1 X15.00 Y-15.00 F4800
G1 X15.00 Y15.00 E4.3504 F1200
G1 X-15.00 Y15.00 E8.7009
G1 X-15.00 Y-15.00 E13.0513
G1 X15.00 Y-15.00 E17.4017
;raft
;layer:0.40
;support-start
G1 E12.4017 F1500
G1 Z.400 F420
G1 X1.56 Y-8.32 F4800
G1 E17.4017 F1500
;structure:raft
G1 X1.56 Y-8.32 F4200
G1 X2.81 Y-7.98 E17.7774 F480
G1 X3.65 Y-7.63 E18.0413
G1 X4.79 Y-6.98 E18.4219
G1 X5.51 Y-6.42 E18.6865
G1 X6.42 Y-5.51 E19.0597
G1 X6.98 Y-4.79 E19.3243
G1 X7.63 Y-3.65 E19.7049
G1 X7.98 Y-2.81 E19.9688
G1 X8.32 Y-1.56 E20.3445
G1 X8.44 Y-.66 E20.6078
G1 X8.44 Y.66 E20.9907
G1 X8.32 Y1.56 E21.2540
G1 X7.98 Y2.81 E21.6297
G1 X7.63 Y3.65 E21.8937
G1 X6.98 Y4.79 E22.2743
G1 X6.42 Y5.51 E22.5388
G1 X5.51 Y6.42 E22.9121
G1 X4.79 Y6.98 E23.1766
G1 X3.65 Y7.63 E23.5572
G1 X2.81 Y7.98 E23.8211
G1 X1.56 Y8.32 E24.1968
G1 X.66 Y8.44 E24.4602
G1 X-.66 Y8.44 E24.8430
G1 X-1.56 Y8.32 E25.1063
G1 X-2.81 Y7.98 E25.4821
G1 X-3.65 Y7.63 E25.7460
G1 X-4.79 Y6.98 E26.1266
G1 X-5.51 Y6.42 E26.3911
G1 X-6.42 Y5.51 E26.7644
G1 X-6.98 Y4.79 E27.0289
G1 X-7.63 Y3.65 E27.4095
G1 X-7.98 Y2.81 E27.6734
G1 X-8.32 Y1.56 E28.0492
G1 X-8.44 Y.66 E28.3125
G1 X-8.44 Y-.66 E28.6953
G1 X-8.32 Y-1.56 E28.9587
G1 X-7.98 Y-2.81 E29.3344
G1 X-7.63 Y-3.65 E29.5983
G1 X-6.98 Y-4.79 E29.9789
G1 X-6.42 Y-5.51 E30.2434
G1 X-5.51 Y-6.42 E30.6167
G1 X-4.79 Y-6.98 E30.8812
G1 X-3.65 Y-7.63 E31.2618
G1 X-2.81 Y-7.98 E31.5258
G1 X-1.56 Y-8.32 E31.9015
G1 X-.66 Y-8.44 E32.1648
G1 X.66 Y-8.44 E32.5477
G1 X1.56 Y-8.32 E32.8110
G1 E27.8110 F1500
G1 X-7.52 Y-1.43 F4800
G1 E32.8110 F1500
G1 X-7.52 Y-1.43 F4200
G1 X-1.43 Y-7.52 E35.3089 F480
G1 X-.60 Y-7.64 E35.5521
G1 X.60 Y-7.64 E35.9001
G1 X1.40 Y-7.53 E36.1343
G1 X2.56 Y-7.22 E36.4826
G1 X3.29 Y-6.92 E36.7115
G1 X3.70 Y-6.68 E36.8493
G1 X-6.68 Y3.70 E41.1068
G1 X-6.31 Y4.34 E41.3212
G1 X-5.83 Y4.97 E41.5509
G1 X-4.97 Y5.83 E41.9036
G1 X-4.34 Y6.31 E42.1333
G1 X-3.70 Y6.68 E42.3477
G1 X6.68 Y-3.70 E46.6052
G1 X6.92 Y-3.29 E46.7430
G1 X7.22 Y-2.56 E46.9719
G1 X7.53 Y-1.40 E47.3201
G1 X7.64 Y-.60 E47.5543
G1 X7.64 Y.60 E47.9024
G1 X7.52 Y1.42 E48.1427
G1 X1.42 Y7.52 E50.6447
;support-end
;layer:0.40
;support-start
M104 S210 T0
G1 E45.6447 F1500
G1 Z.800 F420
G1 X1.56 Y-8.32 F4800
G1 E50.6447 F1500
G1 X1.56 Y-8.32 F4800
G1 X2.81 Y-7.98 E50.7386 F1800
G1 X3.65 Y-7.63 E50.8046
G1 X4.79 Y-6.98 E50.8998
G1 X5.51 Y-6.42 E50.9659
G1 X6.42 Y-5.51 E51.0592
G1 X6.98 Y-4.79 E51.1254
G1 X7.63 Y-3.65 E51.2205
G1 X7.98 Y-2.81 E51.2865
G1 X8.32 Y-1.56 E51.3804
G1 X8.44 Y-.66 E51.4462
G1 X8.44 Y.66 E51.5420
G1 X8.32 Y1.56 E51.6078
G1 X7.98 Y2.81 E51.7017
G1 X7.63 Y3.65 E51.7677
G1 X6.98 Y4.79 E51.8628
G1 X6.42 Y5.51 E51.9290
G1 X5.51 Y6.42 E52.0223
G1 X4.79 Y6.98 E52.0884
G1 X3.65 Y7.63 E52.1836
G1 X2.81 Y7.98 E52.2496
G1 X1.56 Y8.32 E52.3435
G1 X.66 Y8.44 E52.4093
G1 X-.66 Y8.44 E52.5050
G1 X-1.56 Y8.32 E52.5709
G1 X-2.81 Y7.98 E52.6648
G1 X-3.65 Y7.63 E52.7308
G1 X-4.79 Y6.98 E52.8259
G1 X-5.51 Y6.42 E52.8921
G1 X-6.42 Y5.51 E52.9854
G1 X-6.98 Y4.79 E53.0515
G1 X-7.63 Y3.65 E53.1467
G1 X-7.98 Y2.81 E53.2126
G1 X-8.32 Y1.56 E53.3066
G1 X-8.44 Y.66 E53.3724
G1 X-8.44 Y-.66 E53.4681
G1 X-8.32 Y-1.56 E53.5339
G1 X-7.98 Y-2.81 E53.6279
G1 X-7.63 Y-3.65 E53.6938
G1 X-6.98 Y-4.79 E53.7890
G1 X-6.42 Y-5.51 E53.8551
G1 X-5.51 Y-6.42 E53.9484
G1 X-4.79 Y-6.98 E54.0146
G1 X-3.65 Y-7.63 E54.1097
G1 X-2.81 Y-7.98 E54.1757
G1 X-1.56 Y-8.32 E54.2696
G1 X-.66 Y-8.44 E54.3355
G1 X.66 Y-8.44 E54.4312
G1 X1.56 Y-8.32 E54.4970
G1 E49.4970 F1500
G1 X3.43 Y-7.51 F4800
G1 E54.4970 F1500
G1 X3.43 Y-7.51 F4800
G1 X7.51 Y-3.43 E54.9154 F1800
G1 X7.79 Y-2.74 E54.9694
G1 X8.12 Y-1.51 E55.0617
G1 X8.22 Y-.72 E55.1194
G1 X.72 Y-8.22 E55.8885
G1 X.65 Y-8.23 E55.8936
G1 X-.65 Y-8.23 E55.9879
G1 X-1.20 Y-8.16 E56.0281
G1 X8.16 Y1.20 E56.9879
G1 X8.12 Y1.51 E57.0105
G1 X7.79 Y2.74 E57.1029
G1 X7.77 Y2.80 E57.1074
G1 X-2.80 Y-7.77 E58.1913
G1 X-3.56 Y-7.45 E58.2511
G1 X-4.14 Y-7.12 E58.2995
G1 X7.12 Y4.14 E59.4541
G1 X6.81 Y4.67 E59.4986
G1 X6.31 Y5.32 E59.5581
G1 X-5.32 Y-6.31 E60.7506
G1 X-5.38 Y-6.27 E60.7558
G1 X-6.27 Y-5.38 E60.8471
G1 X-6.31 Y-5.32 E60.8523
G1 X5.32 Y6.31 E62.0449
G1 X4.67 Y6.81 E62.1043
G1 X4.14 Y7.12 E62.1489
G1 X-7.12 Y-4.14 E63.3035
G1 X-7.45 Y-3.56 E63.3518
G1 X-7.77 Y-2.80 E63.4116
G1 X2.80 Y7.77 E64.4955
G1 X2.74 Y7.79 E64.5001
G1 X1.51 Y8.12 E64.5924
G1 X1.20 Y8.16 E64.6151
G1 X-8.16 Y-1.20 E65.5748
G1 X-8.23 Y-.65 E65.6150
G1 X-8.23 Y.65 E65.7093
G1 X-8.22 Y.72 E65.7144
G1 X-.72 Y8.22 E66.4835
G1 X-1.51 Y8.12 E66.5412
G1 X-2.74 Y7.79 E66.6336
G1 X-3.43 Y7.51 E66.6875
G1 X-7.51 Y3.43 E67.1059
;support-end
;layer:0.25
;support-start
G1 E62.1059 F1500
G1 Z1.050 F420
G1 X1.56 Y-8.32 F4800
G1 E67.1059 F1500
G1 X1.56 Y-8.32 F4800
G1 X2.81 Y-7.98 E67.1646 F3600
G1 X3.65 Y-7.63 E67.2059
G1 X4.79 Y-6.98 E67.2653
G1 X5.51 Y-6.42 E67.3067
G1 X6.42 Y-5.51 E67.3650
G1 X6.98 Y-4.79 E67.4063
G1 X7.63 Y-3.65 E67.4658
G1 X7.98 Y-2.81 E67.5070
G1 X8.32 Y-1.56 E67.5657
G1 X8.44 Y-.66 E67.6069
G1 X8.44 Y.66 E67.6667
G1 X8.32 Y1.56 E67.7079
G1 X7.98 Y2.81 E67.7666
G1 X7.63 Y3.65 E67.8078
G1 X6.98 Y4.79 E67.8673
G1 X6.42 Y5.51 E67.9086
G1 X5.51 Y6.42 E67.9669
G1 X4.79 Y6.98 E68.0083
G1 X3.65 Y7.63 E68.0677
G1 X2.81 Y7.98 E68.1090
G1 X1.56 Y8.32 E68.1677
G1 X.66 Y8.44 E68.2088
G1 X-.66 Y8.44 E68.2686
G1 X-1.56 Y8.32 E68.3098
G1 X-2.81 Y7.98 E68.3685
G1 X-3.65 Y7.63 E68.4097
G1 X-4.79 Y6.98 E68.4692
G1 X-5.51 Y6.42 E68.5105
G1 X-6.42 Y5.51 E68.5689
G1 X-6.98 Y4.79 E68.6102
G1 X-7.63 Y3.65 E68.6697
G1 X-7.98 Y2.81 E68.7109
G1 X-8.32 Y1.56 E68.7696
G1 X-8.44 Y.66 E68.8108
G1 X-8.44 Y-.66 E68.8706
G1 X-8.32 Y-1.56 E68.9117
G1 X-7.98 Y-2.81 E68.9704
G1 X-7.63 Y-3.65 E69.0117
G1 X-6.98 Y-4.79 E69.0711
G1 X-6.42 Y-5.51 E69.1125
G1 X-5.51 Y-6.42 E69.1708
G1 X-4.79 Y-6.98 E69.2121
G1 X-3.65 Y-7.63 E69.2716
G1 X-2.81 Y-7.98 E69.3128
G1 X-1.56 Y-8.32 E69.3715
G1 X-.66 Y-8.44 E69.4127
G1 X.66 Y-8.44 E69.4725
G1 X1.56 Y-8.32 E69.5137
G1 E64.5137 F1500
G1 X-6.46 Y-5.13 F4800
G1 E69.5137 F1500
G1 X-6.46 Y-5.13 F4800
G1 X-5.13 Y-6.46 E69.5989 F3600
G1 X-4.67 Y-6.81 E69.6251
G1 X-3.52 Y-7.47 E69.6852
G1 X-7.47 Y-3.52 E69.9383
G1 X-7.79 Y-2.74 E69.9765
G1 X-7.84 Y-2.56 E69.9850
G1 X-2.56 Y-7.84 E70.3234
G1 X-1.74 Y-8.06 E70.3619
G1 X-8.06 Y-1.74 E70.7669
G1 X-8.12 Y-1.51 E70.7777
G1 X-8.18 Y-1.02 E70.8000
G1 X-1.02 Y-8.18 E71.2589
G1 X-.65 Y-8.23 E71.2758
G1 X-.38 Y-8.23 E71.2881
G1 X-8.23 Y-.38 E71.7911
G1 X-8.23 Y.22 E71.8183
G1 X.22 Y-8.23 E72.3599
G1 X.79 Y-8.21 E72.3857
G1 X-8.21 Y.79 E72.9625
G1 X-8.15 Y1.32 E72.9867
G1 X1.32 Y-8.15 E73.5936
G1 X1.81 Y-8.04 E73.6164
G1 X-8.04 Y1.81 E74.2476
G1 X-7.91 Y2.28 E74.2697
G1 X2.28 Y-7.91 E74.9228
G1 X2.75 Y-7.79 E74.9448
G1 X-7.79 Y2.75 E75.6202
G1 X-7.61 Y3.17 E75.6410
G1 X3.17 Y-7.61 E76.3318
G1 X3.59 Y-7.44 E76.3524
G1 X-7.44 Y3.59 E77.0592
G1 X-7.22 Y3.97 E77.0791
G1 X3.97 Y-7.22 E77.7963
G1 X4.34 Y-7.00 E77.8158
G1 X-7.00 Y4.34 E78.5426
G1 X-6.78 Y4.71 E78.5621
G1 X4.71 Y-6.78 E79.2984
G1 X5.05 Y-6.52 E79.3178
G1 X-6.52 Y5.05 E80.0593
G1 X-6.26 Y5.39 E80.0787
G1 X5.39 Y-6.26 E80.8253
G1 X5.69 Y-5.96 E80.8446
G1 X-5.96 Y5.69 E81.5912
G1 X-5.66 Y5.98 E81.6101
G1 X5.98 Y-5.66 E82.3561
G1 X6.28 Y-5.36 E82.3753
G1 X-5.36 Y6.28 E83.1213
G1 X-5.03 Y6.54 E83.1403
G1 X6.54 Y-5.03 E83.8818
G1 X6.80 Y-4.69 E83.9012
G1 X-4.69 Y6.80 E84.6376
G1 X-4.32 Y7.02 E84.6571
G1 X7.02 Y-4.32 E85.3839
G1 X7.23 Y-3.94 E85.4035
G1 X-3.94 Y7.23 E86.1194
G1 X-3.56 Y7.45 E86.1393
G1 X7.45 Y-3.56 E86.8449
G1 X7.63 Y-3.14 E86.8656
G1 X-3.14 Y7.63 E87.5559
G1 X-2.71 Y7.80 E87.5768
G1 X7.80 Y-2.71 E88.2504
G1 X7.92 Y-2.24 E88.2723
G1 X-2.24 Y7.92 E88.9235
G1 X-1.78 Y8.05 E88.9451
G1 X8.05 Y-1.78 E89.5751
G1 X8.15 Y-1.28 E89.5982
G1 X-1.28 Y8.15 E90.2026
G1 X-.76 Y8.22 E90.2264
G1 X8.22 Y-.76 E90.8019
G1 X8.23 Y-.17 E90.8286
G1 X-.17 Y8.23 E91.3670
G1 X.42 Y8.23 E91.3937
G1 X8.23 Y.42 E91.8942
G1 X8.23 Y.65 E91.9046
G1 X8.18 Y1.07 E91.9238
G1 X1.07 Y8.18 E92.3795
G1 X1.51 Y8.12 E92.3996
G1 X1.80 Y8.04 E92.4132
G1 X8.04 Y1.80 E92.8131
G1 X7.82 Y2.62 E92.8516
G1 X2.62 Y7.82 E93.1849
G1 X2.74 Y7.79 E93.1905
G1 X3.61 Y7.42 E93.2333
G1 X7.42 Y3.61 E93.4775
G1 X6.81 Y4.67 E93.5329
G1 X6.31 Y5.32 E93.5701
G1 X5.32 Y6.31 E93.6335
;support-end
;layer:0.25
;support-start
G1 E88.6335 F1500
G1 X1.56 Y-8.32 F4800
G1 Z1.300 F420
G1 E93.6335 F1500
G1 X1.56 Y-8.32 F4800
G1 X2.81 Y-7.98 E93.6922 F3600
G1 X3.65 Y-7.63 E93.7335
G1 X4.79 Y-6.98 E93.7929
G1 X5.51 Y-6.42 E93.8343
G1 X6.42 Y-5.51 E93.8926
G1 X6.98 Y-4.79 E93.9339
G1 X7.63 Y-3.65 E93.9934
G1 X7.98 Y-2.81 E94.0346
G1 X8.32 Y-1.56 E94.0933
G1 X8.44 Y-.66 E94.1345
G1 X8.44 Y.66 E94.1943
G1 X8.32 Y1.56 E94.2354
G1 X7.98 Y2.81 E94.2942
G1 X7.63 Y3.65 E94.3354
G1 X6.98 Y4.79 E94.3949
G1 X6.42 Y5.51 E94.4362
G1 X5.51 Y6.42 E94.4945
G1 X4.79 Y6.98 E94.5359
G1 X3.65 Y7.63 E94.5953
G1 X2.81 Y7.98 E94.6366
G1 X1.56 Y8.32 E94.6953
G1 X.66 Y8.44 E94.7364
G1 X-.66 Y8.44 E94.7962
G1 X-1.56 Y8.32 E94.8374
G1 X-2.81 Y7.98 E94.8961
G1 X-3.65 Y7.63 E94.9373
G1 X-4.79 Y6.98 E94.9968
G1 X-5.51 Y6.42 E95.0381
G1 X-6.42 Y5.51 E95.0965
G1 X-6.98 Y4.79 E95.1378
G1 X-7.63 Y3.65 E95.1973
G1 X-7.98 Y2.81 E95.2385
G1 X-8.32 Y1.56 E95.2972
G1 X-8.44 Y.66 E95.3384
G1 X-8.44 Y-.66 E95.3982
G1 X-8.32 Y-1.56 E95.4393
G1 X-7.98 Y-2.81 E95.4980
G1 X-7.63 Y-3.65 E95.5393
G1 X-6.98 Y-4.79 E95.5987
G1 X-6.42 Y-5.51 E95.6401
G1 X-5.51 Y-6.42 E95.6984
G1 X-4.79 Y-6.98 E95.7397
G1 X-3.65 Y-7.63 E95.7992
G1 X-2.81 Y-7.98 E95.8404
G1 X-1.56 Y-8.32 E95.8991
G1 X-.66 Y-8.44 E95.9403
G1 X.66 Y-8.44 E96.0001
G1 X1.56 Y-8.32 E96.0413
G1 E91.0413 F1500
G1 X5.13 Y-6.46 F4800
G1 E96.0413 F1500
G1 X5.13 Y-6.46 F4800
G1 X6.46 Y-5.13 E96.1265 F3600
G1 X6.81 Y-4.67 E96.1527
G1 X7.47 Y-3.52 E96.2128
G1 X3.52 Y-7.47 E96.4659
G1 X2.74 Y-7.79 E96.5041
G1 X2.56 Y-7.84 E96.5126
G1 X7.84 Y-2.56 E96.8510
G1 X8.06 Y-1.74 E96.8895
G1 X1.74 Y-8.06 E97.2945
G1 X1.51 Y-8.12 E97.3053
G1 X1.02 Y-8.18 E97.3276
G1 X8.18 Y-1.02 E97.7865
G1 X8.23 Y-.65 E97.8034
G1 X8.23 Y-.38 E97.8157
G1 X.38 Y-8.23 E98.3187
G1 X-.22 Y-8.23 E98.3459
G1 X8.23 Y.22 E98.8875
G1 X8.21 Y.79 E98.9133
G1 X-.79 Y-8.21 E99.4901
G1 X-1.32 Y-8.15 E99.5143
G1 X8.15 Y1.32 E100.1212
G1 X8.04 Y1.81 E100.1439
G1 X-1.81 Y-8.04 E100.7752
G1 X-2.28 Y-7.91 E100.7973
G1 X7.91 Y2.28 E101.4504
G1 X7.79 Y2.75 E101.4724
G1 X-2.75 Y-7.79 E102.1478
G1 X-3.17 Y-7.61 E102.1686
G1 X7.61 Y3.17 E102.8594
G1 X7.44 Y3.59 E102.8799
G1 X-3.59 Y-7.44 E103.5868
G1 X-3.97 Y-7.22 E103.6067
G1 X7.22 Y3.97 E104.3239
G1 X7.00 Y4.34 E104.3434
G1 X-4.34 Y-7.00 E105.0701
G1 X-4.71 Y-6.78 E105.0897
G1 X6.78 Y4.71 E105.8260
G1 X6.52 Y5.05 E105.8454
G1 X-5.05 Y-6.52 E106.5869
G1 X-5.39 Y-6.26 E106.6063
G1 X6.26 Y5.39 E107.3529
G1 X5.96 Y5.69 E107.3722
G1 X-5.69 Y-5.96 E108.1188
G1 X-5.98 Y-5.66 E108.1377
G1 X5.66 Y5.98 E108.8837
G1 X5.36 Y6.28 E108.9029
G1 X-6.28 Y-5.36 E109.6489
G1 X-6.54 Y-5.03 E109.6679
G1 X5.03 Y6.54 E110.4094
G1 X4.69 Y6.80 E110.4288
G1 X-6.80 Y-4.69 E111.1652
G1 X-7.02 Y-4.32 E111.1847
G1 X4.32 Y7.02 E111.9115
G1 X3.94 Y7.23 E111.9311
G1 X-7.23 Y-3.94 E112.6470
G1 X-7.45 Y-3.56 E112.6669
G1 X3.56 Y7.45 E113.3725
G1 X3.14 Y7.63 E113.3932
G1 X-7.63 Y-3.14 E114.0834
G1 X-7.80 Y-2.71 E114.1044
G1 X2.71 Y7.80 E114.7780
G1 X2.24 Y7.92 E114.7999
G1 X-7.92 Y-2.24 E115.4511
G1 X-8.05 Y-1.78 E115.4727
G1 X1.78 Y8.05 E116.1027
G1 X1.28 Y8.15 E116.1258
G1 X-8.15 Y-1.28 E116.7302
G1 X-8.22 Y-.76 E116.7540
G1 X.76 Y8.22 E117.3295
G1 X.17 Y8.23 E117.3562
G1 X-8.23 Y-.17 E117.8946
G1 X-8.23 Y.42 E117.9213
G1 X-.42 Y8.23 E118.4218
G1 X-.65 Y8.23 E118.4322
G1 X-1.07 Y8.18 E118.4514
G1 X-8.18 Y1.07 E118.9071
G1 X-8.12 Y1.51 E118.9272
G1 X-8.04 Y1.80 E118.9408
G1 X-1.80 Y8.04 E119.3407
G1 X-2.62 Y7.82 E119.3792
G1 X-7.82 Y2.62 E119.7125
G1 X-7.79 Y2.74 E119.7181
G1 X-7.42 Y3.61 E119.7609
G1 X-3.61 Y7.42 E120.0051
G1 X-4.67 Y6.81 E120.0605
G1 X-5.32 Y6.31 E120.0977
G1 X-6.31 Y5.32 E120.1611
;support-end
;layer:0.25
;support-start
G1 E115.1611 F1500
G1 X1.56 Y-8.32 F4800
G1 Z1.550 F420
G1 E120.1611 F1500
G1 X1.56 Y-8.32 F4800
G1 X2.81 Y-7.98 E120.2198 F3600
G1 X3.65 Y-7.63 E120.2611
G1 X4.79 Y-6.98 E120.3205
G1 X5.51 Y-6.42 E120.3619
G1 X6.42 Y-5.51 E120.4202
G1 X6.98 Y-4.79 E120.4615
G1 X7.63 Y-3.65 E120.5210
G1 X7.98 Y-2.81 E120.5622
G1 X8.32 Y-1.56 E120.6209
G1 X8.44 Y-.66 E120.6621
G1 X8.44 Y.66 E120.7219
G1 X8.32 Y1.56 E120.7630
G1 X7.98 Y2.81 E120.8217
G1 X7.63 Y3.65 E120.8630
G1 X6.98 Y4.79 E120.9225
G1 X6.42 Y5.51 E120.9638
G1 X5.51 Y6.42 E121.0221
G1 X4.79 Y6.98 E121.0635
G1 X3.65 Y7.63 E121.1229
G1 X2.81 Y7.98 E121.1642
G1 X1.56 Y8.32 E121.2229
G1 X.66 Y8.44 E121.2640
G1 X-.66 Y8.44 E121.3238
G1 X-1.56 Y8.32 E121.3650
G1 X-2.81 Y7.98 E121.4237
G1 X-3.65 Y7.63 E121.4649
G1 X-4.79 Y6.98 E121.5244
G1 X-5.51 Y6.42 E121.5657
G1 X-6.42 Y5.51 E121.6241
G1 X-6.98 Y4.79 E121.6654
G1 X-7.63 Y3.65 E121.7249
G1 X-7.98 Y2.81 E121.7661
G1 X-8.32 Y1.56 E121.8248
G1 X-8.44 Y.66 E121.8660
G1 X-8.44 Y-.66 E121.9258
G1 X-8.32 Y-1.56 E121.9669
G1 X-7.98 Y-2.81 E122.0256
G1 X-7.63 Y-3.65 E122.0669
G1 X-6.98 Y-4.79 E122.1263
G1 X-6.42 Y-5.51 E122.1677
G1 X-5.51 Y-6.42 E122.2260
G1 X-4.79 Y-6.98 E122.2673
G1 X-3.65 Y-7.63 E122.3268
G1 X-2.81 Y-7.98 E122.3680
G1 X-1.56 Y-8.32 E122.4267
G1 X-.66 Y-8.44 E122.4679
G1 X.66 Y-8.44 E122.5277
G1 X1.56 Y-8.32 E122.5689
G1 E117.5689 F1500
G1 X-6.46 Y-5.13 F4800
G1 E122.5689 F1500
G1 X-6.46 Y-5.13 F4800
G1 X-5.13 Y-6.46 E122.6541 F3600
G1 X-4.67 Y-6.81 E122.6803
G1 X-3.52 Y-7.47 E122.7404
G1 X-7.47 Y-3.52 E122.9935
G1 X-7.79 Y-2.74 E123.0317
G1 X-7.84 Y-2.56 E123.0402
G1 X-2.56 Y-7.84 E123.3786
G1 X-1.74 Y-8.06 E123.4171
G1 X-8.06 Y-1.74 E123.8221
G1 X-8.12 Y-1.51 E123.8329
G1 X-8.18 Y-1.02 E123.8552
G1 X-1.02 Y-8.18 E124.3141
G1 X-.65 Y-8.23 E124.3310
G1 X-.38 Y-8.23 E124.3433
G1 X-8.23 Y-.38 E124.8463
G1 X-8.23 Y.22 E124.8735
G1 X.22 Y-8.23 E125.4151
G1 X.79 Y-8.21 E125.4409
G1 X-8.21 Y.79 E126.0177
G1 X-8.15 Y1.32 E126.0419
G1 X1.32 Y-8.15 E126.6488
G1 X1.81 Y-8.04 E126.6715
G1 X-8.04 Y1.81 E127.3028
G1 X-7.91 Y2.28 E127.3249
G1 X2.28 Y-7.91 E127.9780
G1 X2.75 Y-7.79 E128.0000
G1 X-7.79 Y2.75 E128.6754
G1 X-7.61 Y3.17 E128.6961
G1 X3.17 Y-7.61 E129.3870
G1 X3.59 Y-7.44 E129.4075
G1 X-7.44 Y3.59 E130.1144
G1 X-7.22 Y3.97 E130.1343
G1 X3.97 Y-7.22 E130.8515
G1 X4.34 Y-7.00 E130.8710
G1 X-7.00 Y4.34 E131.5977
G1 X-6.78 Y4.71 E131.6172
G1 X4.71 Y-6.78 E132.3536
G1 X5.05 Y-6.52 E132.3730
G1 X-6.52 Y5.05 E133.1145
G1 X-6.26 Y5.39 E133.1339
G1 X5.39 Y-6.26 E133.8805
G1 X5.69 Y-5.96 E133.8997
G1 X-5.96 Y5.69 E134.6464
G1 X-5.66 Y5.98 E134.6653
G1 X5.98 Y-5.66 E135.4113
G1 X6.28 Y-5.36 E135.4305
G1 X-5.36 Y6.28 E136.1765
G1 X-5.03 Y6.54 E136.1955
G1 X6.54 Y-5.03 E136.9370
G1 X6.80 Y-4.69 E136.9564
G1 X-4.69 Y6.80 E137.6928
G1 X-4.32 Y7.02 E137.7123
G1 X7.02 Y-4.32 E138.4390
G1 X7.23 Y-3.94 E138.4587
G1 X-3.94 Y7.23 E139.1745
G1 X-3.56 Y7.45 E139.1944
G1 X7.45 Y-3.56 E139.9000
G1 X7.63 Y-3.14 E139.9207
G1 X-3.14 Y7.63 E140.6110
G1 X-2.71 Y7.80 E140.6319
G1 X7.80 Y-2.71 E141.3055
G1 X7.92 Y-2.24 E141.3275
G1 X-2.24 Y7.92 E141.9786
G1 X-1.78 Y8.05 E142.0002
G1 X8.05 Y-1.78 E142.6302
G1 X8.15 Y-1.28 E142.6533
G1 X-1.28 Y8.15 E143.2577
G1 X-.76 Y8.22 E143.2815
G1 X8.22 Y-.76 E143.8570
G1 X8.23 Y-.17 E143.8837
G1 X-.17 Y8.23 E144.4220
G1 X.42 Y8.23 E144.4488
G1 X8.23 Y.42 E144.9493
G1 X8.23 Y.65 E144.9597
G1 X8.18 Y1.07 E144.9789
G1 X1.07 Y8.18 E145.4346
